<?xml version="1.0" encoding="UTF-8"?>
<map version="1.10" tiledversion="1.12.2" orientation="orthogonal" renderorder="right-down" width="80" height="44" tilewidth="32" tileheight="32" infinite="0" nextlayerid="35" nextobjectid="674">
 <tileset firstgid="1" name="InteriorTilesLITE" tilewidth="32" tileheight="32" tilecount="224" columns="16">
  <image source="tilemaps/InteriorTilesLITE.png" width="512" height="448"/>
 </tileset>
 <tileset firstgid="225" name="Scene Overview" tilewidth="32" tileheight="32" tilecount="1369" columns="37">
  <image source="tilemaps/Scene Overview.png" width="1200" height="1200"/>
 </tileset>
 <tileset firstgid="1594" name="windows_and_doors" tilewidth="32" tileheight="32" tilecount="1024" columns="32">
  <image source="tilemaps/windows_and_doors.png" width="1024" height="1024"/>
 </tileset>
 <tileset firstgid="2618" name="furniture_and_props" tilewidth="32" tileheight="32" tilecount="1677" columns="43">
  <image source="tilemaps/furniture_and_props.png" width="1376" height="1248"/>
 </tileset>
 <tileset firstgid="4295" name="windows_and_doors2" tilewidth="32" tileheight="32" tilecount="1024" columns="32">
  <image source="tilemaps/windows_and_doors2.png" width="1024" height="1024"/>
 </tileset>
 <tileset firstgid="5319" name="mockup2" tilewidth="32" tileheight="32" tilecount="276" columns="23">
  <image source="tilemaps/mockup2.png" width="736" height="384"/>
 </tileset>
 <tileset firstgid="5595" name="mockup6" tilewidth="32" tileheight="32" tilecount="240" columns="20">
  <image source="tilemaps/mockup6.gif" width="640" height="384"/>
 </tileset>
 <tileset firstgid="5835" name="fancy_mansion_furnitureset_withshadow" tilewidth="32" tileheight="32" tilecount="195" columns="13">
  <image source="tilemaps/fancy_mansion_furnitureset_withshadow.png" width="416" height="480"/>
 </tileset>
 <tileset firstgid="6030" name="fancy_mansion_room_door_tiles" tilewidth="32" tileheight="32" tilecount="216" columns="18">
  <image source="tilemaps/fancy_mansion_room_door_tiles.png" width="576" height="384"/>
 </tileset>
 <tileset firstgid="6246" name="TX Tileset Grass" tilewidth="32" tileheight="32" tilecount="64" columns="8">
  <image source="tilemaps/TX Tileset Grass.png" width="256" height="256"/>
 </tileset>
 <tileset firstgid="6310" name="TX Plant" tilewidth="32" tileheight="32" tilecount="256" columns="16">
  <image source="tilemaps/TX Plant.png" width="512" height="512"/>
 </tileset>
 <tileset firstgid="6566" name="TX Props" tilewidth="32" tileheight="32" tilecount="256" columns="16">
  <image source="tilemaps/TX Props.png" width="512" height="512"/>
 </tileset>
 <tileset firstgid="6822" name="Content" tilewidth="32" tileheight="32" tilecount="1024" columns="32">
  <image source="tilemaps/Content.png" width="1024" height="1024"/>
 </tileset>
 <tileset firstgid="7846" name="fancy_mansion_room_door_tiles" tilewidth="32" tileheight="32" tilecount="216" columns="18">
  <image source="tilemaps/fancy_mansion_room_door_tiles.png" width="576" height="384"/>
 </tileset>
 <tileset firstgid="8062" name="InteriorTilesLITE" tilewidth="32" tileheight="32" tilecount="224" columns="16">
  <image source="tilemaps/InteriorTilesLITE.png" width="512" height="448"/>
 </tileset>
 <tileset firstgid="8286" name="statues1" tilewidth="32" tileheight="32" tilecount="108" columns="12">
  <image source="tilemaps/statues1.png" width="384" height="288"/>
 </tileset>
 <tileset firstgid="8394" source="sprites/Sprites_NPCs.tsx"/>
 <layer id="1" name="chao" width="80" height="44">
  <data encoding="csv">
0,0,0,0,0,0,0,0,0,0,0,0,0,0,0,0,0,0,0,0,0,0,0,0,0,0,0,0,0,0,0,0,5711,0,0,0,0,0,0,0,0,0,0,0,0,0,0,0,0,0,0,0,0,0,0,0,0,0,0,0,0,0,0,0,0,0,0,0,0,0,0,0,0,0,0,0,0,0,0,0,
0,0,0,0,0,0,0,0,0,0,0,0,0,0,0,0,0,0,0,0,0,0,0,5691,5711,5711,5711,5711,5711,5711,5711,5711,5691,5711,5711,5711,5711,5711,5711,5711,5771,0,0,0,0,0,0,0,0,0,0,0,0,0,0,0,0,0,0,0,0,0,0,0,0,0,0,0,0,0,0,0,0,0,0,0,0,0,0,0,
0,0,0,0,0,0,0,0,0,0,0,0,0,0,0,0,0,0,0,0,0,0,0,5711,5711,5711,5711,5711,5711,5711,5711,5711,5711,5711,5711,5711,5711,5711,5711,5711,5711,0,0,0,0,0,0,0,0,0,0,0,0,0,0,0,0,0,0,0,0,0,0,0,0,0,0,0,0,0,0,0,0,0,0,0,0,0,0,0,
0,0,0,0,0,0,0,0,0,0,0,0,0,0,0,0,0,0,0,0,0,0,0,5711,5711,5711,5711,5711,5711,5711,5711,5711,5711,5711,5711,5711,5711,5711,5711,5711,5711,0,0,0,0,0,0,0,0,0,0,0,0,0,0,0,0,0,0,0,0,0,0,0,0,0,0,0,0,0,0,0,0,0,0,0,0,0,0,0,
0,0,0,0,0,0,0,0,0,0,0,0,0,0,0,0,0,0,0,0,0,0,0,5711,5711,5711,5751,5711,5711,5711,5711,5711,5711,5711,5711,5711,5711,5711,5711,5711,5711,0,0,0,0,0,0,0,0,0,0,0,0,0,0,0,0,0,0,0,0,0,0,0,0,0,0,0,0,0,0,0,0,0,0,0,0,0,0,0,
0,0,0,0,0,0,0,0,0,0,0,0,0,0,0,0,0,0,0,0,0,0,0,5711,5711,5711,5711,5711,5711,5711,5711,5711,5711,5711,5711,5711,5711,5711,5711,5711,5711,0,0,0,0,0,0,0,0,0,0,0,0,0,0,0,0,0,0,0,0,0,0,0,0,0,0,0,0,0,0,0,0,0,0,0,0,0,0,0,
0,0,0,0,0,0,0,0,0,0,0,0,0,0,0,0,0,0,0,0,0,0,0,5711,5711,5711,5711,5711,5711,5711,5711,5711,5711,5745,5711,5711,5711,5711,5711,5711,5711,0,0,0,0,0,0,0,0,0,0,0,0,0,0,0,0,0,0,0,0,0,0,0,0,6029,6029,6029,6029,6029,6029,6029,6029,6029,6029,6029,0,0,0,0,
0,0,0,0,0,0,0,0,0,0,0,0,0,0,0,0,0,0,0,0,0,0,0,5711,5751,5711,5711,5711,5711,5711,5711,5711,5711,5711,5711,5711,5751,5711,5711,5711,5711,0,0,0,0,0,0,0,0,0,0,0,0,0,0,0,0,0,0,0,0,0,0,0,0,6029,6029,6029,6029,6029,6029,6029,6029,6029,6029,6029,0,0,0,0,
0,0,0,0,0,0,0,0,0,0,0,0,0,0,0,0,0,0,0,0,0,0,0,5771,5711,5711,5711,5711,5711,5711,5711,5711,5711,5711,5711,5751,5711,5771,5711,5711,5711,0,0,0,0,0,0,0,0,0,0,0,0,0,0,0,0,0,0,0,0,0,0,0,0,6029,6029,6029,6029,6029,6029,6029,6029,6029,6029,6029,0,0,0,0,
0,0,0,0,0,0,0,0,0,0,0,0,0,0,0,0,0,0,0,0,0,0,0,0,0,0,0,0,0,0,0,0,5711,0,0,0,0,0,0,0,0,0,0,0,0,0,0,0,0,0,0,0,0,0,0,0,0,0,0,0,0,0,0,0,0,6029,6029,6029,6029,6029,6029,6029,6029,6029,6029,6029,0,0,0,0,
0,0,0,0,0,0,0,0,0,0,0,0,0,0,0,0,0,0,0,0,0,0,0,0,0,0,0,0,0,0,0,17,17,17,0,0,0,0,0,0,0,0,0,0,0,0,0,0,0,0,0,0,0,0,0,0,0,0,0,0,0,0,0,0,0,6029,6029,6029,6029,6029,6029,6029,6029,6029,6029,6029,0,0,0,0,
0,7043,7043,7043,7043,7043,7043,8062,8062,8062,0,7043,7043,7043,7043,7043,7043,8062,8062,8062,0,7043,7043,7043,7043,7043,7043,8062,8062,8062,0,17,17,17,0,33,33,33,33,33,33,33,33,33,33,33,33,33,33,33,33,33,33,33,33,33,33,33,33,33,33,0,0,0,0,6029,6029,6029,6029,6029,6029,6029,6029,6029,6029,6029,0,0,0,0,
0,7043,7043,7043,7043,7043,7043,8062,8062,8062,0,7043,7043,7043,7043,7043,7043,8062,8062,8062,0,7043,7043,7043,7043,7043,7043,8062,8062,8062,0,17,17,17,0,6160,6160,6160,6160,6160,6160,6160,6160,6160,6160,6160,6160,6160,6160,6160,6160,6160,6160,6160,6160,6160,6160,6160,6160,6160,6160,0,0,0,0,0,0,0,0,8078,8078,8078,0,0,0,0,0,0,0,0,
0,7043,7043,7043,7043,7043,7043,8062,8062,8062,0,7043,7043,7043,7043,7043,7043,8062,8062,8062,0,7043,7043,7043,7043,7043,7043,8062,8062,8062,0,17,17,17,0,6160,6160,6160,6160,6160,6160,6160,6160,6160,6160,6160,6160,6160,6160,6160,6160,6160,6160,6160,6160,6160,6160,6160,6160,6160,6160,0,6029,6029,6029,6029,6029,6029,6029,8078,8078,8078,6029,6029,6029,6029,6029,6029,6029,0,
0,7043,7043,7043,7043,7043,7043,7043,7043,7043,0,7043,7043,7043,7043,7043,7043,7043,7043,7043,0,7043,7043,7043,7043,7043,7043,7043,7043,8094,0,17,17,17,0,6160,6160,6160,6160,6160,6160,6160,6160,6160,6160,6160,6160,6160,6160,6160,6160,6160,6160,6160,6160,6160,6160,6160,6160,6160,6160,0,6029,6029,6029,6029,6029,6029,6029,8078,8078,8078,6029,6029,6029,6029,6029,6029,6029,0,
0,7043,7043,7043,7043,7043,7043,7043,7043,7043,0,7043,7043,7043,7043,7043,7043,7043,7043,7043,0,7043,7043,7043,7043,7043,7043,7043,7043,7043,0,17,17,17,0,6160,6160,6160,6160,6160,6160,6160,6160,6160,6160,6160,6160,6160,6160,6160,6160,6160,6160,6160,6160,6160,6160,6160,6160,6160,6160,0,6029,6029,6029,6029,6029,6029,6029,8078,8078,8078,6029,6029,6029,6029,6029,6029,6029,0,
0,7043,7043,7043,7043,7043,7043,7043,7043,7043,0,7043,7043,7043,7043,7043,7043,7043,7043,7043,0,7043,7043,7043,7043,7043,7043,7043,7043,7043,0,17,17,17,0,6160,6160,6160,6160,6160,6160,6160,6160,6160,6160,6160,6160,6160,6160,6160,6160,6160,6160,6160,6160,6160,6160,6160,6160,6160,6160,0,6029,6029,6029,6029,6029,6029,6029,8078,8078,8078,6029,6029,6029,6029,6029,6029,6029,0,
0,7043,7043,7043,7043,7043,7043,7043,7043,7043,0,7043,7043,7043,7043,7043,7043,7043,7043,7043,0,7043,7043,7043,7043,7043,7043,7043,7043,7043,0,17,17,17,0,33,33,33,33,33,33,33,33,33,33,33,33,33,33,33,33,33,33,33,33,33,33,33,33,33,33,0,6029,6029,6029,6029,6029,6029,6029,8078,8078,8078,6029,6029,6029,6029,6029,6029,6029,0,
0,7043,7043,7043,7043,7043,7043,7043,7043,7043,0,7043,7043,7043,7043,7043,7043,7043,7043,7043,0,7043,7043,7043,7043,7043,7043,7043,7043,7043,0,17,17,17,17,17,17,17,17,17,17,17,17,17,17,17,17,17,17,17,17,17,17,17,17,17,17,17,17,17,17,0,6029,6029,6029,6029,6029,6029,6029,8078,8078,8078,6029,6029,6029,6029,6029,6029,6029,0,
0,0,0,0,0,0,0,0,0,0,0,0,0,0,0,0,0,0,0,0,0,0,0,0,0,0,0,0,0,0,0,17,17,17,17,17,17,17,17,17,17,17,17,17,17,17,17,17,17,17,17,17,17,17,17,17,17,17,17,17,17,0,6029,6029,6029,6029,6029,6029,6029,8078,8078,8078,6029,6029,6029,6029,6029,6029,6029,0,
0,17,17,17,17,17,17,17,17,17,17,17,17,17,17,17,17,17,17,17,17,17,17,17,17,17,17,17,17,17,17,17,17,17,17,17,17,17,17,17,17,17,17,17,17,17,17,17,17,17,17,17,17,17,17,17,17,17,17,17,17,0,6029,6029,6029,6029,6029,6029,6029,8078,8078,8078,6029,6029,6029,6029,6029,6029,6029,0,
0,17,17,17,17,17,17,17,17,17,17,17,17,17,17,17,17,17,17,17,17,17,17,17,17,17,17,17,17,17,17,17,17,17,0,33,33,33,33,33,33,33,33,33,33,33,33,33,33,33,33,33,33,33,33,33,33,33,33,33,33,0,6029,6029,6029,6029,6029,6029,6029,8078,8078,8078,6029,6029,6029,6029,6029,6029,6029,0,
0,17,17,17,17,17,17,17,17,17,17,17,17,17,17,17,17,17,17,17,17,17,17,17,17,17,17,17,17,17,17,17,17,17,0,19,19,19,19,19,19,19,19,19,19,19,19,19,19,19,19,19,19,19,19,19,19,19,19,19,19,0,6029,6029,6029,6029,6029,6029,6029,8078,8078,8078,6029,6029,6029,6029,6029,6029,6029,0,
0,0,0,0,0,0,0,0,0,0,0,0,0,0,0,0,0,0,0,0,0,0,0,0,0,0,0,0,0,0,0,17,17,17,0,19,19,19,19,19,19,19,19,19,19,19,19,19,19,19,19,19,19,19,19,19,19,19,19,19,19,0,6029,6029,6029,6029,6029,6029,6029,8078,8078,8078,6029,6029,6029,6029,6029,6029,6029,0,
0,7043,7043,7043,7043,7043,7043,7043,7043,7043,0,7043,7043,7043,7043,7043,7043,7043,7043,7043,0,7043,7043,7043,7043,7043,7043,7043,7043,7043,0,17,17,17,0,19,19,19,19,19,19,19,19,19,19,19,19,19,19,19,19,19,19,19,19,19,19,19,19,19,19,0,6029,6029,6029,6029,6029,6029,6029,8078,8078,8078,6029,6029,6029,6029,6029,6029,6029,0,
0,7043,7043,7043,7043,7043,7043,7043,7043,7043,0,7043,7043,7043,7043,7043,7043,7043,7043,7043,0,7043,7043,7043,7043,7043,7043,7043,7043,7043,0,17,17,17,0,19,19,19,19,19,19,19,19,19,19,19,19,19,19,19,19,19,19,19,19,19,19,19,19,19,19,0,6029,6029,6029,6029,6029,6029,6029,8078,8078,8078,6029,6029,6029,6029,6029,6029,6029,0,
0,7043,7043,7043,7043,7043,7043,7043,7043,7043,0,7043,7043,7043,7043,7043,7043,7043,7043,7043,0,7043,7043,7043,7043,7043,7043,7043,7043,7043,0,17,17,17,0,19,19,19,19,19,19,19,19,19,19,19,19,19,19,19,19,19,19,19,19,19,19,19,19,19,19,0,6029,6029,6029,6029,6029,6029,6029,8078,8078,8078,6029,6029,6029,6029,6029,6029,6029,0,
0,7043,7043,7043,7043,7043,7043,7043,7043,7043,0,7043,7043,7043,7043,7043,7043,7043,7043,7043,0,7043,7043,7043,7043,7043,7043,7043,7043,7043,0,17,17,17,0,33,33,33,33,33,33,33,33,33,33,33,33,33,33,33,33,33,33,33,33,33,33,33,33,33,33,0,0,0,0,0,0,0,0,8078,8078,8078,0,0,0,0,0,0,0,0,
0,7043,7043,7043,7043,7043,7043,7043,7043,7043,0,7043,7043,7043,7043,7043,7043,7043,7043,7043,0,7043,7043,7043,7043,7043,7043,7043,7043,7043,0,17,17,17,0,0,0,0,0,0,0,0,0,0,0,0,0,0,0,0,0,0,0,0,0,0,0,0,0,0,0,0,0,0,0,0,0,0,0,8078,8078,8078,0,0,0,0,0,0,0,0,
0,7043,7043,7043,7043,7043,7043,8062,8062,8062,0,7043,7043,7043,7043,7043,7043,8062,8062,8062,0,7043,7043,7043,7043,7043,7043,8062,8062,8062,0,17,17,17,0,0,0,0,0,6256,6256,6256,6256,6256,6256,6256,6256,6256,6256,6256,6256,6256,6256,6256,6256,6256,6256,6256,6256,6256,6256,0,7266,7266,7266,7266,7266,7266,7266,8078,8078,8078,0,0,0,0,0,0,0,0,
0,7043,7043,7043,7043,7043,7043,8062,8062,8062,0,7043,7043,7043,7043,7043,7043,8062,8062,8062,0,7043,7043,7043,7043,7043,7043,8062,8062,8062,0,17,17,17,17,17,17,17,17,6256,6256,6256,6256,6256,6256,6256,6256,6256,6256,6256,6256,6256,6256,6256,6256,6256,6256,6256,6256,6256,6256,0,8078,8078,8078,8078,8078,8078,8078,8078,8078,8078,0,0,0,0,0,0,0,0,
0,7043,7043,7043,7043,7043,7043,8062,8062,8062,0,7043,7043,7043,7043,7043,7043,8062,8062,8062,0,7043,7043,7043,7043,7043,7043,8062,8062,8062,0,17,17,17,17,17,17,17,17,6279,6303,6279,6295,6302,6298,6256,6274,6270,6256,6256,6256,6256,6256,6256,6256,6256,6256,6256,6256,6304,6279,17,17,8078,8078,8078,8078,8078,8078,8078,8078,8078,0,0,0,0,0,0,0,0,
0,0,0,0,0,0,0,0,0,0,0,0,0,0,0,0,0,0,0,0,0,0,0,0,0,0,0,0,0,0,0,17,17,17,17,17,17,17,17,6256,6256,6256,6259,6256,6302,6255,6256,6256,6256,6256,6256,6270,6256,6259,6256,6256,6255,6256,6256,6287,6256,0,8078,8078,8078,8078,8078,8078,8078,8078,8078,8078,0,0,0,0,0,0,0,0,
0,0,0,0,0,0,0,0,0,0,0,0,0,0,0,0,0,0,0,0,0,0,0,0,0,0,0,0,0,0,0,0,0,0,0,0,0,0,0,6256,6256,6256,6256,6256,6279,6256,6256,6256,6256,6256,6256,6256,6271,6256,6256,6256,6270,6256,6256,6303,6256,0,0,0,0,0,0,0,0,0,0,0,0,0,0,0,0,0,0,0,
0,0,0,0,0,0,0,0,0,0,0,0,0,0,0,0,0,0,0,0,0,0,0,0,0,0,0,0,33,33,33,33,33,33,33,33,33,0,0,6256,6256,6256,6256,6256,6303,6256,6263,6256,6279,6279,6279,6279,6257,6256,6256,6256,6257,6256,6304,6279,6256,0,0,0,0,0,0,0,0,0,0,0,0,0,0,0,0,0,0,0,
0,0,0,0,0,0,0,0,0,0,0,0,0,0,0,0,0,0,0,0,0,0,0,0,0,0,0,0,33,33,33,33,33,33,33,33,33,0,0,6256,6256,6256,6256,6256,6304,6279,6279,6304,6279,6279,6279,6279,6256,6306,6303,6279,6294,6294,6279,6298,6256,0,0,0,0,0,0,0,0,0,0,0,0,0,0,0,0,0,0,0,
0,0,0,0,0,0,0,0,0,0,0,0,0,0,0,0,0,0,0,0,0,0,0,0,0,0,0,0,33,33,33,33,33,33,33,33,33,0,0,6256,6256,6248,6256,6256,6256,6256,6256,6295,6295,6279,6279,6279,6294,6302,6256,6256,6256,6256,6256,6256,6256,0,0,0,0,0,0,0,0,0,0,0,0,0,0,0,0,0,0,0,
0,0,0,0,0,0,0,0,0,0,0,0,0,0,0,0,0,0,0,0,0,0,0,0,0,0,0,0,33,33,33,33,33,33,33,33,33,0,0,6256,6256,6256,6274,6256,6256,6256,6256,6256,6279,6279,6279,6279,6256,6256,6256,6256,6256,6256,6256,6256,6256,0,0,0,0,0,0,0,0,0,0,0,0,0,0,0,0,0,0,0,
0,0,0,0,0,0,0,0,0,0,0,0,0,0,0,0,0,0,0,0,0,0,0,0,0,0,0,0,33,33,33,33,33,33,33,33,33,0,0,6256,6256,6256,6256,6256,6256,6256,6256,6256,6256,6256,6256,6256,6256,6256,6256,6274,6263,6256,6256,6256,6256,0,0,0,0,0,0,0,0,0,0,0,0,0,0,0,0,0,0,0,
0,0,0,0,0,0,0,0,0,0,0,0,0,0,0,0,0,0,0,0,0,0,0,0,0,0,0,0,33,33,33,33,33,33,33,33,33,0,0,6256,6273,6256,6256,6256,6256,6256,6256,6256,6256,6256,6256,6256,6256,6273,6256,6256,6256,6256,6256,6256,6256,0,0,0,0,0,0,0,0,0,0,0,0,0,0,0,0,0,0,0,
0,0,0,0,0,0,0,0,0,0,0,0,0,0,0,0,0,0,0,0,0,0,0,0,0,0,0,0,33,33,33,33,33,33,33,33,33,0,0,6256,6256,6256,6256,6256,6273,6274,6256,6256,6256,6256,6256,6256,6256,6256,6256,6256,6256,6256,6256,6256,6256,0,0,0,0,0,0,0,0,0,0,0,0,0,0,0,0,0,0,0,
0,0,0,0,0,0,0,0,0,0,0,0,0,0,0,0,0,0,0,0,0,0,0,0,0,0,0,0,0,0,0,0,0,0,0,0,0,0,0,6256,6256,6256,6256,6256,6256,6256,6256,6256,6256,6256,6256,6256,6256,6256,6256,6256,6256,6256,6256,6256,6256,0,0,0,0,0,0,0,0,0,0,0,0,0,0,0,0,0,0,0,
0,0,0,0,0,0,0,0,0,0,0,0,0,0,0,0,0,0,0,0,0,0,0,0,0,0,0,0,0,0,0,0,0,0,0,0,0,0,0,6256,6256,6256,6256,6256,6256,6256,6256,6256,6256,6256,6256,6256,6256,6256,6256,6256,6256,6256,6256,6256,6256,0,0,0,0,0,0,0,0,0,0,0,0,0,0,0,0,0,0,0,
0,0,0,0,0,0,0,0,0,0,0,0,0,0,0,0,0,0,0,0,0,0,0,0,0,0,0,0,0,0,0,0,0,0,0,0,0,0,0,0,0,0,0,0,0,0,0,0,0,0,0,0,0,0,0,0,0,0,0,0,0,0,0,0,0,0,0,0,0,0,0,0,0,0,0,0,0,0,0,0
</data>
 </layer>
 <layer id="7" name="chao2" width="80" height="44">
  <data encoding="csv">
0,0,0,0,0,0,0,0,0,0,0,0,0,0,0,0,0,0,0,0,0,0,0,0,0,0,0,0,0,0,0,0,0,0,0,0,0,0,0,0,0,0,0,0,0,0,0,0,0,0,0,0,0,0,0,0,0,0,0,0,0,0,0,0,0,0,0,0,0,0,0,0,0,0,0,0,0,0,0,0,
0,0,0,0,0,0,0,0,0,0,0,0,0,0,0,0,0,0,0,0,0,0,0,0,0,0,0,0,0,0,0,0,0,0,0,0,0,0,0,0,0,0,0,0,0,0,0,0,0,0,0,0,0,0,0,0,0,0,0,0,0,0,0,0,0,0,0,0,0,0,0,0,0,0,0,0,0,0,0,0,
0,0,0,0,0,0,0,0,0,0,0,0,0,0,0,0,0,0,0,0,0,0,0,0,0,0,0,0,0,0,0,0,0,0,0,0,0,0,0,0,0,0,0,0,0,0,0,0,0,0,0,0,0,0,0,0,0,0,0,0,0,0,0,0,0,0,0,0,0,0,0,0,0,0,0,0,0,0,0,0,
0,0,0,0,0,0,0,0,0,0,0,0,0,0,0,0,0,0,0,0,0,0,0,0,0,0,0,0,0,0,0,8075,8076,8077,0,0,0,0,0,0,0,0,0,0,0,0,0,0,0,0,0,0,0,0,0,0,0,0,0,0,0,0,0,0,0,0,0,0,0,0,0,0,0,0,0,0,0,0,0,0,
0,0,0,0,0,0,0,0,0,0,0,0,0,0,0,0,0,0,0,0,0,0,0,0,0,0,0,0,0,0,0,8091,8092,8093,0,0,0,0,0,0,0,0,0,0,0,0,0,0,0,0,0,0,0,0,0,0,0,0,0,0,0,0,0,0,0,0,0,0,0,0,0,0,0,0,0,0,0,0,0,0,
0,0,0,0,0,0,0,0,0,0,0,0,0,0,0,0,0,0,0,0,0,0,0,0,0,0,0,0,0,0,0,8091,8092,8093,0,0,0,0,0,0,0,0,0,0,0,0,0,0,0,0,0,0,0,0,0,0,0,0,0,0,0,0,0,0,0,0,0,0,0,0,0,0,0,0,0,0,0,0,0,0,
0,0,0,0,0,0,0,0,0,0,0,0,0,0,0,0,0,0,0,0,0,0,0,0,0,0,0,0,0,0,0,8107,8108,8109,0,0,0,0,0,0,0,0,0,0,0,0,0,0,0,0,0,0,0,0,0,0,0,0,0,0,0,0,0,0,0,0,0,0,0,0,0,0,0,0,0,0,0,0,0,0,
0,0,0,0,0,0,0,0,0,0,0,0,0,0,0,0,0,0,0,0,0,0,0,0,0,0,0,0,0,0,0,0,0,0,0,0,0,0,0,0,0,0,0,0,0,0,0,0,0,0,0,0,0,0,0,0,0,0,0,0,0,0,0,0,0,0,0,6000,6001,0,0,0,0,0,0,0,0,0,0,0,
0,0,0,0,0,0,0,0,0,0,0,0,0,0,0,0,0,0,0,0,0,0,0,0,0,0,0,0,0,0,0,0,0,0,0,0,0,0,0,0,0,0,0,0,0,0,0,0,0,0,0,0,0,0,0,0,0,0,0,0,0,0,0,0,0,0,0,6013,6014,0,0,0,0,0,0,0,0,0,0,0,
0,0,0,0,0,0,0,0,0,0,0,0,0,0,0,0,0,0,0,0,0,0,0,0,0,0,0,0,0,0,0,0,0,0,0,0,0,0,0,0,0,0,0,0,0,0,0,0,0,0,0,0,0,0,0,0,0,0,0,0,0,0,0,0,0,0,0,6026,6027,0,0,0,0,0,0,0,0,0,0,0,
0,0,0,0,0,0,0,0,0,0,0,0,0,0,0,0,0,0,0,0,0,0,0,0,0,0,0,0,0,0,0,0,0,0,0,0,0,0,0,0,0,0,0,0,0,0,0,0,0,0,0,0,0,0,0,0,0,0,0,0,0,0,0,0,0,0,0,0,0,0,0,0,0,0,0,0,0,0,0,0,
0,0,0,0,0,0,0,0,0,0,0,0,0,0,0,0,0,0,0,0,0,0,0,0,0,0,0,0,0,0,0,0,0,0,0,0,0,0,0,0,0,0,0,0,0,0,0,0,0,0,0,0,0,0,0,0,0,0,0,0,0,0,0,0,0,0,0,0,0,0,0,0,0,0,0,0,0,0,0,0,
0,0,0,0,0,0,0,0,0,0,0,0,0,0,0,0,0,0,0,0,0,0,0,0,0,0,0,0,0,0,0,0,0,0,0,0,0,0,0,0,0,0,0,0,0,0,0,0,0,0,0,0,0,0,0,0,0,0,0,0,0,0,0,0,0,0,0,0,0,0,0,0,0,0,0,0,0,0,0,0,
0,0,0,0,0,0,0,0,0,0,0,0,0,0,0,0,0,0,0,0,0,0,0,0,0,0,0,0,0,0,0,0,0,0,0,0,0,0,0,0,0,0,0,0,0,0,0,0,0,0,0,0,0,0,0,0,0,0,0,0,0,0,0,0,0,0,0,0,0,0,0,0,0,0,0,0,0,0,0,0,
0,0,0,0,0,0,0,0,0,0,0,0,0,0,0,0,0,0,0,0,0,0,0,0,0,0,0,0,0,0,0,0,0,0,0,0,0,0,0,0,0,0,0,0,0,0,0,0,0,0,0,0,0,0,0,0,0,0,0,0,0,0,0,0,0,0,0,0,0,0,0,0,0,0,0,0,0,0,0,0,
0,0,0,0,0,0,0,0,0,0,0,0,0,0,0,0,0,0,0,0,0,0,0,0,0,0,0,0,0,0,0,0,0,0,0,0,0,0,0,0,0,0,0,0,0,0,0,0,0,0,0,0,0,0,0,0,0,0,0,0,0,0,0,0,0,0,0,0,0,0,0,0,0,0,0,0,0,0,0,0,
0,0,0,0,0,0,0,0,0,0,0,0,0,0,0,0,0,0,0,0,0,0,0,0,0,0,0,0,0,0,0,0,0,0,0,0,0,0,0,0,0,0,0,0,0,0,0,0,0,0,0,0,0,0,0,0,0,0,0,0,0,0,0,0,0,0,0,0,0,0,0,0,0,0,0,0,0,0,0,0,
0,0,0,0,0,0,0,0,0,0,0,0,0,0,0,0,0,0,0,0,0,0,0,0,0,0,0,0,0,0,0,0,0,0,0,0,0,0,0,0,0,0,0,0,0,0,0,0,0,0,0,0,0,0,0,0,0,0,0,0,0,0,0,0,0,0,0,0,0,0,0,0,0,0,0,0,0,0,0,0,
0,0,0,0,0,0,0,0,0,0,0,0,0,0,0,0,0,0,0,0,0,0,0,0,0,0,0,0,0,0,0,0,0,0,0,0,0,0,0,0,0,0,0,0,0,0,0,0,0,0,0,0,0,0,0,0,0,0,0,0,0,0,0,0,0,0,0,0,0,0,0,0,0,0,0,0,0,0,0,0,
0,0,0,0,0,0,0,0,0,0,0,0,0,0,0,0,0,0,0,0,0,0,0,0,0,0,0,0,0,0,0,0,0,0,0,0,0,0,0,0,0,0,0,0,0,0,0,0,0,0,0,0,0,0,0,0,0,0,0,0,0,0,0,0,0,0,0,0,0,0,0,0,0,0,0,0,0,0,0,0,
0,0,0,0,0,0,0,0,0,0,0,0,0,0,0,0,0,0,0,0,0,0,0,0,0,0,0,0,0,0,0,0,0,0,0,0,0,0,0,0,0,0,0,0,0,0,0,0,0,0,0,0,0,0,0,0,0,0,0,0,0,0,0,0,0,0,0,0,0,0,0,0,0,0,0,0,0,0,0,0,
0,0,0,0,0,0,0,0,0,0,0,0,0,0,0,0,0,0,0,0,0,0,0,0,0,0,0,0,0,0,0,0,0,0,0,0,0,0,0,0,0,0,0,0,0,0,0,0,0,0,0,0,0,0,0,0,0,0,0,0,0,0,0,0,0,0,0,0,0,0,0,0,0,0,0,0,0,0,0,0,
0,0,0,0,0,0,0,0,0,0,0,0,0,0,0,0,0,0,0,0,0,0,0,0,0,0,0,0,0,0,0,0,0,0,0,0,0,0,0,0,0,0,0,0,0,0,0,0,0,0,0,0,0,0,0,0,0,0,0,0,0,0,0,0,0,0,0,0,0,0,0,0,0,0,0,0,0,0,0,0,
0,0,0,0,0,0,0,0,0,0,0,0,0,0,0,0,0,0,0,0,0,0,0,0,0,0,0,0,0,0,0,0,0,0,0,0,0,0,0,0,0,0,0,0,0,0,0,0,0,0,0,0,0,0,0,0,0,0,0,0,0,0,0,0,0,0,0,0,0,0,0,0,0,0,0,0,0,0,0,0,
0,0,0,0,0,0,0,0,0,0,0,0,0,0,0,0,0,0,0,0,0,0,0,0,0,0,0,0,0,0,0,0,0,0,0,0,0,0,0,0,0,0,0,0,0,0,0,0,0,0,0,0,0,0,0,0,0,0,0,0,0,0,0,0,0,0,0,0,0,0,0,0,0,0,0,0,0,0,0,0,
0,0,0,0,0,0,0,0,0,0,0,0,0,0,0,0,0,0,0,0,0,0,0,0,0,0,0,0,0,0,0,0,0,0,0,0,0,0,0,0,0,0,0,0,0,0,0,0,0,0,0,0,0,0,0,0,0,0,0,0,0,0,0,0,0,0,0,0,0,0,0,0,0,0,0,0,0,0,0,0,
0,0,0,0,0,0,0,0,0,0,0,0,0,0,0,0,0,0,0,0,0,0,0,0,0,0,0,0,0,0,0,0,0,0,0,0,0,0,0,0,0,0,0,0,0,0,0,0,0,0,0,0,0,0,0,0,0,0,0,0,0,0,0,0,0,0,0,0,0,0,0,0,0,0,0,0,0,0,0,0,
0,0,0,0,0,0,0,0,0,0,0,0,0,0,0,0,0,0,0,0,0,0,0,0,0,0,0,0,0,0,0,0,0,0,0,0,0,0,0,0,0,0,0,0,0,0,0,0,0,0,0,0,0,0,0,0,0,0,0,0,0,0,0,0,0,0,0,0,0,0,0,0,0,0,0,0,0,0,0,0,
0,0,0,0,0,0,0,0,0,0,0,0,0,0,0,0,0,0,0,0,0,0,0,0,0,0,0,0,0,0,0,0,0,0,0,0,0,0,0,0,0,0,0,0,0,0,0,0,0,0,0,0,0,0,0,0,0,0,0,0,0,0,0,0,0,0,0,0,0,0,0,0,0,0,0,0,0,0,0,0,
0,0,0,0,0,0,0,0,0,0,0,0,0,0,0,0,0,0,0,0,0,0,0,0,0,0,0,0,0,0,0,0,0,0,0,0,0,0,0,0,0,0,0,0,0,0,0,0,0,0,0,0,0,0,0,0,0,0,0,0,0,0,0,0,0,0,0,0,0,0,0,0,0,0,0,0,0,0,0,0,
0,0,0,0,0,0,0,0,0,0,0,0,0,0,0,0,0,0,0,0,0,0,0,0,0,0,0,0,0,0,0,0,0,0,0,0,0,0,0,0,0,0,0,0,0,0,0,0,0,0,0,0,0,0,0,0,0,0,0,0,0,0,0,0,0,0,0,0,0,0,0,0,0,0,0,0,0,0,0,0,
0,0,0,0,0,0,0,0,0,0,0,0,0,0,0,0,0,0,0,0,0,0,0,0,0,0,0,0,0,0,0,0,0,0,0,0,0,0,0,0,0,0,0,0,0,0,0,0,0,0,0,0,0,0,0,0,0,0,0,0,0,0,0,0,0,0,0,0,0,0,0,0,0,0,0,0,0,0,0,0,
0,0,0,0,0,0,0,0,0,0,0,0,0,0,0,0,0,0,0,0,0,0,0,0,0,0,0,0,0,0,0,0,0,0,0,0,0,0,0,0,0,0,0,0,0,0,0,0,0,0,0,0,0,0,0,0,0,0,0,0,0,0,0,0,0,0,0,0,0,0,0,0,0,0,0,0,0,0,0,0,
0,0,0,0,0,0,0,0,0,0,0,0,0,0,0,0,0,0,0,0,0,0,0,0,0,0,0,0,0,0,0,0,0,0,0,0,0,0,0,0,0,0,0,0,0,0,0,0,0,0,0,0,0,0,0,0,0,0,0,0,0,0,0,0,0,0,0,0,0,0,0,0,0,0,0,0,0,0,0,0,
0,0,0,0,0,0,0,0,0,0,0,0,0,0,0,0,0,0,0,0,0,0,0,0,0,0,0,0,0,0,0,0,0,0,0,0,0,0,0,0,0,0,0,0,0,0,0,0,0,0,0,0,0,0,0,0,0,0,0,0,0,0,0,0,0,0,0,0,0,0,0,0,0,0,0,0,0,0,0,0,
0,0,0,0,0,0,0,0,0,0,0,0,0,0,0,0,0,0,0,0,0,0,0,0,0,0,0,0,0,0,0,0,0,0,0,0,0,0,0,0,0,0,0,0,0,0,0,0,0,0,0,0,0,0,0,0,0,0,0,0,0,0,0,0,0,0,0,0,0,0,0,0,0,0,0,0,0,0,0,0,
0,0,0,0,0,0,0,0,0,0,0,0,0,0,0,0,0,0,0,0,0,0,0,0,0,0,0,0,0,0,0,0,0,0,0,0,0,0,0,0,0,0,0,0,0,0,0,0,0,0,0,0,0,0,0,0,0,0,0,0,0,0,0,0,0,0,0,0,0,0,0,0,0,0,0,0,0,0,0,0,
0,0,0,0,0,0,0,0,0,0,0,0,0,0,0,0,0,0,0,0,0,0,0,0,0,0,0,0,0,0,0,0,0,0,0,0,0,0,0,0,0,0,0,0,0,0,0,0,0,0,0,0,0,0,0,0,0,0,0,0,0,0,0,0,0,0,0,0,0,0,0,0,0,0,0,0,0,0,0,0,
0,0,0,0,0,0,0,0,0,0,0,0,0,0,0,0,0,0,0,0,0,0,0,0,0,0,0,0,0,0,0,0,0,0,0,0,0,0,0,0,0,0,0,0,0,0,0,0,0,0,0,0,0,0,0,0,0,0,0,0,0,0,0,0,0,0,0,0,0,0,0,0,0,0,0,0,0,0,0,0,
0,0,0,0,0,0,0,0,0,0,0,0,0,0,0,0,0,0,0,0,0,0,0,0,0,0,0,0,0,0,0,0,0,0,0,0,0,0,0,0,0,0,0,0,0,0,0,0,0,0,0,0,0,0,0,0,0,0,0,0,0,0,0,0,0,0,0,0,0,0,0,0,0,0,0,0,0,0,0,0,
0,0,0,0,0,0,0,0,0,0,0,0,0,0,0,0,0,0,0,0,0,0,0,0,0,0,0,0,0,0,0,0,0,0,0,0,0,0,0,0,0,0,0,0,0,0,0,0,0,0,0,0,0,0,0,0,0,0,0,0,0,0,0,0,0,0,0,0,0,0,0,0,0,0,0,0,0,0,0,0,
0,0,0,0,0,0,0,0,0,0,0,0,0,0,0,0,0,0,0,0,0,0,0,0,0,0,0,0,0,0,0,0,0,0,0,0,0,0,0,0,0,0,0,0,0,0,0,0,0,0,0,0,0,0,0,0,0,0,0,0,0,0,0,0,0,0,0,0,0,0,0,0,0,0,0,0,0,0,0,0,
0,0,0,0,0,0,0,0,0,0,0,0,0,0,0,0,0,0,0,0,0,0,0,0,0,0,0,0,0,0,0,0,0,0,0,0,0,0,0,0,0,0,0,0,0,0,0,0,0,0,0,0,0,0,0,0,0,0,0,0,0,0,0,0,0,0,0,0,0,0,0,0,0,0,0,0,0,0,0,0,
0,0,0,0,0,0,0,0,0,0,0,0,0,0,0,0,0,0,0,0,0,0,0,0,0,0,0,0,0,0,0,0,0,0,0,0,0,0,0,0,0,0,0,0,0,0,0,0,0,0,0,0,0,0,0,0,0,0,0,0,0,0,0,0,0,0,0,0,0,0,0,0,0,0,0,0,0,0,0,0
</data>
 </layer>
 <layer id="12" name="objetos" width="80" height="44">
  <data encoding="csv">
0,0,0,0,0,0,0,0,0,0,0,0,0,0,0,0,0,0,0,0,0,0,0,0,0,0,0,0,0,0,0,0,0,0,0,0,0,0,0,0,0,0,0,0,0,0,0,0,0,0,0,0,0,0,0,0,0,0,0,0,0,0,0,0,0,0,0,0,0,0,0,0,0,0,0,0,0,0,0,0,
0,0,0,0,0,0,0,0,0,0,0,0,0,0,0,0,0,0,0,0,0,0,0,0,0,0,0,0,0,0,0,0,0,0,0,0,0,0,0,0,0,0,0,0,0,0,0,0,0,0,0,0,0,0,0,0,0,0,0,0,0,0,0,0,0,0,0,0,0,0,0,0,0,0,0,0,0,0,0,0,
0,0,0,0,0,0,0,0,0,0,0,0,0,0,0,0,0,0,0,0,0,0,0,0,0,0,0,0,0,0,0,0,0,0,0,0,0,0,0,0,0,0,0,0,0,0,0,0,0,0,0,0,0,0,0,0,0,0,0,0,0,0,0,0,0,0,0,0,0,0,0,0,0,0,0,0,0,0,0,0,
0,0,0,0,0,0,0,0,0,0,0,0,0,0,0,0,0,0,0,0,0,0,0,0,0,0,0,0,0,0,0,0,0,0,0,0,0,0,0,0,0,0,0,0,0,0,0,0,0,0,0,0,0,0,0,0,0,0,0,0,0,0,0,0,0,0,0,0,0,0,0,0,0,0,0,0,0,0,0,0,
0,0,0,0,0,0,0,0,0,0,0,0,0,0,0,0,0,0,0,0,0,0,0,0,0,0,0,0,0,0,0,0,0,0,0,0,0,0,0,0,0,0,0,0,0,0,0,0,0,0,0,0,0,0,0,0,0,0,0,0,0,0,0,0,0,0,0,0,0,0,0,0,0,0,0,0,0,0,0,0,
0,0,0,0,0,0,0,0,0,0,0,0,0,0,0,0,0,0,0,0,0,0,0,0,0,0,0,0,0,0,0,0,0,0,0,0,0,0,0,0,0,0,0,0,0,0,0,0,0,0,0,0,0,0,0,0,0,0,0,0,0,0,0,0,0,0,0,0,0,0,0,0,0,0,0,5965,0,0,0,0,
0,0,0,0,0,0,0,0,0,0,0,0,0,0,0,0,0,0,0,0,0,0,0,0,0,0,0,0,0,0,0,0,0,0,0,0,0,0,0,0,0,0,0,0,0,0,0,0,0,0,0,0,0,0,0,0,0,0,0,0,0,0,0,0,0,0,0,0,0,0,0,0,0,5881,0,5978,0,0,0,0,
0,0,0,0,0,0,0,0,0,0,0,0,0,0,0,0,0,0,0,0,0,0,0,0,0,0,0,0,0,0,0,0,0,0,0,0,0,0,0,0,0,0,0,0,0,0,0,0,0,0,0,0,0,0,0,0,0,0,0,0,0,0,0,0,0,0,0,0,0,0,0,0,0,5894,0,5948,0,0,0,0,
0,0,0,0,0,0,0,0,0,0,0,0,0,0,0,0,0,0,0,0,0,0,0,0,0,0,0,0,0,0,0,0,0,0,0,0,0,0,0,0,0,0,0,0,0,0,0,0,0,0,0,0,0,0,0,0,0,0,0,0,0,0,0,0,0,0,0,0,0,0,0,0,0,5907,0,5961,0,0,0,0,
0,0,0,0,0,0,0,0,0,0,0,0,0,0,0,0,0,0,0,0,0,0,0,0,0,0,0,0,0,0,0,0,0,0,0,0,0,0,0,0,0,0,0,0,0,0,0,0,0,0,0,0,0,0,0,0,0,0,0,0,0,0,0,0,0,2147489552,0,0,0,0,0,0,0,0,0,5904,0,0,0,0,
0,0,0,0,0,0,0,0,0,0,0,0,0,0,0,0,0,0,0,0,0,0,0,0,0,0,0,0,0,0,0,0,0,0,0,0,0,0,0,0,0,0,0,0,0,0,0,0,0,0,0,0,0,0,0,0,0,0,0,0,0,0,0,0,0,2147489565,0,0,0,0,0,0,0,0,0,5917,0,0,0,0,
0,8245,0,0,0,0,0,0,0,0,0,8245,0,0,0,0,0,0,0,0,0,8245,0,0,0,0,0,0,0,0,0,0,0,0,0,0,0,0,0,0,0,0,0,0,0,0,0,0,0,0,0,0,0,0,0,0,0,0,0,0,0,0,0,0,0,90,0,0,0,0,0,0,0,0,0,90,0,0,0,0,
0,8261,0,0,0,0,0,0,0,0,0,8261,0,0,0,0,0,0,0,0,0,8261,0,0,0,0,0,0,0,0,0,0,0,0,0,0,0,0,0,0,0,0,0,0,0,0,0,0,0,0,0,0,0,0,0,0,0,0,0,0,0,0,0,0,0,106,0,0,0,0,0,0,0,0,0,106,0,0,0,0,
0,0,0,0,0,0,0,0,0,0,0,0,0,0,0,0,0,0,0,0,0,0,0,0,0,0,0,0,0,0,0,0,0,0,0,0,0,0,0,0,0,0,0,0,0,0,0,0,0,0,0,0,0,0,0,0,0,0,0,0,0,0,6000,6001,0,0,0,0,0,0,0,0,0,0,0,0,0,6000,6001,0,
0,0,0,0,0,0,0,0,0,0,0,0,0,0,0,0,0,0,0,0,0,0,0,0,0,0,0,0,0,0,0,0,0,0,0,0,0,0,0,0,0,0,0,0,0,0,0,0,0,0,0,0,0,0,0,0,0,0,0,0,0,0,6013,6014,0,0,0,0,0,0,0,0,0,0,0,0,0,6013,6014,0,
0,0,0,0,0,0,0,0,0,0,0,0,0,0,0,0,0,0,0,0,0,0,0,0,0,0,0,0,0,0,0,0,0,0,0,0,0,0,0,0,0,0,0,0,0,0,0,0,0,0,0,0,0,0,0,0,0,0,0,0,0,0,6026,6027,0,0,0,0,0,0,0,0,0,0,0,0,0,6026,6027,0,
0,0,0,0,0,0,0,0,0,0,0,0,0,0,0,0,0,0,0,0,0,0,0,0,0,0,0,0,0,0,0,0,0,0,0,0,0,0,0,0,0,0,0,0,0,0,0,0,0,0,0,0,0,0,0,0,0,0,0,0,0,0,0,0,0,0,0,0,0,0,0,0,0,0,0,0,0,0,0,0,
0,0,0,0,0,0,0,0,0,0,0,0,0,0,0,0,0,0,0,0,0,0,0,0,0,0,0,0,0,0,0,0,0,0,0,0,0,0,0,0,0,0,0,0,0,0,0,0,0,0,0,0,0,0,0,0,0,0,0,0,0,0,0,0,0,0,0,0,0,0,0,0,0,0,0,0,0,0,0,0,
0,0,8232,8233,8234,0,0,0,0,0,0,0,8232,8233,8234,0,0,0,0,0,0,0,8232,8233,8234,0,0,0,0,0,0,0,0,0,0,0,0,0,0,0,0,0,0,0,0,0,0,0,0,0,0,0,0,0,0,0,0,0,0,0,0,0,6000,6001,0,0,0,0,0,0,0,0,0,0,0,0,0,6000,6001,0,
0,0,0,0,0,0,0,0,0,0,0,0,0,0,0,0,0,0,0,0,0,0,0,0,0,0,0,0,0,0,0,0,0,0,0,0,0,0,0,0,0,0,0,0,0,0,0,0,0,0,0,0,0,0,0,0,0,0,0,0,0,0,6013,6014,0,0,0,0,0,0,0,0,0,0,0,0,0,6013,6014,0,
0,0,0,0,0,0,0,0,0,0,0,0,0,0,0,0,0,0,0,0,0,0,0,0,0,0,0,0,0,0,0,0,0,0,0,0,0,90,0,0,0,0,0,0,0,0,0,0,0,0,0,0,0,0,0,0,0,0,0,0,0,0,6026,6027,0,0,0,0,0,0,0,0,0,0,0,0,0,6026,6027,0,
0,0,0,0,0,0,0,0,0,0,0,0,0,0,0,0,0,0,0,0,0,0,0,0,0,0,0,0,0,0,0,0,0,0,0,0,0,106,0,0,0,0,0,0,0,0,0,0,0,0,0,0,0,0,0,0,0,0,0,0,0,0,0,0,0,0,0,0,0,0,0,0,0,0,0,0,0,0,0,0,
0,0,0,0,0,0,0,0,0,0,90,0,0,0,0,0,0,0,0,0,90,0,0,0,0,0,0,0,0,0,0,0,0,0,0,0,0,0,0,0,0,0,0,0,0,0,0,0,0,0,0,0,0,0,0,0,0,0,0,0,0,0,0,0,0,0,0,0,0,0,0,0,0,0,0,0,0,0,0,0,
0,0,0,0,0,0,0,0,0,0,106,0,0,0,0,0,0,0,0,0,106,0,0,0,0,0,0,0,0,0,0,0,0,0,0,0,0,0,0,0,0,0,0,0,0,0,0,0,0,0,0,0,0,0,0,0,0,0,0,0,0,0,6000,6001,0,0,0,0,0,0,0,0,0,0,0,0,0,6000,6001,0,
0,8245,0,0,0,0,0,0,0,0,0,8245,0,0,0,0,0,0,0,0,0,8245,0,0,0,0,0,0,0,0,0,0,0,0,0,0,0,0,0,0,0,0,0,0,0,0,0,0,0,0,0,0,0,0,0,0,0,0,0,0,0,0,6013,6014,0,0,0,0,0,0,0,0,0,0,0,0,0,6013,6014,0,
0,8261,0,0,0,0,0,0,0,0,0,8261,0,0,0,0,0,0,0,0,0,8261,0,0,0,0,0,0,0,0,0,0,0,0,0,0,0,0,0,0,0,0,0,0,0,0,0,0,0,0,0,0,0,0,0,0,0,0,0,0,0,0,6026,6027,0,0,0,0,0,0,0,0,0,0,0,0,0,6026,6027,0,
0,0,0,0,0,0,0,0,0,0,0,0,0,0,0,0,0,0,0,0,0,0,0,0,0,0,0,0,0,0,0,0,0,0,0,0,0,0,0,0,0,0,0,0,0,0,0,0,0,0,0,0,0,0,0,0,0,0,0,0,0,0,0,0,0,0,0,0,0,0,0,0,0,0,0,0,0,0,0,0,
0,0,0,0,0,0,0,0,0,0,0,0,0,0,0,0,0,0,0,0,0,0,0,0,0,0,0,0,0,0,0,0,0,0,0,0,0,0,0,0,0,0,0,0,0,0,0,0,0,0,0,0,0,0,0,0,0,0,0,0,0,0,0,0,0,0,0,0,0,0,0,0,0,0,0,0,0,0,0,0,
0,0,0,0,0,0,0,0,0,0,0,0,0,0,0,0,0,0,0,0,0,0,0,0,0,0,0,0,0,0,0,0,0,0,0,0,0,0,0,0,0,0,0,0,0,0,0,0,0,0,0,0,0,0,0,0,0,0,0,0,0,0,0,0,0,0,0,0,0,0,0,0,0,0,0,0,0,0,0,0,
0,0,0,0,0,0,0,0,0,0,0,0,0,0,0,0,0,0,0,0,0,0,0,0,0,0,0,0,0,0,0,0,0,0,0,0,0,0,0,0,0,0,0,0,0,0,0,0,0,0,0,0,0,0,0,0,0,0,0,0,0,0,0,0,0,0,0,0,0,0,0,0,0,0,0,0,0,0,0,0,
0,0,0,0,0,0,0,0,0,0,0,0,0,0,0,0,0,0,0,0,0,0,0,0,0,0,0,0,0,0,0,0,0,0,0,0,0,0,0,0,0,0,0,0,0,0,0,0,0,0,0,0,0,0,0,0,0,0,0,0,0,0,0,0,0,0,0,0,0,0,0,0,0,0,0,0,0,0,0,0,
0,0,8232,8233,8234,0,0,0,0,0,0,0,8232,8233,8234,0,0,0,0,0,0,0,8232,8233,8234,0,0,0,0,0,0,0,0,0,0,0,0,0,0,0,0,0,0,0,0,0,0,0,0,0,0,0,0,0,0,0,0,0,0,0,0,0,0,0,0,0,0,0,0,0,0,0,0,0,0,0,0,0,0,0,
0,0,0,0,0,0,0,0,0,0,0,0,0,0,0,0,0,0,0,0,0,0,0,0,0,0,0,0,0,0,0,0,0,0,90,0,0,0,0,0,0,0,0,0,0,0,0,0,0,0,0,0,0,0,0,0,0,0,0,0,0,0,0,0,0,0,0,0,8151,0,0,0,0,0,0,0,0,0,0,0,
0,0,0,0,0,0,0,0,0,0,0,0,0,0,0,0,0,0,0,0,0,0,0,0,0,0,0,0,0,0,0,0,0,0,106,0,0,0,0,0,0,0,0,0,0,0,0,0,0,0,0,0,0,0,0,0,0,0,0,0,0,0,0,0,0,0,0,0,8167,0,0,0,0,0,0,0,0,0,0,0,
0,0,0,0,0,0,0,0,0,0,0,0,0,0,0,0,0,0,0,0,0,0,0,0,0,0,0,0,0,0,0,0,0,0,0,0,0,0,0,0,0,0,0,0,0,0,0,0,0,0,0,0,0,0,0,0,0,0,0,0,0,0,0,0,0,0,0,0,0,0,0,0,0,0,0,0,0,0,0,0,
0,0,0,0,0,0,0,0,0,0,0,0,0,0,0,0,0,0,0,0,0,0,0,0,0,0,0,0,0,0,0,0,0,0,0,0,0,0,0,0,0,0,0,0,0,0,0,0,0,0,0,0,0,0,0,0,0,0,0,0,0,0,0,0,0,0,0,0,0,0,0,0,0,0,0,0,0,0,0,0,
0,0,0,0,0,0,0,0,0,0,0,0,0,0,0,0,0,0,0,0,0,0,0,0,0,0,0,0,0,0,0,0,0,0,0,0,0,0,0,0,0,0,0,0,0,0,0,0,0,0,0,0,0,0,0,0,0,0,0,0,0,0,0,0,0,0,0,0,0,0,0,0,0,0,0,0,0,0,0,0,
0,0,0,0,0,0,0,0,0,0,0,0,0,0,0,0,0,0,0,0,0,0,0,0,0,0,0,0,0,0,0,0,0,0,0,0,0,0,0,0,0,0,0,0,0,0,0,0,0,0,0,0,0,0,0,0,0,0,0,0,0,0,0,0,0,0,0,0,0,0,0,0,0,0,0,0,0,0,0,0,
0,0,0,0,0,0,0,0,0,0,0,0,0,0,0,0,0,0,0,0,0,0,0,0,0,0,0,0,0,0,0,0,0,0,0,0,0,0,0,0,0,0,0,0,0,0,0,0,0,0,0,0,0,0,0,0,0,0,0,0,0,0,0,0,0,0,0,0,0,0,0,0,0,0,0,0,0,0,0,0,
0,0,0,0,0,0,0,0,0,0,0,0,0,0,0,0,0,0,0,0,0,0,0,0,0,0,0,0,0,0,0,0,0,0,0,0,0,0,0,0,0,0,0,0,0,0,0,0,0,0,0,0,0,0,0,0,0,0,0,0,0,0,0,0,0,0,0,0,0,0,0,0,0,0,0,0,0,0,0,0,
0,0,0,0,0,0,0,0,0,0,0,0,0,0,0,0,0,0,0,0,0,0,0,0,0,0,0,0,0,0,0,0,0,0,0,0,0,0,0,0,0,0,0,0,0,0,0,0,0,0,0,0,0,0,0,0,0,0,0,0,0,0,0,0,0,0,0,0,0,0,0,0,0,0,0,0,0,0,0,0,
0,0,0,0,0,0,0,0,0,0,0,0,0,0,0,0,0,0,0,0,0,0,0,0,0,0,0,0,0,0,0,0,0,0,0,0,0,0,0,0,0,0,0,0,0,0,0,0,0,0,0,0,0,0,0,0,0,0,0,0,0,0,0,0,0,0,0,0,0,0,0,0,0,0,0,0,0,0,0,0,
0,0,0,0,0,0,0,0,0,0,0,0,0,0,0,0,0,0,0,0,0,0,0,0,0,0,0,0,0,0,0,0,0,0,0,0,0,0,0,0,0,0,0,0,0,0,0,0,0,0,0,0,0,0,0,0,0,0,0,0,0,0,0,0,0,0,0,0,0,0,0,0,0,0,0,0,0,0,0,0,
0,0,0,0,0,0,0,0,0,0,0,0,0,0,0,0,0,0,0,0,0,0,0,0,0,0,0,0,0,0,0,0,0,0,0,0,0,0,0,0,0,0,0,0,0,0,0,0,0,0,0,0,0,0,0,0,0,0,0,0,0,0,0,0,0,0,0,0,0,0,0,0,0,0,0,0,0,0,0,0
</data>
 </layer>
 <layer id="4" name="parede3" width="80" height="44">
  <data encoding="csv">
0,0,0,0,0,0,0,0,0,0,0,0,0,0,0,0,0,0,0,0,0,0,7037,0,0,0,0,0,0,0,0,0,0,0,0,0,5638,5638,0,0,0,5638,0,0,0,0,0,0,0,0,0,0,0,0,0,0,0,0,0,0,0,0,0,0,0,0,0,0,0,0,0,0,0,0,0,0,0,0,0,0,
0,0,0,0,0,0,0,0,0,0,0,0,0,0,0,0,0,0,0,0,0,0,7037,0,0,0,0,0,0,0,0,0,0,0,0,0,0,0,0,0,0,7037,0,0,0,0,0,0,0,0,0,0,0,0,0,0,0,0,0,0,0,0,0,0,0,0,0,0,0,0,0,0,0,0,0,0,0,0,0,0,
0,0,0,0,0,0,0,0,0,0,0,0,0,0,0,0,0,0,0,0,0,0,7037,0,0,0,0,0,0,0,0,0,0,0,0,0,0,0,0,0,0,7037,0,0,0,0,0,0,0,0,0,0,0,0,0,0,0,0,0,0,0,0,0,0,0,0,0,0,0,0,0,0,0,0,0,0,0,0,0,0,
0,0,0,0,0,0,0,0,0,0,0,0,0,0,0,0,0,0,0,0,0,0,7037,0,0,0,0,0,0,0,0,0,0,0,0,0,0,0,0,0,0,7037,0,0,0,0,0,0,0,0,0,0,0,0,0,0,0,0,0,0,0,0,0,0,0,0,0,0,0,0,0,0,0,0,0,0,0,0,0,0,
0,0,0,0,0,0,0,0,0,0,0,0,0,0,0,0,0,0,0,0,0,0,7037,0,0,0,0,0,0,0,0,0,0,0,0,0,0,0,0,0,0,7037,0,0,0,0,0,0,0,0,0,0,0,0,0,0,0,0,0,0,0,0,0,0,0,0,0,0,0,0,0,0,0,0,0,0,0,0,0,0,
0,0,0,0,0,0,0,0,0,0,0,0,0,0,0,0,0,0,0,0,0,0,7037,0,0,0,0,0,0,0,0,0,0,0,0,0,0,0,0,0,0,7037,0,0,0,0,0,0,0,0,0,0,0,0,0,0,0,0,0,0,0,0,0,0,0,0,0,0,0,0,0,0,0,0,0,0,0,0,0,0,
0,0,0,0,0,0,0,0,0,0,0,0,0,0,0,0,0,0,0,0,0,0,7037,0,0,0,0,0,0,0,0,0,0,0,0,0,0,0,0,0,0,7037,0,0,0,0,0,0,0,0,0,0,0,0,0,0,0,0,0,0,0,0,0,0,0,0,0,0,0,0,0,0,0,0,0,0,0,0,0,0,
0,0,0,0,0,0,0,0,0,0,0,0,0,0,0,0,0,0,0,0,0,0,7037,0,0,0,0,0,0,0,0,0,0,0,0,0,0,0,0,0,0,7037,0,0,0,0,0,0,0,0,0,0,0,0,0,0,0,0,0,0,0,0,0,0,0,0,0,0,0,0,0,0,0,0,0,0,0,0,0,0,
0,0,0,0,0,0,0,0,0,0,0,0,0,0,0,0,0,0,0,0,0,0,7037,0,0,0,0,0,0,0,0,0,0,0,0,0,0,0,0,0,0,7037,0,0,0,0,0,0,0,0,0,0,0,0,0,0,0,0,0,0,0,0,0,0,0,0,0,0,0,0,0,0,0,0,0,0,0,0,0,0,
0,0,0,0,0,0,0,0,0,0,0,0,0,0,0,0,0,0,0,0,0,0,7037,0,0,0,0,0,0,0,7257,0,0,0,0,0,0,0,0,0,0,5638,0,0,0,0,0,0,0,0,0,0,0,0,0,0,0,0,0,0,0,0,0,0,0,0,0,0,0,0,0,0,0,0,0,0,0,0,0,0,
7037,0,0,0,0,0,0,0,0,0,7037,7266,7266,7266,7266,7266,7266,7266,7266,7266,0,7266,7266,7266,7266,7266,7266,7266,7266,7266,7037,0,0,0,7037,0,0,0,0,0,0,0,0,0,0,0,0,0,0,0,0,0,0,0,0,0,0,0,0,0,0,0,0,0,0,0,0,0,0,0,0,0,0,0,0,0,0,0,0,0,
7037,0,0,0,0,0,0,0,0,0,7037,0,0,0,0,0,0,0,0,0,0,0,0,0,0,0,0,0,0,0,7037,0,0,0,7037,0,0,0,0,0,0,0,0,0,0,0,0,0,0,0,0,0,0,0,0,0,0,0,0,0,0,7037,0,0,0,0,0,0,0,0,0,0,0,0,0,0,0,0,0,0,
7037,0,0,0,0,0,0,0,0,0,7037,0,0,0,0,0,0,0,0,0,0,0,0,0,0,0,0,0,0,0,7037,0,0,0,7037,0,0,0,0,0,0,0,0,0,0,0,0,0,0,0,0,0,0,0,0,0,0,0,0,0,0,7037,0,0,0,0,0,0,0,0,0,0,0,0,0,0,0,0,0,0,
7037,0,0,0,0,0,0,0,0,0,7037,0,0,0,0,0,0,0,0,0,0,0,0,0,0,0,0,0,0,0,7037,0,0,0,7037,0,0,0,0,0,0,0,0,0,0,0,0,0,0,0,0,0,0,0,0,0,0,0,0,0,0,7037,0,0,0,0,0,0,0,0,0,0,0,0,0,0,0,0,0,0,
7037,0,0,0,0,0,0,0,0,0,7037,0,0,0,0,0,0,0,0,0,0,0,0,0,0,0,0,0,0,0,7037,0,0,0,7037,0,0,0,0,0,0,0,0,0,0,0,0,0,0,0,0,0,0,0,0,0,0,0,0,0,0,7037,0,0,0,0,0,0,0,0,0,0,0,0,0,0,0,0,0,0,
7037,0,0,0,0,0,0,0,0,0,7037,0,0,0,0,0,0,0,0,0,0,0,0,0,0,0,0,0,0,0,7037,0,0,0,7037,0,0,0,0,0,0,0,0,0,0,0,0,0,0,0,0,0,0,0,0,0,0,0,0,0,0,7037,0,0,0,0,0,0,0,0,0,0,0,0,0,0,0,0,0,0,
7037,0,0,0,0,0,0,0,0,0,7037,0,0,0,0,0,0,0,0,0,0,0,0,0,0,0,0,0,0,0,7037,0,0,0,7037,0,0,0,0,0,0,0,0,0,0,0,0,0,0,0,0,0,0,0,0,0,0,0,0,0,0,7037,0,0,0,0,0,0,0,0,0,0,0,0,0,0,0,0,0,0,
7037,0,0,0,0,0,0,0,0,0,7037,0,0,0,0,0,0,0,0,0,0,0,0,0,0,0,0,0,0,0,7037,0,0,0,7037,0,0,0,0,0,0,0,0,0,0,0,0,0,0,0,0,0,0,0,0,0,0,0,0,0,0,7037,0,0,0,0,0,0,0,0,0,0,0,0,0,0,0,0,0,0,
7037,0,0,0,0,0,0,0,0,0,7037,0,0,0,0,0,0,0,0,0,0,0,0,0,0,0,0,0,0,0,7037,0,0,0,0,0,0,0,0,0,0,0,0,0,0,0,0,0,0,0,0,0,0,0,0,0,0,0,0,0,0,7037,0,0,0,0,0,0,0,0,0,0,0,0,0,0,0,0,0,0,
7037,0,0,0,0,0,0,0,0,0,0,0,0,0,0,0,0,0,0,0,0,0,0,0,0,0,0,0,0,0,0,0,0,0,0,0,0,0,0,0,0,0,0,0,0,0,0,0,0,0,0,0,0,0,0,0,0,0,0,0,0,7037,0,0,0,0,0,0,0,0,0,0,0,0,0,0,0,0,0,0,
7037,0,0,0,0,0,0,0,0,0,0,0,0,0,0,0,0,0,0,0,0,0,0,0,0,0,0,0,0,0,0,0,0,0,0,0,0,0,0,0,0,0,0,0,0,0,0,0,0,0,0,0,0,0,0,0,0,0,0,0,0,7037,0,0,0,0,0,0,0,0,0,0,0,0,0,0,0,0,0,0,
7037,0,0,0,0,0,0,0,0,0,0,0,0,0,0,0,0,0,0,0,0,0,0,0,0,0,0,0,0,0,0,0,0,0,7037,0,0,0,0,0,0,0,0,0,0,0,0,0,0,0,0,0,0,0,0,0,0,0,0,0,0,7037,0,0,0,0,0,0,0,0,0,0,0,0,0,0,0,0,0,0,
7037,0,0,0,0,0,0,0,0,0,0,0,0,0,0,0,0,0,0,0,0,0,0,0,0,0,0,0,0,0,0,0,0,0,7037,0,0,0,0,0,0,0,0,0,0,0,0,0,0,0,0,0,0,0,0,0,0,0,0,0,0,7037,0,0,0,0,0,0,0,0,0,0,0,0,0,0,0,0,0,0,
7037,0,0,0,0,0,0,0,0,0,0,0,0,0,0,0,0,0,0,0,0,0,0,0,0,0,0,0,0,0,7037,0,0,0,7037,0,0,0,0,0,0,0,0,0,0,0,0,0,0,0,0,0,0,0,0,0,0,0,0,0,0,7037,0,0,0,0,0,0,0,0,0,0,0,0,0,0,0,0,0,0,
0,0,0,0,0,0,0,0,0,0,0,0,0,0,0,0,0,0,0,0,0,0,0,0,0,0,0,0,0,0,7037,0,0,0,7037,0,0,0,0,0,0,0,0,0,0,0,0,0,0,0,0,0,0,0,0,0,0,0,0,0,0,7037,0,0,0,0,0,0,0,0,0,0,0,0,0,0,0,0,0,0,
0,0,0,0,0,0,0,0,0,0,0,0,0,0,0,0,0,0,0,0,0,0,0,0,0,0,0,0,0,0,7037,0,0,0,7037,0,0,0,0,0,0,0,0,0,0,0,0,0,0,0,0,0,0,0,0,0,0,0,0,0,0,7037,0,0,0,0,0,0,0,0,0,0,0,0,0,0,0,0,0,0,
0,0,0,0,0,0,0,0,0,0,0,0,0,0,0,0,0,0,0,0,0,0,0,0,0,0,0,0,0,0,7037,0,0,0,7037,0,0,0,0,0,0,0,0,0,0,0,0,0,0,0,0,0,0,0,0,0,0,0,0,0,0,7037,0,0,0,0,0,0,0,0,0,0,0,0,0,0,0,0,0,0,
0,0,0,0,0,0,0,0,0,0,0,0,0,0,0,0,0,0,0,0,0,0,0,0,0,0,0,0,0,0,7037,0,0,0,7037,0,0,0,0,0,0,0,0,0,0,0,0,0,0,0,0,0,0,0,0,0,0,0,0,0,0,7037,0,0,0,0,0,0,0,0,0,0,0,0,0,0,0,0,0,0,
0,0,0,0,0,0,0,0,0,0,0,0,0,0,0,0,0,0,0,0,0,0,0,0,0,0,0,0,0,0,7037,0,0,0,7037,0,0,0,0,0,0,0,0,0,0,0,0,0,0,0,0,0,0,0,0,0,0,0,0,0,0,0,0,0,0,0,0,0,0,0,0,0,0,0,0,0,0,0,0,0,
0,0,0,0,0,0,0,0,0,0,0,0,0,0,0,0,0,0,0,0,0,0,0,0,0,0,0,0,0,0,7037,0,0,0,7037,0,0,0,0,0,0,0,0,0,0,0,0,0,0,0,0,0,0,0,0,0,0,0,0,0,0,0,0,0,0,0,0,0,0,0,0,0,0,0,0,0,0,0,0,0,
0,0,0,0,0,0,0,0,0,0,0,0,0,0,0,0,0,0,0,0,0,0,0,0,0,0,0,0,0,0,7037,0,0,0,0,0,0,0,7193,0,0,0,0,0,0,0,0,0,0,0,0,0,0,0,0,0,0,0,0,0,0,0,0,0,0,0,0,0,0,0,0,0,0,0,0,0,0,0,0,0,
0,0,0,0,0,0,0,0,0,0,0,0,0,0,0,0,0,0,0,0,0,0,0,0,0,0,0,0,0,0,7037,0,0,0,0,0,0,0,0,0,0,0,0,0,0,0,0,0,0,0,0,0,0,0,0,0,0,0,0,0,0,0,0,0,0,0,0,0,0,0,0,0,0,0,0,0,0,0,0,0,
0,7266,7266,7266,7266,7266,7266,7266,7266,7266,7266,7266,7266,7266,7266,7266,7266,7266,7266,7266,7266,7266,7266,7266,7266,7266,7266,7266,7266,7266,7037,0,0,0,0,0,0,0,7193,0,0,0,0,0,0,0,0,0,0,0,0,0,0,0,0,0,0,0,0,0,0,0,0,0,0,0,0,0,0,0,0,0,0,0,0,0,0,0,0,0,
0,0,0,0,0,0,0,0,0,0,0,0,0,0,0,0,0,0,0,0,0,0,0,0,0,0,0,0,0,0,0,0,0,0,0,0,0,0,0,0,0,0,0,0,0,0,0,0,0,0,0,0,0,0,0,0,0,0,0,0,0,0,7267,7267,7267,7267,7267,7267,7267,7267,7267,7267,7267,0,0,0,0,0,0,0,
0,0,0,0,0,0,0,0,0,0,0,0,0,0,0,0,0,0,0,0,0,0,0,0,0,0,0,0,0,0,0,0,0,0,0,0,0,0,0,0,0,0,0,0,0,0,0,0,0,0,0,0,0,0,0,0,0,0,0,0,0,0,0,0,0,0,0,0,0,0,0,0,0,0,0,0,0,0,0,0,
0,0,0,0,0,0,0,0,0,0,0,0,0,0,0,0,0,0,0,0,0,0,0,0,0,0,0,0,0,0,0,0,0,0,0,0,0,0,0,0,0,0,0,0,0,0,0,0,0,0,0,0,0,0,0,0,0,0,0,0,0,0,0,0,0,0,0,0,0,0,0,0,0,0,0,0,0,0,0,0,
0,0,0,0,0,0,0,0,0,0,0,0,0,0,0,0,0,0,0,0,0,0,0,0,0,0,0,0,0,0,0,0,0,0,0,0,0,0,0,0,0,0,0,0,0,0,0,0,0,0,0,0,0,0,0,0,0,0,0,0,0,0,0,0,0,0,0,0,0,0,0,0,0,0,0,0,0,0,0,0,
0,0,0,0,0,0,0,0,0,0,0,0,0,0,0,0,0,0,0,0,0,0,0,0,0,0,0,0,0,0,0,0,0,0,0,0,0,0,0,0,0,0,0,0,0,0,0,0,0,0,0,0,0,0,0,0,0,0,0,0,0,0,0,0,0,0,0,0,0,0,0,0,0,0,0,0,0,0,0,0,
0,0,0,0,0,0,0,0,0,0,0,0,0,0,0,0,0,0,0,0,0,0,0,0,0,0,0,0,0,0,0,0,0,0,0,0,0,0,0,0,0,0,0,0,0,0,0,0,0,0,0,0,0,0,0,0,0,0,0,0,0,0,0,0,0,0,0,0,0,0,0,0,0,0,0,0,0,0,0,0,
0,0,0,0,0,0,0,0,0,0,0,0,0,0,0,0,0,0,0,0,0,0,0,0,0,0,0,0,0,0,0,0,0,0,0,0,0,0,0,0,0,0,0,0,0,0,0,0,0,0,0,0,0,0,0,0,0,0,0,0,0,0,0,0,0,0,0,0,0,0,0,0,0,0,0,0,0,0,0,0,
0,0,0,0,0,0,0,0,0,0,0,0,0,0,0,0,0,0,0,0,0,0,0,0,0,0,0,0,0,0,0,0,0,0,0,0,0,0,0,0,0,0,0,0,0,0,0,0,0,0,0,0,0,0,0,0,0,0,0,0,0,0,0,0,0,0,0,0,0,0,0,0,0,0,0,0,0,0,0,0,
0,0,0,0,0,0,0,0,0,0,0,0,0,0,0,0,0,0,0,0,0,0,0,0,0,0,0,0,0,0,0,0,0,0,0,0,0,0,0,0,0,0,0,0,0,0,0,0,0,0,0,0,0,0,0,0,0,0,0,0,0,0,0,0,0,0,0,0,0,0,0,0,0,0,0,0,0,0,0,0,
0,0,0,0,0,0,0,0,0,0,0,0,0,0,0,0,0,0,0,0,0,0,0,0,0,0,0,0,0,0,0,0,0,0,0,0,0,0,0,0,0,0,0,0,0,0,0,0,0,0,0,0,0,0,0,0,0,0,0,0,0,0,0,0,0,0,0,0,0,0,0,0,0,0,0,0,0,0,0,0,
0,0,0,0,0,0,0,0,0,0,0,0,0,0,0,0,0,0,0,0,0,0,0,0,0,0,0,0,0,0,0,0,0,0,0,0,0,0,0,0,0,0,0,0,0,0,0,0,0,0,0,0,0,0,0,0,0,0,0,0,0,0,0,0,0,0,0,0,0,0,0,0,0,0,0,0,0,0,0,0
</data>
 </layer>
 <layer id="2" name="parede" width="80" height="44">
  <data encoding="csv">
0,0,0,0,0,0,0,0,0,0,0,0,0,0,0,0,0,0,0,0,0,0,7257,5638,5638,5638,5638,5638,5638,5638,5638,5638,0,5638,5638,5638,5638,5638,5638,5638,5638,0,7037,0,0,0,0,0,0,0,0,0,0,0,0,0,0,0,0,0,0,0,0,0,0,0,0,0,0,0,0,0,0,0,0,0,0,0,0,0,
0,0,0,0,0,0,0,0,0,0,0,0,0,0,0,0,0,0,0,0,0,0,7257,0,0,0,0,0,0,0,0,0,0,0,0,0,0,0,0,0,0,5738,7037,0,0,0,0,0,0,0,0,0,0,0,0,0,0,0,0,0,0,0,0,0,0,0,0,0,0,0,0,0,0,0,0,0,0,0,0,0,
0,0,0,0,0,0,0,0,0,0,0,0,0,0,0,0,0,0,0,0,0,0,7257,0,0,0,0,0,0,0,0,0,0,0,0,0,0,0,0,0,0,5738,7037,0,0,0,0,0,0,0,0,0,0,0,0,0,0,0,0,0,0,0,0,0,0,0,0,0,0,0,0,0,0,0,0,0,0,0,0,0,
0,0,0,0,0,0,0,0,0,0,0,0,0,0,0,0,0,0,0,0,0,0,7257,0,0,0,0,0,0,0,0,0,0,0,0,0,0,0,0,0,0,5699,7037,0,0,0,0,0,0,0,0,0,0,0,0,0,0,0,0,0,0,0,0,0,0,0,0,0,0,0,0,0,0,0,0,0,0,0,0,0,
0,0,0,0,0,0,0,0,0,0,0,0,0,0,0,0,0,0,0,0,0,0,7257,0,0,0,0,0,0,0,0,0,0,0,0,0,0,0,0,0,0,5738,7037,0,0,0,0,0,0,0,0,0,0,0,0,0,0,0,0,0,0,0,0,0,0,0,0,0,0,0,0,0,0,0,0,0,0,0,0,0,
0,0,0,0,0,0,0,0,0,0,0,0,0,0,0,0,0,0,0,0,0,0,7257,0,0,0,0,0,0,0,0,0,0,0,0,0,0,0,0,0,0,5738,7037,0,0,0,0,0,0,0,0,0,0,0,0,0,0,0,0,0,0,0,0,0,7037,7267,7267,7267,7267,7267,7267,7267,7267,7267,7267,7267,7037,0,0,0,
0,0,0,0,0,0,0,0,0,0,0,0,0,0,0,0,0,0,0,0,0,0,7257,0,0,0,0,0,0,0,0,0,0,0,0,0,0,0,0,0,0,5738,7037,0,0,0,0,0,0,0,0,0,0,0,0,0,0,0,0,0,0,0,0,0,7037,0,0,0,0,0,0,0,0,0,0,0,7037,0,0,0,
0,0,0,0,0,0,0,0,0,0,0,0,0,0,0,0,0,0,0,0,0,0,7257,0,0,0,0,0,0,0,0,0,0,0,0,0,0,0,0,0,0,5720,7037,0,0,0,0,0,0,0,0,0,0,0,0,0,0,0,0,0,0,0,0,0,7037,0,0,0,0,0,0,0,0,0,0,0,7037,0,0,0,
0,0,0,0,0,0,0,0,0,0,0,0,0,0,0,0,0,0,0,0,0,0,7257,0,0,0,0,0,0,0,0,0,0,0,0,0,0,0,0,0,0,5720,7037,0,0,0,0,0,0,0,0,0,0,0,0,0,0,0,0,0,0,0,0,0,7037,0,0,0,0,0,0,0,0,0,0,0,7037,0,0,0,
0,0,0,0,0,0,0,0,0,0,0,0,0,0,0,0,0,0,0,0,0,0,7257,5638,5638,5638,5638,5638,5638,5638,7037,5638,0,5638,7037,5638,5638,5638,5638,5638,5638,0,7037,0,0,0,0,0,0,0,0,0,0,0,0,0,0,0,0,0,0,0,0,0,7037,0,0,0,0,0,0,0,0,0,0,0,7037,0,0,0,
7321,7266,7266,7266,7266,7266,7266,7266,7266,7266,7323,0,0,0,0,0,0,0,0,0,7037,0,0,0,0,0,0,0,0,0,7257,0,0,0,7259,0,0,0,0,0,0,0,0,0,0,0,0,0,0,0,0,0,0,0,0,0,0,0,0,0,0,0,0,0,7037,0,0,0,0,0,0,0,0,0,0,0,7037,0,0,0,
7321,0,0,0,0,0,0,0,0,0,7323,0,0,0,0,0,0,0,0,0,7037,0,0,0,0,0,0,0,0,0,7257,0,0,0,7259,1009,1009,1009,1009,1009,1009,1009,1009,1009,1009,1009,1009,1009,1009,1009,1009,1009,1009,1009,1009,1009,1009,1009,1009,1009,1009,7195,0,0,7037,0,0,0,0,0,0,0,0,0,0,0,7037,0,0,0,
7321,0,0,0,0,0,0,0,0,0,7323,0,0,0,0,0,0,0,0,0,7037,0,0,0,0,0,0,0,0,0,7257,0,0,0,7259,0,0,0,0,0,0,0,0,0,0,0,0,0,0,0,0,0,0,0,0,0,0,0,0,0,0,7195,7267,7267,7267,7267,7267,7267,7267,7267,0,7267,7267,7267,7267,7267,7267,7267,7267,7037,
7321,0,0,0,0,0,0,0,0,0,7323,0,0,0,0,0,0,0,0,0,7037,0,0,0,0,0,0,0,0,0,7257,0,0,0,7259,0,0,0,0,0,0,0,0,0,0,0,0,0,0,0,0,0,0,0,0,0,0,0,0,0,0,7195,0,0,0,0,0,0,0,0,0,0,0,0,0,0,0,0,0,7037,
7321,0,0,0,0,0,0,0,7325,0,7323,0,0,0,0,0,0,0,0,0,7037,0,0,0,0,0,0,0,0,0,7257,0,0,0,7259,0,0,0,0,0,0,0,0,0,0,0,0,0,0,0,0,0,0,0,0,0,0,0,0,0,0,7195,0,0,0,0,0,0,0,0,0,0,0,0,0,0,0,0,0,7037,
7321,0,0,0,0,0,0,0,0,0,7323,0,0,0,0,0,0,0,0,0,7037,0,0,0,0,0,0,0,0,0,7257,0,0,0,7259,0,0,0,0,0,0,0,0,0,0,0,0,0,0,0,0,0,0,0,0,0,0,0,0,0,0,7195,0,0,0,0,0,0,0,0,0,0,0,0,0,0,0,0,0,7037,
7321,0,0,0,0,0,0,0,0,0,7323,0,0,0,0,0,0,0,0,0,7037,0,0,0,0,0,0,0,0,0,7257,0,0,0,7259,0,0,0,0,0,0,0,0,0,0,0,0,0,0,0,0,0,0,0,0,0,0,0,0,0,0,7195,0,0,0,0,0,0,0,0,0,0,0,0,0,0,0,0,0,7037,
7321,0,0,0,0,0,0,0,0,0,7323,0,0,0,0,0,0,0,0,0,7037,0,0,0,0,0,0,0,0,0,7257,0,0,0,7259,1009,1009,1009,1009,1009,1009,1009,1009,1009,1009,1009,1009,1009,1009,1009,1009,1009,1009,1009,1009,1009,0,1009,1009,1009,1009,7195,7267,7267,7267,7267,7267,7267,7267,0,0,0,7267,7267,7267,7267,7267,7267,7267,7037,
7321,0,0,0,0,0,0,0,0,0,7323,0,0,0,0,0,0,0,0,0,7037,0,0,0,0,0,0,0,0,0,7257,0,0,0,0,0,0,0,0,0,0,0,0,0,0,0,0,0,0,0,0,0,0,0,0,0,0,0,0,0,0,7195,0,0,0,0,0,0,0,0,0,0,0,0,0,0,0,0,0,7037,
7193,7266,7266,7266,7266,7266,7266,7266,0,7266,7266,7266,7266,7266,7266,7266,7266,7266,0,7266,7266,7266,7266,7266,7266,7266,7266,7266,0,7266,7266,0,0,0,0,0,0,0,0,0,0,0,0,0,0,0,0,0,0,0,0,0,0,0,0,0,0,0,0,0,0,7195,0,0,0,0,0,0,0,0,0,0,0,0,0,0,0,0,0,7037,
7193,0,0,0,0,0,0,0,0,0,0,0,0,0,0,0,0,0,0,0,0,0,0,0,0,0,0,0,0,0,0,0,0,0,0,0,0,0,0,0,0,0,0,0,0,0,0,0,0,0,0,0,0,0,0,0,0,0,0,0,0,7195,0,0,0,0,0,0,0,0,0,0,0,0,0,0,0,0,0,7037,
7193,0,0,0,0,0,0,0,0,0,0,0,0,0,0,0,0,0,0,0,0,0,0,0,0,0,0,0,0,0,0,0,0,0,7259,1009,1009,1009,1009,1009,1009,1009,1009,1009,1009,1009,1009,1009,1009,1009,1009,1009,1009,1009,1009,1009,0,1009,1009,1009,1009,7195,0,0,0,0,0,0,0,0,0,0,0,0,0,0,0,0,0,7037,
7193,0,0,0,0,0,0,0,0,0,0,0,0,0,0,0,0,0,0,0,0,0,0,0,0,0,0,0,0,0,0,0,0,0,7259,0,0,0,0,0,0,0,0,0,0,0,0,0,0,0,0,0,0,0,0,0,0,0,0,0,0,7195,7267,7267,7267,7267,7267,7267,7267,0,0,0,7267,7267,7267,7267,7267,7267,7267,7037,
7193,7266,7266,7266,7266,7266,7266,7266,0,7266,7037,7266,7266,7266,7266,7266,7266,7266,0,7266,7037,7266,7266,7266,7266,7266,7266,7266,0,7266,7195,0,0,0,7259,0,0,0,0,0,0,0,0,0,0,0,0,0,0,0,0,0,0,0,0,0,0,0,0,0,0,7195,0,0,0,0,0,0,0,0,0,0,0,0,0,0,0,0,0,7037,
7037,0,0,0,0,0,0,0,0,0,7037,0,0,0,0,0,0,0,0,0,7037,0,0,0,0,0,0,0,0,0,7195,0,0,0,7195,0,0,0,0,0,0,0,0,0,0,0,0,0,0,0,0,0,0,0,0,0,0,0,0,0,0,7195,0,0,0,0,0,0,0,0,0,0,0,0,0,0,0,0,0,7037,
7037,0,0,0,0,0,0,0,0,0,7037,0,0,0,0,0,0,0,0,0,7037,0,0,0,0,0,0,0,0,0,7195,0,0,0,7195,0,0,0,0,0,0,0,0,0,0,0,0,0,0,0,0,0,0,0,0,0,0,0,0,0,0,7195,0,0,0,0,0,0,0,0,0,0,0,0,0,0,0,0,0,7037,
7037,0,0,0,0,0,0,0,0,0,7037,0,0,0,0,0,0,0,0,0,7037,0,0,0,0,0,0,0,0,0,7195,0,0,0,7195,0,0,0,0,0,0,0,0,0,0,0,0,0,0,0,0,0,0,0,0,0,0,0,0,0,0,7195,0,0,0,0,0,0,0,0,0,0,0,0,0,0,0,0,0,7037,
7037,0,0,0,0,0,0,0,0,0,7037,0,0,0,0,0,0,0,0,0,7037,0,0,0,0,0,0,0,0,0,7195,0,0,0,7195,1009,1009,1009,1009,1009,1009,1009,1009,1009,1009,1009,1009,1009,1009,1009,1009,1009,1009,1009,1009,1009,1009,1009,1009,1009,1009,7195,7267,7267,7267,7267,7267,7267,7037,0,0,0,7037,7267,7267,7267,7267,7267,7267,7037,
7037,0,0,0,0,0,0,0,0,0,7037,0,0,0,0,0,0,0,0,0,7037,0,0,0,0,0,0,0,0,0,7195,0,0,0,7195,0,0,0,7037,0,0,0,0,0,0,0,0,0,0,0,0,0,0,0,0,0,0,0,0,0,0,7037,0,0,0,0,0,0,7037,0,0,0,7037,0,0,0,0,0,0,0,
7037,0,0,0,0,0,0,0,0,0,7037,0,0,0,0,0,0,0,0,0,7037,0,0,0,0,0,0,0,0,0,7195,0,0,0,7195,0,0,0,7037,0,0,0,0,0,0,0,0,0,0,0,0,0,0,0,0,0,0,0,0,0,0,7037,0,0,0,0,0,0,0,0,0,0,7037,0,0,0,0,0,0,0,
7037,0,0,0,0,0,0,0,0,0,7037,0,0,0,0,0,0,0,0,0,7037,0,0,0,0,0,0,0,0,0,7195,0,0,0,0,0,0,0,7037,0,0,0,0,0,0,0,0,0,0,0,0,0,0,0,0,0,0,0,0,0,0,7037,0,0,0,0,0,0,0,0,0,0,7037,0,0,0,0,0,0,0,
7037,0,0,0,0,0,0,0,0,0,7037,0,0,0,0,0,0,0,0,0,7037,0,0,0,0,0,0,0,0,0,7195,0,0,0,0,0,0,0,0,0,0,0,0,0,0,0,0,0,0,0,0,0,0,0,0,0,0,0,0,0,0,0,0,0,0,0,0,0,0,0,0,0,7037,0,0,0,0,0,0,0,
7037,0,0,0,0,0,0,0,0,0,0,0,0,0,0,0,0,0,0,0,0,0,0,0,0,0,0,0,0,0,7195,0,0,0,0,0,0,0,7037,0,0,0,0,0,0,0,0,0,0,0,0,0,0,0,0,0,0,0,0,0,0,7037,0,0,0,0,0,0,0,0,0,0,7037,0,0,0,0,0,0,0,
0,0,0,0,0,0,0,0,0,0,0,0,0,0,0,0,0,0,0,0,0,0,0,0,0,0,0,7037,7266,7266,0,0,0,0,0,0,0,7037,7037,0,0,0,0,0,0,0,0,0,0,0,0,0,0,0,0,0,0,0,0,0,0,7037,0,0,0,0,0,0,0,0,0,0,0,0,0,0,0,0,0,0,
0,0,0,0,0,0,0,0,0,0,0,0,0,0,0,0,0,0,0,0,0,0,0,0,0,0,0,7037,0,0,0,0,0,0,0,0,0,7037,7037,0,0,0,0,0,0,0,0,0,0,0,0,0,0,0,0,0,0,0,0,0,0,7037,0,0,0,0,0,0,0,0,0,0,0,0,0,0,0,0,0,0,
0,0,0,0,0,0,0,0,0,0,0,0,0,0,0,0,0,0,0,0,0,0,0,0,0,0,0,7037,0,0,0,0,0,0,0,0,0,7037,7037,0,0,0,0,0,0,0,0,0,0,0,0,0,0,0,0,0,0,0,0,0,0,7037,0,0,0,0,0,0,0,0,0,0,0,0,0,0,0,0,0,0,
0,0,0,0,0,0,0,0,0,0,0,0,0,0,0,0,0,0,0,0,0,0,0,0,0,0,0,7037,0,0,0,0,0,0,0,0,0,7037,7037,0,0,0,0,0,0,0,0,0,0,0,0,0,0,0,0,0,0,0,0,0,0,7037,0,0,0,0,0,0,0,0,0,0,0,0,0,0,0,0,0,0,
0,0,0,0,0,0,0,0,0,0,0,0,0,0,0,0,0,0,0,0,0,0,0,0,0,0,0,7037,0,0,0,0,0,0,0,0,0,7037,7037,0,0,0,0,0,0,0,0,0,0,0,0,0,0,0,0,0,0,0,0,0,0,7037,0,0,0,0,0,0,0,0,0,0,0,0,0,0,0,0,0,0,
0,0,0,0,0,0,0,0,0,0,0,0,0,0,0,0,0,0,0,0,0,0,0,0,0,0,0,7037,0,0,0,0,0,0,0,0,0,7037,7037,0,0,0,0,0,0,0,0,0,0,0,0,0,0,0,0,0,0,0,0,0,0,7037,0,0,0,0,0,0,0,0,0,0,0,0,0,0,0,0,0,0,
0,0,0,0,0,0,0,0,0,0,0,0,0,0,0,0,0,0,0,0,0,0,0,0,0,0,0,7037,0,0,0,0,0,0,0,0,0,7037,7037,0,0,0,0,0,0,0,0,0,0,0,0,0,0,0,0,0,0,0,0,0,0,7037,0,0,0,0,0,0,0,0,0,0,0,0,0,0,0,0,0,0,
0,0,0,0,0,0,0,0,0,0,0,0,0,0,0,0,0,0,0,0,0,0,0,0,0,0,0,7037,0,0,0,0,0,0,0,0,0,7037,7037,0,0,0,0,0,0,0,0,0,0,0,0,0,0,0,0,0,0,0,0,0,0,7037,0,0,0,0,0,0,0,0,0,0,0,0,0,0,0,0,0,0,
0,0,0,0,0,0,0,0,0,0,0,0,0,0,0,0,0,0,0,0,0,0,0,0,0,0,0,0,0,0,0,0,0,0,0,0,0,0,7037,0,0,0,0,0,0,0,0,0,0,0,0,0,0,0,0,0,0,0,0,0,0,7037,0,0,0,0,0,0,0,0,0,0,0,0,0,0,0,0,0,0,
0,0,0,0,0,0,0,0,0,0,0,0,0,0,0,0,0,0,0,0,0,0,0,0,0,0,0,0,0,0,0,0,0,0,0,0,0,0,7037,0,0,0,0,0,0,0,0,0,0,0,0,0,0,0,0,0,0,0,0,0,0,7037,0,0,0,0,0,0,0,0,0,0,0,0,0,0,0,0,0,0,
0,0,0,0,0,0,0,0,0,0,0,0,0,0,0,0,0,0,0,0,0,0,0,0,0,0,0,0,0,0,0,0,0,0,0,0,0,0,7037,0,0,0,0,0,0,0,0,0,0,0,0,0,0,0,0,0,0,0,0,0,0,7037,0,0,0,0,0,0,0,0,0,0,0,0,0,0,0,0,0,0
</data>
 </layer>
 <layer id="8" name="parede1.1" width="80" height="44">
  <data encoding="csv">
0,0,0,0,0,0,0,0,0,0,0,0,0,0,0,0,0,0,0,0,0,0,0,0,0,0,0,0,0,0,0,0,0,0,0,0,5638,5638,0,0,0,0,7257,0,0,0,0,0,0,0,0,0,0,0,0,0,0,0,0,0,0,0,0,0,0,0,0,0,0,0,0,0,0,0,0,0,0,0,0,0,
0,0,0,0,0,0,0,0,0,0,0,0,0,0,0,0,0,0,0,0,0,0,0,0,0,0,0,0,0,0,0,0,0,0,0,0,0,0,0,0,0,0,7257,0,0,0,0,0,0,0,0,0,0,0,0,0,0,0,0,0,0,0,0,0,0,0,0,0,0,0,0,0,0,0,0,0,0,0,0,0,
0,0,0,0,0,0,0,0,0,0,0,0,0,0,0,0,0,0,0,0,0,0,0,0,0,0,0,0,0,0,0,0,0,0,0,0,0,0,0,0,0,0,7257,0,0,0,0,0,0,0,0,0,0,0,0,0,0,0,0,0,0,0,0,0,0,0,0,0,0,0,0,0,0,0,0,0,0,0,0,0,
0,0,0,0,0,0,0,0,0,0,0,0,0,0,0,0,0,0,0,0,0,0,0,0,0,0,0,0,0,0,0,0,0,0,0,0,0,0,0,0,0,0,7257,0,0,0,0,0,0,0,0,0,0,0,0,0,0,0,0,0,0,0,0,0,0,0,0,0,0,0,0,0,0,0,0,0,0,0,0,0,
0,0,0,0,0,0,0,0,0,0,0,0,0,0,0,0,0,0,0,0,0,0,0,0,0,0,0,0,0,0,0,0,0,0,0,0,0,0,0,0,0,0,7257,0,0,0,0,0,0,0,0,0,0,0,0,0,0,0,0,0,0,0,0,0,0,0,0,0,0,0,0,0,0,0,0,0,0,0,0,0,
0,0,0,0,0,0,0,0,0,0,0,0,0,0,0,0,0,0,0,0,0,0,0,0,0,0,0,0,0,0,0,0,0,0,0,0,0,0,0,0,0,0,7257,0,0,0,0,0,0,0,0,0,0,0,0,0,0,0,0,0,0,0,0,0,7259,0,0,0,0,0,0,0,0,0,0,0,7259,0,0,0,
0,0,0,0,0,0,0,0,0,0,0,0,0,0,0,0,0,0,0,0,0,0,0,0,0,0,0,0,0,0,0,0,0,0,0,0,0,0,0,0,0,0,7257,0,0,0,0,0,0,0,0,0,0,0,0,0,0,0,0,0,0,0,0,0,7259,0,0,0,0,0,0,0,0,0,0,0,7259,0,0,0,
0,0,0,0,0,0,0,0,0,0,0,0,0,0,0,0,0,0,0,0,0,0,0,0,0,0,0,0,0,0,0,0,0,0,0,0,0,0,0,0,0,0,7257,0,0,0,0,0,0,0,0,0,0,0,0,0,0,0,0,0,0,0,0,0,7259,0,0,0,0,0,0,0,0,0,0,0,7259,0,0,0,
0,0,0,0,0,0,0,0,0,0,0,0,0,0,0,0,0,0,0,0,0,0,0,0,0,0,0,0,0,0,0,0,0,0,0,0,0,0,0,0,0,0,7257,0,0,0,0,0,0,0,0,0,0,0,0,0,0,0,0,0,0,0,0,0,7259,0,0,0,0,0,0,0,0,0,0,0,7259,0,0,0,
0,0,0,0,0,0,0,0,0,0,0,0,0,0,0,0,0,0,0,0,0,0,0,0,0,0,0,0,0,0,7193,0,0,0,7193,0,0,0,0,0,0,0,7257,0,0,0,0,0,0,0,0,0,0,0,0,0,0,0,0,0,0,0,0,0,7259,0,0,0,0,0,0,0,0,0,0,0,7259,0,0,0,
0,0,0,0,0,0,0,0,0,0,0,0,0,0,0,0,0,0,0,0,7259,0,0,0,0,0,0,0,0,0,0,0,0,0,7193,0,0,0,0,0,0,0,0,0,0,0,0,0,0,0,0,0,0,0,0,0,0,0,0,0,0,0,0,0,7259,0,0,0,0,0,0,0,0,0,0,0,7259,0,0,0,
0,0,0,0,0,0,0,0,0,0,0,0,0,0,0,0,0,0,0,0,7259,0,0,0,0,0,0,0,0,0,0,0,0,0,7193,0,0,0,0,0,0,0,0,0,0,0,0,0,0,0,0,0,0,0,0,0,0,0,0,0,0,7193,0,0,7259,0,0,0,0,0,0,0,0,0,0,0,7259,0,0,0,
0,0,0,0,0,0,0,0,0,0,0,0,0,0,0,0,0,0,0,0,7259,0,0,0,0,0,0,0,0,0,0,0,0,0,7193,0,0,0,0,0,0,0,0,0,0,0,0,0,0,0,0,0,0,0,0,0,0,0,0,0,0,7193,0,0,0,0,0,0,0,0,0,0,0,0,0,0,0,0,0,7259,
0,0,0,0,0,0,0,0,0,0,0,0,0,0,0,0,0,0,0,0,7259,0,0,0,0,0,0,0,0,0,0,0,0,0,7193,0,0,0,0,0,0,0,0,0,0,0,0,0,0,0,0,0,0,0,0,0,0,0,0,0,0,7193,0,0,0,0,0,0,0,0,0,0,0,0,0,0,0,0,0,7259,
0,0,0,0,0,0,0,0,0,0,0,0,0,0,0,0,0,0,0,0,7259,0,0,0,0,0,0,0,0,0,0,0,0,0,7193,0,0,0,0,0,0,0,0,0,0,0,0,0,0,0,0,0,0,0,0,0,0,0,0,0,0,7193,0,0,0,0,0,0,0,0,0,0,0,0,0,0,0,0,0,7259,
0,0,0,0,0,0,0,0,0,0,0,0,0,0,0,0,0,0,0,0,7259,0,0,0,0,0,0,0,0,0,0,0,0,0,7193,0,0,0,0,0,0,0,0,0,0,0,0,0,0,0,0,0,0,0,0,0,0,0,0,0,0,7193,0,0,0,0,0,0,0,0,0,0,0,0,0,0,0,0,0,7259,
0,0,0,0,0,0,0,0,0,0,0,0,0,0,0,0,0,0,0,0,7259,0,0,0,0,0,0,0,0,0,0,0,0,0,7193,0,0,0,0,0,0,0,0,0,0,0,0,0,0,0,0,0,0,0,0,0,0,0,0,0,0,7193,0,0,0,0,0,0,0,0,0,0,0,0,0,0,0,0,0,7259,
0,0,0,0,0,0,0,0,0,0,0,0,0,0,0,0,0,0,0,0,7259,0,0,0,0,0,0,0,0,0,0,0,0,0,7193,0,0,0,0,0,0,0,0,0,0,0,0,0,0,0,0,0,0,0,0,0,0,0,0,0,0,7193,0,0,0,0,0,0,0,0,0,0,0,0,0,0,0,0,0,7259,
0,0,0,0,0,0,0,0,0,0,0,0,0,0,0,0,0,0,0,0,7259,0,0,0,0,0,0,0,0,0,0,0,0,0,0,0,0,0,0,0,0,0,0,0,0,0,0,0,0,0,0,0,0,0,0,0,0,0,0,0,0,7193,0,0,0,0,0,0,0,0,0,0,0,0,0,0,0,0,0,7259,
0,0,0,0,0,0,0,0,0,0,0,0,0,0,0,0,0,0,0,0,0,0,0,0,0,0,0,0,0,0,0,0,0,0,0,0,0,0,0,0,0,0,0,0,0,0,0,0,0,0,0,0,0,0,0,0,0,0,0,0,0,7193,0,0,0,0,0,0,0,0,0,0,0,0,0,0,0,0,0,7259,
0,0,0,0,0,0,0,0,0,0,0,0,0,0,0,0,0,0,0,0,0,0,0,0,0,0,0,0,0,0,0,0,0,0,0,0,0,0,0,0,0,0,0,0,0,0,0,0,0,0,0,0,0,0,0,0,0,0,0,0,0,7193,0,0,0,0,0,0,0,0,0,0,0,0,0,0,0,0,0,7259,
0,0,0,0,0,0,0,0,0,0,0,0,0,0,0,0,0,0,0,0,0,0,0,0,0,0,0,0,0,0,0,0,0,0,7193,0,0,0,0,0,0,0,0,0,0,0,0,0,0,0,0,0,0,0,0,0,0,0,0,0,0,7193,0,0,0,0,0,0,0,0,0,0,0,0,0,0,0,0,0,7259,
0,0,0,0,0,0,0,0,0,0,0,0,0,0,0,0,0,0,0,0,0,0,0,0,0,0,0,0,0,0,0,0,0,0,7193,0,0,0,0,0,0,0,0,0,0,0,0,0,0,0,0,0,0,0,0,0,0,0,0,0,0,7193,0,0,0,0,0,0,0,0,0,0,0,0,0,0,0,0,0,7259,
0,0,0,0,0,0,0,0,0,0,7259,0,0,0,0,0,0,0,0,0,7259,0,0,0,0,0,0,0,0,0,7193,0,0,0,7193,0,0,0,0,0,0,0,0,0,0,0,0,0,0,0,0,0,0,0,0,0,0,0,0,0,0,7193,0,0,0,0,0,0,0,0,0,0,0,0,0,0,0,0,0,7259,
7259,0,0,0,0,0,0,0,0,0,7259,0,0,0,0,0,0,0,0,0,7259,0,0,0,0,0,0,0,0,0,7193,0,0,0,7193,0,0,0,0,0,0,0,0,0,0,0,0,0,0,0,0,0,0,0,0,0,0,0,0,0,0,7193,0,0,0,0,0,0,0,0,0,0,0,0,0,0,0,0,0,7259,
7259,0,0,0,0,0,0,0,0,0,7259,0,0,0,0,0,0,0,0,0,7259,0,0,0,0,0,0,0,0,0,7193,0,0,0,7193,0,0,0,0,0,0,0,0,0,0,0,0,0,0,0,0,0,0,0,0,0,0,0,0,0,0,7193,0,0,0,0,0,0,0,0,0,0,0,0,0,0,0,0,0,7259,
7259,0,0,0,0,0,0,0,0,0,7259,0,0,0,0,0,0,0,0,0,7259,0,0,0,0,0,0,0,0,0,7193,0,0,0,7193,0,0,0,0,0,0,0,0,0,0,0,0,0,0,0,0,0,0,0,0,0,0,0,0,0,0,7193,0,0,0,0,0,0,0,0,0,0,0,0,0,0,0,0,0,7259,
7259,0,0,0,0,0,0,0,0,0,7259,0,0,0,0,0,0,0,0,0,7259,0,0,0,0,0,0,0,0,0,7193,0,0,0,7193,0,0,0,0,0,0,0,0,0,0,0,0,0,0,0,0,0,0,0,0,0,0,0,0,0,0,7193,0,0,0,0,0,0,7259,0,0,0,7259,0,0,0,0,0,0,7259,
7259,0,0,0,0,0,0,0,0,0,7259,0,0,0,0,0,0,0,0,0,7259,0,0,0,0,0,0,0,0,0,7193,0,0,0,7193,0,0,0,7257,0,0,0,0,0,0,0,0,0,0,0,0,0,0,0,0,0,0,0,0,0,0,7257,0,0,0,0,0,0,7259,0,0,0,7259,0,0,0,0,0,0,0,
7259,0,0,0,0,0,0,0,0,0,7259,0,0,0,0,0,0,0,0,0,7259,0,0,0,0,0,0,0,0,0,7193,0,0,0,7193,0,0,0,7259,0,0,0,0,0,0,0,0,0,0,0,0,0,0,0,0,0,0,0,0,0,0,7257,0,0,0,0,0,0,0,0,0,0,7259,0,0,0,0,0,0,0,
7259,0,0,0,0,0,0,0,0,0,7259,0,0,0,0,0,0,0,0,0,7259,0,0,0,0,0,0,0,0,0,7193,0,0,0,0,0,0,0,7259,0,0,0,0,0,0,0,0,0,0,0,0,0,0,0,0,0,0,0,0,0,0,7257,0,0,0,0,0,0,0,0,0,0,7259,0,0,0,0,0,0,0,
7259,0,0,0,0,0,0,0,0,0,7259,0,0,0,0,0,0,0,0,0,7259,0,0,0,0,0,0,0,0,0,7193,0,0,0,0,0,0,0,0,0,0,0,0,0,0,0,0,0,0,0,0,0,0,0,0,0,0,0,0,0,0,0,0,0,0,0,0,0,0,0,0,0,7259,0,0,0,0,0,0,0,
7259,0,0,0,0,0,0,0,0,0,0,0,0,0,0,0,0,0,0,0,0,0,0,0,0,0,0,0,0,0,7193,0,0,0,0,0,0,0,7259,0,0,0,0,0,0,0,0,0,0,0,0,0,0,0,0,0,0,0,0,0,0,7257,0,0,0,0,0,0,0,0,0,0,7259,0,0,0,0,0,0,0,
0,0,0,0,0,0,0,0,0,0,0,0,0,0,0,0,0,0,0,0,0,0,0,0,0,0,0,7259,0,0,0,0,0,0,0,0,0,7259,7259,0,0,0,0,0,0,0,0,0,0,0,0,0,0,0,0,0,0,0,0,0,0,7257,0,0,0,0,0,0,0,0,0,0,0,0,0,0,0,0,0,0,
0,0,0,0,0,0,0,0,0,0,0,0,0,0,0,0,0,0,0,0,0,0,0,0,0,0,0,7259,0,0,0,0,0,0,0,0,0,7259,7257,0,0,0,0,0,0,0,0,0,0,0,0,0,0,0,0,0,0,0,0,0,0,7257,0,0,0,0,0,0,0,0,0,0,0,0,0,0,0,0,0,0,
0,0,0,0,0,0,0,0,0,0,0,0,0,0,0,0,0,0,0,0,0,0,0,0,0,0,0,7259,0,0,0,0,0,0,0,0,0,7259,7257,0,0,0,0,0,0,0,0,0,0,0,0,0,0,0,0,0,0,0,0,0,0,7257,0,0,0,0,0,0,0,0,0,0,0,0,0,0,0,0,0,0,
0,0,0,0,0,0,0,0,0,0,0,0,0,0,0,0,0,0,0,0,0,0,0,0,0,0,0,7259,0,0,0,0,0,0,0,0,0,7259,7257,0,0,0,0,0,0,0,0,0,0,0,0,0,0,0,0,0,0,0,0,0,0,7257,0,0,0,0,0,0,0,0,0,0,0,0,0,0,0,0,0,0,
0,0,0,0,0,0,0,0,0,0,0,0,0,0,0,0,0,0,0,0,0,0,0,0,0,0,0,7259,0,0,0,0,0,0,0,0,0,7259,7257,0,0,0,0,0,0,0,0,0,0,0,0,0,0,0,0,0,0,0,0,0,0,7257,0,0,0,0,0,0,0,0,0,0,0,0,0,0,0,0,0,0,
0,0,0,0,0,0,0,0,0,0,0,0,0,0,0,0,0,0,0,0,0,0,0,0,0,0,0,7259,0,0,0,0,0,0,0,0,0,7259,7257,0,0,0,0,0,0,0,0,0,0,0,0,0,0,0,0,0,0,0,0,0,0,7257,0,0,0,0,0,0,0,0,0,0,0,0,0,0,0,0,0,0,
0,0,0,0,0,0,0,0,0,0,0,0,0,0,0,0,0,0,0,0,0,0,0,0,0,0,0,7259,0,0,0,0,0,0,0,0,0,7259,7257,0,0,0,0,0,0,0,0,0,0,0,0,0,0,0,0,0,0,0,0,0,0,7257,0,0,0,0,0,0,0,0,0,0,0,0,0,0,0,0,0,0,
0,0,0,0,0,0,0,0,0,0,0,0,0,0,0,0,0,0,0,0,0,0,0,0,0,0,0,7259,0,0,0,0,0,0,0,0,0,7259,7257,0,0,0,0,0,0,0,0,0,0,0,0,0,0,0,0,0,0,0,0,0,0,7257,0,0,0,0,0,0,0,0,0,0,0,0,0,0,0,0,0,0,
0,0,0,0,0,0,0,0,0,0,0,0,0,0,0,0,0,0,0,0,0,0,0,0,0,0,0,0,0,0,0,0,0,0,0,0,0,0,7257,0,0,0,0,0,0,0,0,0,0,0,0,0,0,0,0,0,0,0,0,0,0,7257,0,0,0,0,0,0,0,0,0,0,0,0,0,0,0,0,0,0,
0,0,0,0,0,0,0,0,0,0,0,0,0,0,0,0,0,0,0,0,0,0,0,0,0,0,0,0,0,0,0,0,0,0,0,0,0,0,7257,0,0,0,0,0,0,0,0,0,0,0,0,0,0,0,0,0,0,0,0,0,0,7257,0,0,0,0,0,0,0,0,0,0,0,0,0,0,0,0,0,0,
0,0,0,0,0,0,0,0,0,0,0,0,0,0,0,0,0,0,0,0,0,0,0,0,0,0,0,0,0,0,0,0,0,0,0,0,0,0,7257,0,0,0,0,0,0,0,0,0,0,0,0,0,0,0,0,0,0,0,0,0,0,7257,0,0,0,0,0,0,0,0,0,0,0,0,0,0,0,0,0,0
</data>
 </layer>
 <layer id="3" name="parede2" width="80" height="44">
  <data encoding="csv">
0,0,0,0,0,0,0,0,0,0,0,0,0,0,0,0,0,0,0,0,0,0,0,0,0,0,0,0,0,0,0,0,0,0,0,0,5638,5638,0,0,0,0,7259,0,0,0,0,0,0,0,0,0,0,0,0,0,0,0,0,0,0,0,0,0,0,0,0,0,0,0,0,0,0,0,0,0,0,0,0,0,
0,0,0,0,0,0,0,0,0,0,0,0,0,0,0,0,0,0,0,0,0,0,0,0,0,0,0,0,0,0,0,0,0,0,0,0,0,0,0,0,0,0,7259,0,0,0,0,0,0,0,0,0,0,0,0,0,0,0,0,0,0,0,0,0,0,0,0,0,0,0,0,0,0,0,0,0,0,0,0,0,
0,0,0,0,0,0,0,0,0,0,0,0,0,0,0,0,0,0,0,0,0,0,0,0,0,0,0,0,0,0,0,0,0,0,0,0,0,0,0,0,0,0,7259,0,0,0,0,0,0,0,0,0,0,0,0,0,0,0,0,0,0,0,0,0,0,0,0,0,0,0,0,0,0,0,0,0,0,0,0,0,
0,0,0,0,0,0,0,0,0,0,0,0,0,0,0,0,0,0,0,0,0,0,0,0,0,0,0,0,0,0,0,0,0,0,0,0,0,0,0,0,0,0,7259,0,0,0,0,0,0,0,0,0,0,0,0,0,0,0,0,0,0,0,0,0,0,0,0,0,0,0,0,0,0,0,0,0,0,0,0,0,
0,0,0,0,0,0,0,0,0,0,0,0,0,0,0,0,0,0,0,0,0,0,0,0,0,0,0,0,0,0,0,0,0,0,0,0,0,0,0,0,0,0,7259,0,0,0,0,0,0,0,0,0,0,0,0,0,0,0,0,0,0,0,0,0,0,0,0,0,0,0,0,0,0,0,0,0,0,0,0,0,
0,0,0,0,0,0,0,0,0,0,0,0,0,0,0,0,0,0,0,0,0,0,0,0,0,0,0,0,0,0,0,0,0,0,0,0,0,0,0,0,0,0,7259,0,0,0,0,0,0,0,0,0,0,0,0,0,0,0,0,0,0,0,0,0,7257,0,0,0,0,0,0,0,0,0,0,0,7257,0,0,0,
0,0,0,0,0,0,0,0,0,0,0,0,0,0,0,0,0,0,0,0,0,0,0,0,0,0,0,0,0,0,0,0,0,0,0,0,0,0,0,0,0,0,7259,0,0,0,0,0,0,0,0,0,0,0,0,0,0,0,0,0,0,0,0,0,7257,0,0,0,0,0,0,0,0,0,0,0,7257,0,0,0,
0,0,0,0,0,0,0,0,0,0,0,0,0,0,0,0,0,0,0,0,0,0,0,0,0,0,0,0,0,0,0,0,0,0,0,0,0,0,0,0,0,0,7259,0,0,0,0,0,0,0,0,0,0,0,0,0,0,0,0,0,0,0,0,0,7257,0,0,0,0,0,0,0,0,0,0,0,7257,0,0,0,
0,0,0,0,0,0,0,0,0,0,0,0,0,0,0,0,0,0,0,0,0,0,0,0,0,0,0,0,0,0,0,0,0,0,0,0,0,0,0,0,0,0,7259,0,0,0,0,0,0,0,0,0,0,0,0,0,0,0,0,0,0,0,0,0,7257,0,0,0,0,0,0,0,0,0,0,0,7257,0,0,0,
0,0,0,0,0,0,0,0,0,0,0,0,0,0,0,0,0,0,0,0,0,0,0,0,0,0,0,0,0,0,7195,0,0,0,7259,0,0,0,0,0,0,0,7259,0,0,0,0,0,0,0,0,0,0,0,0,0,0,0,0,0,0,0,0,0,7257,0,0,0,0,0,0,0,0,0,0,0,7257,0,0,0,
7195,0,0,0,0,0,7321,0,0,0,7193,0,0,0,0,0,0,0,0,0,7257,0,0,0,0,0,0,0,0,0,7195,0,0,0,0,0,0,0,0,0,0,0,0,0,0,0,0,0,0,0,0,0,0,0,0,0,0,0,0,0,0,0,0,0,7257,0,0,0,0,0,0,0,0,0,0,0,7257,0,0,0,
7195,0,0,0,0,0,7321,0,0,0,7193,0,0,0,0,0,0,0,0,0,7257,0,0,0,0,0,0,0,0,0,7195,0,0,0,0,0,0,0,0,0,0,0,0,0,0,0,0,0,0,0,0,0,0,0,0,0,0,0,0,0,0,0,0,0,7257,0,0,0,0,0,0,0,0,0,0,0,7257,0,0,0,
7195,0,0,0,0,0,7321,0,0,0,7193,0,0,0,0,0,0,0,0,0,7257,0,0,0,0,0,0,0,0,0,7195,0,0,0,0,0,0,0,0,0,0,0,0,0,0,0,0,0,0,0,0,0,0,0,0,0,0,0,0,0,0,0,0,0,0,0,0,0,0,0,0,0,0,0,0,0,0,0,0,7257,
7195,0,0,0,0,0,7321,0,0,0,7193,0,0,0,0,0,0,0,0,0,7257,0,0,0,0,0,0,0,0,0,7195,0,0,0,0,0,0,0,0,0,0,0,0,0,0,0,0,0,0,0,0,0,0,0,0,0,0,0,0,0,0,0,0,0,0,0,0,0,0,0,0,0,0,0,0,0,0,0,0,7257,
7195,0,0,0,0,0,7257,7266,0,7266,7193,0,0,0,0,0,0,0,0,0,7257,0,0,0,0,0,0,0,0,0,7195,0,0,0,0,0,0,0,0,0,0,0,0,0,0,0,0,0,0,0,0,0,0,0,0,0,0,0,0,0,0,0,0,0,0,0,0,0,0,0,0,0,0,0,0,0,0,0,0,7257,
7195,0,0,0,0,0,0,0,0,0,7193,0,0,0,0,0,0,0,0,0,7257,0,0,0,0,0,0,0,0,0,7195,0,0,0,0,0,0,0,0,0,0,0,0,0,0,0,0,0,0,0,0,0,0,0,0,0,0,0,0,0,0,0,0,0,0,0,0,0,0,0,0,0,0,0,0,0,0,0,0,7257,
7195,0,0,0,0,0,0,0,0,0,7193,0,0,0,0,0,0,0,0,0,7257,0,0,0,0,0,0,0,0,0,7195,0,0,0,0,0,0,0,0,0,0,0,0,0,0,0,0,0,0,0,0,0,0,0,0,0,0,0,0,0,0,0,0,0,0,0,0,0,0,0,0,0,0,0,0,0,0,0,0,7257,
7195,0,0,0,0,0,0,0,0,0,7193,0,0,0,0,0,0,0,0,0,7257,0,0,0,0,0,0,0,0,0,7195,0,0,0,1009,0,0,0,0,0,0,0,0,0,0,0,0,0,0,0,0,0,0,0,0,0,0,0,0,0,0,0,0,0,0,0,0,0,0,0,0,0,0,0,0,0,0,0,0,7257,
7195,0,0,0,0,0,0,0,0,0,7193,0,0,0,0,0,0,0,0,0,7257,0,0,0,0,0,0,0,0,0,7195,0,0,0,0,0,0,0,0,0,0,0,0,0,0,0,0,0,0,0,0,0,0,0,0,0,0,0,0,0,0,0,0,0,0,0,0,0,0,0,0,0,0,0,0,0,0,0,0,7257,
7195,0,0,0,0,0,0,0,7043,0,0,0,0,0,0,0,0,0,0,0,0,0,0,0,0,0,0,0,0,0,0,0,0,0,0,0,0,0,0,0,0,0,0,0,0,0,0,0,0,0,0,0,0,0,0,0,0,0,0,0,0,0,0,0,0,0,0,0,0,0,0,0,0,0,0,0,0,0,0,7257,
7195,0,0,0,0,0,0,0,0,0,0,0,0,0,0,0,0,0,0,0,0,0,0,0,0,0,0,0,0,0,0,0,0,0,0,0,0,0,0,0,0,0,0,0,0,0,0,0,0,0,0,0,0,0,0,0,0,0,0,0,0,0,0,0,0,0,0,0,0,0,0,0,0,0,0,0,0,0,0,7257,
7195,0,0,0,0,0,0,0,0,0,0,0,0,0,0,0,0,0,0,0,0,0,0,0,0,0,0,0,0,0,0,0,0,0,0,0,0,0,0,0,0,0,0,0,0,0,0,0,0,0,0,0,0,0,0,0,0,0,0,0,0,0,0,0,0,0,0,0,0,0,0,0,0,0,0,0,0,0,0,7257,
7195,0,0,0,0,0,0,0,0,0,0,0,0,0,0,0,0,0,0,0,0,0,0,0,0,0,0,0,0,0,0,0,0,0,0,0,0,0,0,0,0,0,0,0,0,0,0,0,0,0,0,0,0,0,0,0,0,0,0,0,0,0,0,0,0,0,0,0,0,0,0,0,0,0,0,0,0,0,0,7257,
7195,0,0,0,0,0,0,0,0,0,7257,0,0,0,0,0,0,0,0,0,7257,0,0,0,0,0,0,0,0,0,0,0,0,0,0,0,0,0,0,0,0,0,0,0,0,0,0,0,0,0,0,0,0,0,0,0,0,0,0,0,0,0,0,0,0,0,0,0,0,0,0,0,0,0,0,0,0,0,0,7257,
7257,0,0,0,0,0,0,0,0,0,7257,0,0,0,0,0,0,0,0,0,7257,0,0,0,0,0,0,0,0,0,0,0,0,0,0,0,0,0,0,0,0,0,0,0,0,0,0,0,0,0,0,0,0,0,0,0,0,0,0,0,0,0,0,0,0,0,0,0,0,0,0,0,0,0,0,0,0,0,0,7257,
7257,0,0,0,0,0,0,0,0,0,7257,0,0,0,0,0,0,0,0,0,7257,0,0,0,0,0,0,0,0,0,0,0,0,0,0,0,0,0,0,0,0,0,0,0,0,0,0,0,0,0,0,0,0,0,0,0,0,0,0,0,0,0,0,0,0,0,0,0,0,0,0,0,0,0,0,0,0,0,0,7257,
7257,0,0,0,0,0,0,0,0,0,7257,0,0,0,0,0,0,0,0,0,7257,0,0,0,0,0,0,0,0,0,0,0,0,0,0,0,0,0,0,0,0,0,0,0,0,0,0,0,0,0,0,0,0,0,0,0,0,0,0,0,0,0,0,0,0,0,0,0,0,0,0,0,0,0,0,0,0,0,0,7257,
7257,0,0,0,0,0,0,0,0,0,7257,0,0,0,0,0,0,0,0,0,7257,0,0,0,0,0,0,0,0,0,0,0,0,0,0,0,0,0,0,0,0,0,0,0,0,0,0,0,0,0,0,0,0,0,0,0,0,0,0,0,0,0,0,0,0,0,0,0,7257,0,0,0,7257,0,0,0,0,0,0,7257,
7257,0,0,0,0,0,0,0,0,0,7257,0,0,0,0,0,0,0,0,0,7257,0,0,0,0,0,0,0,0,0,0,0,0,0,0,0,0,0,7259,1422,1423,1424,1425,1426,1422,1423,1424,1425,1426,1422,1423,1424,1425,1426,1422,1423,1424,1425,1426,1422,1423,7259,0,0,0,0,0,0,7257,0,0,0,7257,0,0,0,0,0,0,0,
7257,0,0,0,0,0,0,0,0,0,7257,0,0,0,0,0,0,0,0,0,7257,0,0,0,0,0,0,0,0,0,0,0,0,0,7266,7266,7266,7266,7257,0,0,0,0,0,0,0,0,0,0,0,0,0,0,0,0,0,0,0,0,0,0,7259,0,0,0,0,0,0,0,0,0,0,7257,0,0,0,0,0,0,0,
7257,0,0,0,0,0,0,0,0,0,7257,0,0,0,0,0,0,0,0,0,7257,0,0,0,0,0,0,0,0,0,0,0,0,0,0,0,0,0,7257,0,0,0,0,0,0,0,0,0,0,0,0,0,0,0,0,0,0,0,0,0,0,7259,0,0,0,0,0,0,0,0,0,0,7257,0,0,0,0,0,0,0,
7257,0,0,0,0,0,0,0,0,0,7257,0,0,0,0,0,0,0,0,0,7257,0,0,0,0,0,0,0,0,0,0,0,0,0,0,0,0,0,0,0,0,0,0,0,0,0,0,0,0,0,0,0,0,0,0,0,0,0,0,0,0,0,0,0,0,0,0,0,0,0,0,0,7257,0,0,0,0,0,0,0,
7257,0,0,0,0,0,0,0,0,0,0,0,0,0,0,0,0,0,0,0,0,0,0,0,0,0,0,0,0,0,0,0,0,0,0,0,0,0,7257,0,0,0,0,0,0,0,0,0,0,0,0,0,0,0,0,0,0,0,0,0,0,7259,0,0,0,0,0,0,0,0,0,0,7257,0,0,0,0,0,0,0,
0,0,0,0,0,0,0,0,0,0,0,0,0,0,0,0,0,0,0,0,0,0,0,0,0,0,0,7257,0,0,7266,7266,0,7266,7266,7266,7266,7257,7257,0,0,0,0,0,0,0,0,0,0,0,0,0,0,0,0,0,0,0,0,0,0,7259,0,0,0,0,0,0,0,0,0,0,0,0,0,0,0,0,0,0,
0,0,0,0,0,0,0,0,0,0,0,0,0,0,0,0,0,0,0,0,0,0,0,0,0,0,0,7257,0,0,0,0,0,0,0,0,0,7257,7259,0,0,0,0,0,0,0,0,0,0,0,0,0,0,0,0,0,0,0,0,0,0,7259,0,0,0,0,0,0,0,0,0,0,0,0,0,0,0,0,0,0,
0,0,0,0,0,0,0,0,0,0,0,0,0,0,0,0,0,0,0,0,0,0,0,0,0,0,0,7257,7266,7266,0,0,0,0,0,7266,7266,7257,7259,0,0,0,0,0,0,0,0,0,0,0,0,0,0,0,0,0,0,0,0,0,0,7259,0,0,0,0,0,0,0,0,0,0,0,0,0,0,0,0,0,0,
0,0,0,0,0,0,0,0,0,0,0,0,0,0,0,0,0,0,0,0,0,0,0,0,0,0,0,7257,0,0,0,0,0,0,0,0,0,7257,7259,0,0,0,0,0,0,0,0,0,0,0,0,0,0,0,0,0,0,0,0,0,0,7259,0,0,0,0,0,0,0,0,0,0,0,0,0,0,0,0,0,0,
0,0,0,0,0,0,0,0,0,0,0,0,0,0,0,0,0,0,0,0,0,0,0,0,0,0,0,7257,7266,7266,0,0,0,0,0,7266,7266,7257,7259,0,0,0,0,0,0,0,0,0,0,0,0,0,0,0,0,0,0,0,0,0,0,7259,0,0,0,0,0,0,0,0,0,0,0,0,0,0,0,0,0,0,
0,0,0,0,0,0,0,0,0,0,0,0,0,0,0,0,0,0,0,0,0,0,0,0,0,0,0,7257,0,0,0,0,0,0,0,0,0,7257,7259,0,0,0,0,0,0,0,0,0,0,0,0,0,0,0,0,0,0,0,0,0,0,7259,0,0,0,0,0,0,0,0,0,0,0,0,0,0,0,0,0,0,
0,0,0,0,0,0,0,0,0,0,0,0,0,0,0,0,0,0,0,0,0,0,0,0,0,0,0,7257,7266,7266,0,0,0,0,0,7266,7266,7257,7259,0,0,0,0,0,0,0,0,0,0,0,0,0,0,0,0,0,0,0,0,0,0,7259,0,0,0,0,0,0,0,0,0,0,0,0,0,0,0,0,0,0,
0,0,0,0,0,0,0,0,0,0,0,0,0,0,0,0,0,0,0,0,0,0,0,0,0,0,0,7257,0,0,0,0,0,0,0,0,0,7257,7259,0,0,0,0,0,0,0,0,0,0,0,0,0,0,0,0,0,0,0,0,0,0,7259,0,0,0,0,0,0,0,0,0,0,0,0,0,0,0,0,0,0,
0,0,0,0,0,0,0,0,0,0,0,0,0,0,0,0,0,0,0,0,0,0,0,0,0,0,0,7266,7266,7266,7266,7266,7266,7266,7266,7266,7266,7266,7259,0,0,0,0,0,0,0,0,0,0,0,0,0,0,0,0,0,0,0,0,0,0,7259,0,0,0,0,0,0,0,0,0,0,0,0,0,0,0,0,0,0,
0,0,0,0,0,0,0,0,0,0,0,0,0,0,0,0,0,0,0,0,0,0,0,0,0,0,0,0,0,0,0,0,0,0,0,0,0,0,7259,0,0,0,0,0,0,0,0,0,0,0,0,0,0,0,0,0,0,0,0,0,0,7259,0,0,0,0,0,0,0,0,0,0,0,0,0,0,0,0,0,0,
0,0,0,0,0,0,0,0,0,0,0,0,0,0,0,0,0,0,0,0,0,0,0,0,0,0,0,0,0,0,0,0,0,0,0,0,0,0,7259,1422,1422,1423,1424,1425,1426,1422,1423,1424,1425,1426,1422,1423,1424,1425,1426,1422,1423,1424,1425,1426,1422,7259,0,0,0,0,0,0,0,0,0,0,0,0,0,0,0,0,0,0
</data>
 </layer>
 <layer id="10" name="parede4" width="80" height="44">
  <data encoding="csv">
0,0,0,0,0,0,0,0,0,0,0,0,0,0,0,0,0,0,0,0,0,0,0,0,0,0,0,5639,5640,0,0,0,0,0,0,0,5639,5640,0,0,0,0,0,0,0,0,0,0,0,0,0,0,0,0,0,0,0,0,0,0,0,0,0,0,0,0,0,0,0,0,0,0,0,0,0,0,0,0,0,0,
0,0,0,0,0,0,0,0,0,0,0,0,0,0,0,0,0,0,0,0,0,0,0,0,0,0,0,0,0,0,0,0,0,0,0,0,0,0,0,0,0,0,0,0,0,0,0,0,0,0,0,0,0,0,0,0,0,0,0,0,0,0,0,0,0,0,0,0,0,0,0,0,0,0,0,0,0,0,0,0,
0,0,0,0,0,0,0,0,0,0,0,0,0,0,0,0,0,0,0,0,0,0,0,0,0,0,0,0,0,0,0,0,0,0,0,0,0,0,0,0,0,0,0,0,0,0,0,0,0,0,0,0,0,0,0,0,0,0,0,0,0,0,0,0,0,0,0,0,0,0,0,0,0,0,0,0,0,0,0,0,
0,0,0,0,0,0,0,0,0,0,0,0,0,0,0,0,0,0,0,0,0,0,0,0,0,0,0,0,0,0,0,0,0,0,0,0,0,0,0,0,0,0,0,0,0,0,0,0,0,0,0,0,0,0,0,0,0,0,0,0,0,0,0,0,0,0,0,0,0,0,0,0,0,0,0,0,0,0,0,0,
0,0,0,0,0,0,0,0,0,0,0,0,0,0,0,0,0,0,0,0,0,0,0,0,0,0,0,0,0,0,0,0,0,0,0,0,0,0,0,0,0,0,0,0,0,0,0,0,0,0,0,0,0,0,0,0,0,0,0,0,0,0,0,0,0,0,0,0,0,0,0,0,0,0,0,0,0,0,0,0,
0,0,0,0,0,0,0,0,0,0,0,0,0,0,0,0,0,0,0,0,0,0,0,0,0,0,0,0,0,0,0,0,0,0,0,0,0,0,0,0,0,0,0,0,0,0,0,0,0,0,0,0,0,0,0,0,0,0,0,0,0,0,0,0,0,0,0,0,0,0,0,0,0,0,0,0,0,0,0,0,
0,0,0,0,0,0,0,0,0,0,0,0,0,0,0,0,0,0,0,0,0,0,0,0,0,0,0,0,0,0,0,0,0,0,0,0,0,0,0,0,0,0,0,0,0,0,0,0,0,0,0,0,0,0,0,0,0,0,0,0,0,0,0,0,0,0,0,0,0,0,0,0,0,0,0,0,0,0,0,0,
0,0,0,0,0,0,0,0,0,0,0,0,0,0,0,0,0,0,0,0,0,0,0,0,0,0,0,0,0,0,0,0,0,0,0,0,0,0,0,0,0,0,0,0,0,0,0,0,0,0,0,0,0,0,0,0,0,0,0,0,0,0,0,0,0,0,0,0,0,0,0,0,0,0,0,0,0,0,0,0,
0,0,0,0,0,0,0,0,0,0,0,0,0,0,0,0,0,0,0,0,0,0,0,0,0,0,0,0,0,0,0,0,0,0,0,0,0,0,0,0,0,0,0,0,0,0,0,0,0,0,0,0,0,0,0,0,0,0,0,0,0,0,0,0,0,0,0,0,0,0,0,0,0,0,0,0,0,0,0,0,
0,0,0,0,0,0,0,0,0,0,0,0,0,0,0,0,0,0,0,0,0,0,0,0,0,0,0,0,0,0,0,0,0,0,0,0,0,0,0,0,0,0,0,0,0,0,0,0,0,0,0,0,0,0,0,0,0,0,0,0,0,0,0,0,0,0,0,0,0,0,0,0,0,5892,0,0,0,0,0,0,
0,0,0,0,7001,0,0,0,7064,0,0,0,0,0,7001,0,7257,0,7064,0,0,0,0,0,7001,0,7257,0,7064,0,0,0,0,0,0,0,0,0,0,0,0,0,0,0,0,0,0,0,0,0,0,0,0,0,0,0,0,0,0,0,0,0,0,0,0,0,0,0,0,0,0,0,0,0,0,0,0,0,0,0,
0,0,0,0,0,0,0,0,0,0,0,0,0,0,0,0,7257,0,0,0,0,0,0,0,0,0,7257,0,0,0,0,0,0,0,0,0,0,0,0,0,0,0,6905,0,0,0,0,0,0,0,6905,0,0,0,0,0,0,0,6905,0,0,0,0,0,0,0,0,0,0,0,0,0,0,0,0,0,0,0,0,0,
0,0,0,0,0,0,0,0,0,0,0,0,0,0,0,0,7257,0,0,0,0,0,0,0,0,0,7257,0,0,0,0,0,0,0,0,0,0,0,0,0,0,0,0,0,0,0,0,0,0,0,0,0,0,0,0,0,0,0,0,0,0,0,0,7001,0,0,0,0,0,0,0,0,0,0,0,0,0,7001,0,0,
0,0,0,0,0,0,0,0,0,0,0,0,0,0,0,0,7257,0,0,0,0,0,0,0,0,0,7257,0,0,0,0,0,0,0,0,0,0,0,0,0,0,0,0,0,0,0,0,0,0,0,0,0,0,0,0,0,0,0,0,0,0,0,0,0,0,0,0,0,7257,0,0,0,7259,0,0,0,0,0,0,0,
0,0,0,0,0,0,0,0,0,0,0,0,0,0,0,0,7257,7266,0,7266,0,0,0,0,0,0,7257,7266,0,7266,0,0,0,0,0,0,0,0,0,0,0,0,0,0,0,0,0,0,0,0,0,0,0,0,0,0,0,0,0,0,0,0,0,0,0,0,0,0,0,0,0,0,0,0,0,0,0,0,0,0,
0,0,0,0,0,0,0,0,0,0,0,0,0,0,0,0,0,0,0,0,0,0,0,0,0,0,0,0,0,0,0,0,0,0,0,0,0,0,0,0,0,0,0,0,0,0,0,0,0,0,0,0,0,0,0,0,0,0,0,0,0,0,0,0,0,0,0,0,7257,0,0,0,7259,0,0,0,0,0,0,0,
0,0,0,0,0,0,0,0,0,0,0,0,0,0,0,0,0,0,0,0,0,0,0,0,0,0,0,0,0,0,0,0,0,0,0,0,0,0,0,0,0,0,0,0,0,0,0,0,0,0,0,0,0,0,0,0,0,0,0,0,0,0,0,0,0,0,0,0,7257,0,0,0,7259,0,0,0,0,0,0,0,
0,0,0,0,0,0,0,0,0,0,0,0,0,0,0,0,0,0,0,0,0,0,0,0,0,0,0,0,0,0,0,0,0,0,0,0,0,0,0,0,0,0,0,0,0,0,0,0,0,0,0,0,0,0,0,0,0,0,0,0,0,0,0,0,0,0,0,0,0,0,0,0,0,0,0,0,0,0,0,0,
0,0,0,0,0,0,0,0,0,0,0,0,0,0,0,0,0,0,0,0,0,0,0,0,0,0,0,0,0,0,0,0,0,0,0,0,0,0,0,0,0,0,0,0,0,0,0,0,0,0,0,0,0,0,0,0,0,0,0,0,0,0,0,0,0,0,0,0,7257,0,0,0,7259,0,0,0,0,0,0,0,
0,0,0,0,0,0,0,0,0,0,0,0,0,0,0,0,0,0,0,0,0,0,0,0,0,0,0,0,0,0,0,0,0,0,0,0,0,0,0,0,0,0,0,0,0,0,0,0,0,0,0,0,0,0,0,0,0,0,0,0,0,0,0,0,0,0,0,0,0,0,0,0,0,0,0,0,0,0,0,0,
0,0,0,0,0,0,0,0,0,0,0,0,0,0,0,0,0,0,0,0,0,0,0,0,0,0,0,0,0,0,0,0,0,0,0,0,0,0,0,0,0,0,0,0,0,0,0,0,0,0,0,0,0,0,0,0,0,0,0,0,0,0,0,0,0,0,0,0,7257,0,0,0,7259,0,0,0,0,0,0,0,
0,0,0,0,0,0,0,0,0,0,0,0,0,0,0,0,0,0,0,0,0,0,0,0,0,0,0,0,0,0,0,0,0,0,0,0,0,0,0,0,0,0,0,0,0,0,0,0,0,0,0,0,0,0,0,0,0,0,0,0,0,0,0,0,0,0,0,0,7257,0,0,0,7259,0,0,0,0,0,0,0,
0,0,0,0,0,0,0,0,0,0,0,0,0,0,0,0,0,0,0,0,0,0,0,0,0,0,0,0,0,0,0,0,0,0,0,0,0,0,0,0,0,0,0,0,0,0,0,0,0,0,0,0,0,0,0,0,0,0,0,0,0,0,0,0,0,0,0,0,0,0,0,0,0,0,0,0,0,0,0,0,
0,0,0,0,0,0,0,0,0,0,0,0,0,0,0,0,0,0,0,0,0,0,0,0,0,0,0,0,0,0,0,0,0,0,0,0,0,0,0,0,0,0,0,0,0,0,0,0,0,0,0,0,0,0,0,0,0,0,0,0,0,0,0,0,0,0,0,0,7257,0,0,0,7259,0,0,0,0,0,0,0,
0,0,0,0,0,0,0,0,0,0,0,0,0,0,0,0,0,0,0,0,0,0,0,0,0,0,0,0,0,0,0,0,0,0,0,0,0,0,0,0,0,0,0,0,0,0,0,0,0,0,0,0,0,0,0,0,0,0,0,0,0,0,0,0,0,0,0,0,0,0,0,0,0,0,0,0,0,0,0,0,
0,0,0,0,0,0,0,0,0,0,0,0,0,0,0,0,0,0,0,0,0,0,0,0,0,0,0,0,0,0,0,0,0,0,0,0,0,0,0,0,0,0,0,0,0,0,0,0,0,0,0,0,0,0,0,0,0,0,0,0,0,0,0,0,0,0,0,0,7257,0,0,0,7259,0,0,0,0,0,0,0,
0,0,0,0,0,0,0,0,0,0,0,0,0,0,0,0,0,0,0,0,0,0,0,0,0,0,0,0,0,0,0,0,0,0,0,0,0,0,0,0,0,0,0,0,0,0,0,0,0,0,0,0,0,0,0,0,0,0,0,0,0,0,0,0,0,0,0,0,7257,0,0,0,7259,0,0,0,0,0,0,0,
0,0,0,0,0,0,0,0,0,0,0,0,0,0,0,0,0,0,0,0,0,0,0,0,0,0,0,0,0,0,0,0,0,0,0,0,0,0,0,0,0,0,0,0,0,0,0,0,0,0,0,0,0,0,0,0,0,0,0,0,0,0,0,0,0,0,0,0,0,0,0,0,0,0,0,0,0,7001,0,0,
0,0,0,0,0,0,7257,7266,0,7266,0,0,0,0,0,0,7257,7266,0,7266,0,0,0,0,0,0,7257,7266,0,7266,0,0,0,0,0,0,0,0,0,0,0,0,0,0,0,0,0,0,0,0,0,0,0,0,0,0,0,0,0,0,0,0,0,0,0,0,0,0,0,0,0,0,0,0,0,0,0,0,0,0,
0,0,0,0,0,0,7257,0,0,0,0,0,0,0,0,0,7257,0,0,0,0,0,0,0,0,0,7257,0,0,0,0,0,0,0,0,0,0,0,0,0,0,0,0,0,0,0,0,0,0,0,0,0,0,0,0,0,0,0,0,0,0,0,0,0,0,0,0,0,0,0,0,0,0,0,0,0,0,0,0,0,
0,0,0,0,0,0,7257,0,0,0,0,0,0,0,0,0,7257,0,0,0,0,0,0,0,0,0,7257,0,0,0,0,0,0,0,0,0,0,0,0,0,0,0,0,0,0,0,0,0,0,0,0,0,0,0,0,0,0,0,0,0,0,0,0,0,0,0,0,0,0,0,0,0,0,0,0,0,0,0,0,0,
0,0,0,0,0,0,7257,0,0,0,0,0,0,0,0,0,7257,0,0,0,0,0,0,0,0,0,7257,0,0,0,0,0,0,0,0,0,0,0,0,0,0,0,0,0,0,0,0,0,0,0,0,0,0,0,0,0,0,0,0,0,0,0,0,0,0,0,0,0,0,0,0,0,0,0,0,0,0,0,0,0,
0,0,0,0,0,7001,0,0,7064,0,0,0,0,0,0,7001,0,0,7064,0,0,0,0,0,0,7001,0,0,7064,0,0,0,0,0,0,0,0,0,0,0,0,0,0,0,0,0,0,0,0,0,0,0,0,0,0,0,0,0,0,0,0,0,0,0,0,0,0,0,0,0,0,0,0,0,0,0,0,0,0,0,
0,0,0,0,0,0,0,0,0,0,0,0,0,0,0,0,0,0,0,0,0,0,0,0,0,0,0,0,0,0,0,0,0,0,0,0,0,0,0,0,0,0,0,0,0,0,0,0,0,0,0,0,0,0,0,0,0,0,0,0,0,0,0,0,0,0,0,0,0,0,0,0,0,0,0,0,0,0,0,0,
0,0,0,0,0,0,0,0,0,0,0,0,0,0,0,0,0,0,0,0,0,0,0,0,0,0,0,0,6968,0,0,0,0,0,0,0,0,0,0,0,0,0,0,0,0,0,0,0,0,0,0,0,0,0,0,0,0,0,0,0,0,0,0,0,0,0,0,0,0,0,0,0,0,0,0,0,0,0,0,0,
0,0,0,0,0,0,0,0,0,0,0,0,0,0,0,0,0,0,0,0,0,0,0,0,0,0,0,0,0,0,0,0,0,0,0,0,0,0,0,0,0,0,0,0,0,0,0,0,0,0,0,0,0,0,0,0,0,0,0,0,0,0,0,0,0,0,0,0,0,0,0,0,0,0,0,0,0,0,0,0,
0,0,0,0,0,0,0,0,0,0,0,0,0,0,0,0,0,0,0,0,0,0,0,0,0,0,0,0,6968,0,0,0,0,0,0,0,0,0,0,0,0,0,0,0,0,0,0,0,0,0,0,0,0,0,0,0,0,0,0,0,0,0,0,0,0,0,0,0,0,0,0,0,0,0,0,0,0,0,0,0,
0,0,0,0,0,0,0,0,0,0,0,0,0,0,0,0,0,0,0,0,0,0,0,0,0,0,0,0,0,0,0,0,0,0,0,0,0,0,0,0,0,0,0,0,0,0,0,0,0,0,0,0,0,0,0,0,0,0,0,0,0,0,0,0,0,0,0,0,0,0,0,0,0,0,0,0,0,0,0,0,
0,0,0,0,0,0,0,0,0,0,0,0,0,0,0,0,0,0,0,0,0,0,0,0,0,0,0,0,6968,0,0,0,0,0,0,0,0,0,0,0,0,0,0,0,0,0,0,0,0,0,0,0,0,0,0,0,0,0,0,0,0,0,0,0,0,0,0,0,0,0,0,0,0,0,0,0,0,0,0,0,
0,0,0,0,0,0,0,0,0,0,0,0,0,0,0,0,0,0,0,0,0,0,0,0,0,0,0,0,0,0,0,0,0,0,0,0,0,0,0,0,0,0,0,0,0,0,0,0,0,0,0,0,0,0,0,0,0,0,0,0,0,0,0,0,0,0,0,0,0,0,0,0,0,0,0,0,0,0,0,0,
0,0,0,0,0,0,0,0,0,0,0,0,0,0,0,0,0,0,0,0,0,0,0,0,0,0,0,0,6968,0,0,0,0,0,0,0,0,0,0,0,0,0,0,0,0,0,0,0,0,0,0,0,0,0,0,0,0,0,0,0,0,0,0,0,0,0,0,0,0,0,0,0,0,0,0,0,0,0,0,0,
0,0,0,0,0,0,0,0,0,0,0,0,0,0,0,0,0,0,0,0,0,0,0,0,0,0,0,0,0,0,7064,0,0,0,7064,0,0,0,0,0,0,0,0,0,0,0,0,0,0,0,0,0,0,0,0,0,0,0,0,0,0,0,0,0,0,0,0,0,0,0,0,0,0,0,0,0,0,0,0,0,
0,0,0,0,0,0,0,0,0,0,0,0,0,0,0,0,0,0,0,0,0,0,0,0,0,0,0,0,0,0,0,0,0,0,0,0,0,0,0,0,0,0,0,0,0,0,0,0,0,0,0,0,0,0,0,0,0,0,0,0,0,0,0,0,0,0,0,0,0,0,0,0,0,0,0,0,0,0,0,0,
0,0,0,0,0,0,0,0,0,0,0,0,0,0,0,0,0,0,0,0,0,0,0,0,0,0,0,0,0,0,0,0,0,0,0,0,0,0,0,0,0,0,7030,0,0,0,0,7030,0,0,0,0,7030,0,0,0,0,7030,0,0,0,0,0,0,0,0,0,0,0,0,0,0,0,0,0,0,0,0,0,0
</data>
 </layer>
 <layer id="13" name="objetos1" width="80" height="44">
  <data encoding="csv">
0,0,0,0,0,0,0,0,0,0,0,0,0,0,0,0,0,0,0,0,0,0,0,0,0,0,0,0,0,8185,0,0,0,0,0,0,0,0,0,8157,8157,0,0,0,0,0,0,0,0,0,0,0,0,0,0,0,0,0,0,0,0,0,0,0,0,0,0,0,0,0,0,0,0,0,0,0,0,0,0,0,
0,0,0,0,0,0,0,0,0,0,0,0,0,0,0,0,0,0,0,0,0,0,0,8148,8148,8148,8148,0,0,0,0,0,0,0,0,0,0,0,0,8173,8173,0,0,0,0,0,0,0,0,0,0,0,0,0,0,0,0,0,0,0,0,0,0,0,0,0,0,0,0,0,0,0,0,0,0,0,0,0,0,0,
0,0,0,0,0,0,0,0,0,0,0,0,0,0,0,0,0,0,0,0,0,0,0,8164,8164,8164,8150,0,0,0,0,0,0,0,0,0,0,0,0,8267,8268,8198,0,0,0,0,0,0,0,0,0,0,0,0,0,0,0,0,0,0,0,0,0,0,0,0,0,0,0,0,0,0,0,0,0,0,0,0,0,0,
0,0,0,0,0,0,0,0,0,0,0,0,0,0,0,0,0,0,0,0,0,0,0,0,0,0,0,0,0,8171,8171,0,0,0,0,0,0,0,0,8283,8284,8214,0,0,0,0,0,0,0,0,0,0,0,0,0,0,0,0,0,0,0,0,0,0,0,0,0,0,0,0,0,0,0,0,0,0,0,0,0,0,
0,0,0,0,0,0,0,0,0,0,0,0,0,0,0,0,0,0,0,0,0,0,0,0,0,0,0,0,0,8171,8171,0,0,0,0,0,0,0,0,0,0,0,0,0,0,0,0,0,0,0,0,0,0,0,0,0,0,0,0,0,0,0,0,0,0,0,0,0,0,0,0,0,0,0,0,0,0,0,0,0,
0,0,0,0,0,0,0,0,0,0,0,0,0,0,0,0,0,0,0,0,0,0,0,0,0,0,0,0,0,8171,8171,0,0,0,0,0,0,0,0,0,0,0,0,0,0,0,0,0,0,0,0,0,0,0,0,0,0,0,0,0,0,0,0,0,0,5870,0,91,91,91,0,91,91,91,0,5965,0,0,0,0,
0,0,0,0,0,0,0,0,0,0,0,0,0,0,0,0,0,0,0,0,0,0,0,8148,8148,8148,8148,0,0,0,0,0,0,0,0,0,0,0,0,0,0,0,0,0,0,0,0,0,0,0,0,0,0,0,0,0,0,0,0,0,0,0,0,0,0,0,5878,108,107,108,0,108,107,108,0,5978,0,0,0,0,
0,0,0,0,0,0,0,0,0,0,0,0,0,0,0,0,0,0,0,0,0,0,0,0,8164,8164,8164,0,0,0,0,0,0,0,0,0,0,0,0,0,0,0,0,0,0,0,0,0,0,0,0,0,0,0,0,0,0,0,0,0,0,0,0,0,0,5951,5891,0,0,0,0,0,5841,5842,0,0,0,0,0,0,
0,0,0,0,0,0,0,0,0,0,0,0,0,0,0,0,0,0,0,0,0,0,0,0,0,0,0,0,0,0,0,0,0,0,0,0,0,0,0,0,0,0,0,0,0,0,0,0,0,0,0,0,0,0,0,0,0,0,0,0,0,0,0,0,0,5964,0,0,0,0,0,0,5854,5855,0,0,0,0,0,0,
0,0,0,0,0,0,0,0,0,0,0,0,0,0,0,0,0,0,0,0,0,0,0,0,0,0,0,0,0,0,0,0,0,0,0,0,0,0,0,0,0,0,0,0,0,0,0,0,0,0,0,0,0,0,0,0,0,0,0,0,0,0,0,0,0,0,0,0,0,0,0,0,0,0,0,0,0,0,0,0,
0,0,8148,8160,8137,0,0,0,8137,0,0,0,8148,8160,8137,0,0,0,8137,0,0,0,8148,8160,8137,8136,0,0,8137,0,0,0,0,0,0,0,0,0,0,0,0,0,0,0,0,0,0,0,0,0,0,0,0,0,0,0,0,0,0,0,0,0,0,0,0,0,0,0,0,0,0,0,0,0,0,0,0,0,0,0,
0,0,8164,0,0,0,0,0,0,0,0,0,8164,0,0,0,0,0,0,0,0,0,8164,0,0,0,0,0,0,0,0,0,0,0,0,0,0,0,0,0,0,0,0,0,0,0,0,0,0,0,0,0,0,0,0,0,0,0,0,0,0,0,0,0,0,0,0,0,0,0,0,0,0,0,0,0,0,0,0,0,
0,0,0,0,0,0,0,0,0,0,0,0,0,0,0,0,0,0,0,0,0,0,0,0,0,0,0,0,0,0,0,0,0,0,0,0,0,0,0,0,0,0,0,0,0,0,0,0,0,0,0,0,0,0,0,0,0,0,0,0,0,0,2147489531,0,0,0,0,0,0,0,0,0,0,0,0,0,0,0,5883,0,
0,0,0,0,0,0,0,0,0,0,0,0,0,0,0,0,0,0,0,0,0,0,0,0,0,0,0,0,0,0,0,0,0,0,0,0,0,0,0,0,0,0,0,0,0,0,0,0,0,0,0,0,0,0,0,0,0,0,0,0,0,0,2147489544,2147489493,0,0,0,0,0,0,0,0,0,0,0,0,0,5845,5896,0,
0,0,0,0,0,0,0,0,0,0,0,0,0,0,0,0,0,0,0,0,0,0,0,0,0,0,0,0,0,0,0,0,0,0,0,0,0,0,0,0,0,0,0,0,0,0,0,0,0,0,0,0,0,0,0,0,0,0,0,0,0,0,0,2147489506,0,0,0,0,0,0,0,0,0,0,0,0,0,5858,0,0,
0,0,0,0,0,0,0,0,0,0,0,0,0,0,0,0,0,0,0,0,0,0,0,0,0,0,0,0,0,0,0,0,0,0,0,0,0,0,0,0,0,0,0,0,0,0,0,0,0,0,0,0,0,0,0,0,0,0,0,0,0,0,0,0,0,0,0,0,0,0,0,0,0,0,0,0,0,0,0,0,
0,0,0,0,0,0,0,0,0,0,0,0,0,0,0,0,0,0,0,0,0,0,0,0,0,0,0,0,0,0,0,0,0,0,0,0,0,0,0,0,0,0,0,0,0,0,0,0,0,0,0,0,0,0,0,0,0,0,0,0,0,0,0,0,0,0,0,0,0,0,0,0,0,0,0,0,0,0,0,0,
0,0,0,8125,0,0,0,0,0,0,0,0,0,8125,0,0,0,0,0,0,0,0,0,8125,0,0,0,0,0,0,0,0,0,0,0,0,0,90,0,0,0,0,0,0,0,0,0,0,0,0,0,0,0,0,0,0,0,0,8185,0,0,0,2147489531,0,0,0,0,0,0,0,0,0,0,0,0,0,0,0,5883,0,
0,0,0,8141,0,0,0,0,0,0,0,0,0,8141,0,0,0,0,0,0,0,0,0,8141,0,0,0,0,0,0,0,0,0,0,0,0,0,106,0,0,0,0,0,0,0,0,0,0,0,0,0,0,0,0,0,0,0,0,0,0,0,0,2147489544,2147489493,0,0,0,0,0,0,0,0,0,0,0,0,0,5845,5896,0,
0,0,0,0,0,0,0,0,0,81,90,0,0,0,124,0,0,0,0,81,90,0,0,0,0,0,0,0,0,81,0,0,0,0,0,0,0,0,0,0,0,0,0,0,0,0,0,0,0,0,0,0,0,0,0,0,0,0,0,0,0,0,0,2147489506,0,0,0,0,0,0,0,0,0,0,0,0,0,5858,0,0,
0,0,0,0,0,0,0,0,0,0,106,0,0,0,0,0,0,0,0,0,106,0,0,0,0,0,0,0,0,0,0,0,0,0,0,0,0,0,0,0,0,0,0,0,0,0,0,0,0,0,0,0,0,0,0,0,0,0,0,0,0,0,0,0,0,0,0,0,0,0,0,0,0,0,0,0,0,0,0,0,
0,0,0,0,0,0,0,0,0,0,0,0,0,0,0,0,0,0,0,0,0,0,0,0,0,0,0,0,0,0,0,0,0,0,0,0,0,0,0,0,0,0,0,0,0,0,0,0,0,0,0,0,0,0,0,0,0,0,0,0,0,0,0,0,0,0,0,0,0,0,0,0,0,0,0,0,0,0,0,0,
0,0,0,0,0,0,0,0,0,0,0,0,0,0,0,0,0,0,0,0,0,0,0,0,0,0,0,0,0,0,0,0,0,0,0,0,0,0,0,0,0,0,0,0,0,0,0,0,0,0,0,0,0,0,0,0,0,0,0,0,0,0,2147489531,0,0,0,0,0,0,0,0,0,0,0,0,0,0,0,5883,0,
0,0,8148,8160,0,8136,0,0,0,0,0,0,8148,8160,0,0,0,0,0,0,0,0,8148,8160,0,0,0,0,0,0,0,0,0,0,0,0,0,0,0,0,0,0,0,0,0,0,0,0,0,0,0,0,0,0,0,0,0,0,0,0,0,0,2147489544,2147489493,0,0,0,0,0,0,0,0,0,0,0,0,0,5845,5896,0,
0,0,8164,0,0,0,0,0,0,0,0,0,8164,0,0,0,0,0,0,0,0,0,8164,0,0,0,0,0,0,0,0,0,0,0,0,0,0,0,0,0,0,0,0,0,0,0,0,0,0,0,0,0,0,0,0,0,0,0,0,0,0,0,0,2147489506,0,0,0,0,0,0,0,0,0,0,0,0,0,5858,0,0,
0,0,0,0,0,0,0,0,0,0,0,0,0,0,0,0,0,0,0,0,0,0,0,0,0,0,0,0,0,0,0,0,0,0,0,0,0,0,0,0,0,0,0,0,0,0,0,0,0,0,0,0,0,0,0,0,0,0,0,0,0,0,0,0,0,0,0,0,0,0,0,0,0,0,0,0,0,0,0,0,
0,0,0,0,0,0,0,0,0,0,0,0,0,0,0,0,0,0,0,0,0,0,0,0,0,0,0,0,0,0,0,0,0,0,0,0,0,0,0,0,0,0,0,0,0,0,0,0,0,0,0,0,0,0,0,0,0,0,0,0,0,0,0,0,0,0,0,0,0,0,0,0,0,0,0,0,0,0,0,0,
0,0,0,0,0,0,0,0,0,0,0,0,0,0,0,0,0,0,0,0,0,0,0,0,0,0,0,0,0,0,0,0,0,0,0,0,0,0,0,0,0,0,0,0,0,0,0,0,0,0,0,0,0,0,0,0,0,0,0,0,0,0,0,0,0,0,0,0,0,0,0,0,0,0,0,0,0,0,0,0,
0,0,0,0,0,0,0,0,0,0,0,0,0,0,0,0,0,0,0,0,0,0,0,0,0,0,0,0,0,0,0,0,0,0,0,0,0,0,0,0,0,0,0,0,0,0,0,0,0,0,0,0,0,0,8185,0,0,0,0,0,0,0,0,0,0,0,0,0,0,0,0,0,0,0,0,0,0,0,0,0,
0,0,0,0,0,0,0,0,0,0,0,0,0,0,0,0,0,0,0,0,0,0,0,0,0,0,0,0,0,0,0,0,0,0,90,0,0,0,0,0,0,0,0,0,0,0,0,0,0,0,0,0,0,0,0,0,0,0,0,0,0,0,0,0,0,8185,0,0,8151,0,0,0,0,0,0,0,0,0,0,0,
0,0,0,8125,0,0,0,0,0,0,0,0,0,8125,0,0,0,0,0,0,0,0,0,8125,0,0,0,0,0,0,0,0,0,0,106,0,0,0,0,0,0,0,0,0,0,0,0,0,0,0,0,0,0,0,0,0,0,0,0,0,0,0,0,0,0,0,0,0,8167,0,0,0,0,0,0,0,0,0,0,0,
0,0,0,8141,0,0,0,0,0,0,0,0,0,8141,0,0,0,0,0,0,0,0,0,8141,0,0,0,0,0,0,0,0,0,0,0,0,0,0,0,0,0,0,0,0,0,0,0,0,0,0,0,0,0,0,0,0,0,0,0,0,0,0,0,0,0,0,0,0,0,0,0,0,0,0,0,0,0,0,0,0,
0,0,0,0,0,0,0,0,0,0,0,0,0,0,0,0,0,0,0,0,0,0,0,0,0,0,0,0,0,0,0,0,0,0,0,0,0,0,0,0,0,0,0,0,0,0,0,0,0,0,0,0,0,0,0,0,0,0,0,0,0,0,0,0,0,0,0,0,0,0,0,0,0,0,0,0,0,0,0,0,
0,0,0,0,0,0,0,0,0,0,0,0,0,0,0,0,0,0,0,0,0,0,0,0,0,0,0,0,0,0,0,0,0,0,0,0,0,0,0,0,0,0,0,0,0,0,0,0,0,8294,8295,0,0,0,0,0,0,0,0,0,0,0,0,0,0,0,0,0,0,0,0,0,0,0,0,0,0,0,0,0,
0,0,0,0,0,0,0,0,0,0,0,0,0,0,0,0,0,0,0,0,0,0,0,0,0,0,0,0,0,0,0,0,0,0,0,0,0,0,0,0,0,0,0,0,0,0,0,0,0,8306,8307,0,0,0,0,0,0,0,0,0,0,0,0,0,0,0,0,0,0,0,0,0,0,0,0,0,0,0,0,0,
0,0,0,0,0,0,0,0,0,0,0,0,0,0,0,0,0,0,0,0,0,0,0,0,0,0,0,0,0,0,0,0,0,0,0,0,0,0,0,0,0,0,0,0,0,0,0,0,0,8318,8319,0,0,0,0,0,0,0,0,0,0,0,0,0,0,0,0,0,0,0,0,0,0,0,0,0,0,0,0,0,
0,0,0,0,0,0,0,0,0,0,0,0,0,0,0,0,0,0,0,0,0,0,0,0,0,0,0,0,0,0,0,0,0,0,0,0,0,0,0,0,0,0,0,0,0,0,0,0,0,8330,8331,0,0,0,0,0,0,0,0,0,0,0,0,0,0,0,0,0,0,0,0,0,0,0,0,0,0,0,0,0,
0,0,0,0,0,0,0,0,0,0,0,0,0,0,0,0,0,0,0,0,0,0,0,0,0,0,0,0,0,0,0,0,0,0,0,0,0,0,0,0,0,0,0,0,0,0,0,0,0,0,0,0,0,0,0,0,0,0,0,0,0,0,0,0,0,0,0,0,0,0,0,0,0,0,0,0,0,0,0,0,
0,0,0,0,0,0,0,0,0,0,0,0,0,0,0,0,0,0,0,0,0,0,0,0,0,0,0,0,0,0,0,0,0,0,0,0,0,0,0,0,0,0,0,0,0,0,0,0,0,0,0,0,0,0,0,0,0,0,0,0,0,0,0,0,0,0,0,0,0,0,0,0,0,0,0,0,0,0,0,0,
0,0,0,0,0,0,0,0,0,0,0,0,0,0,0,0,0,0,0,0,0,0,0,0,0,0,0,0,0,0,0,0,0,0,0,0,0,0,0,0,0,0,0,0,0,0,0,0,0,0,0,0,0,0,0,0,0,0,0,0,0,0,0,0,0,0,0,0,0,0,0,0,0,0,0,0,0,0,0,0,
0,0,0,0,0,0,0,0,0,0,0,0,0,0,0,0,0,0,0,0,0,0,0,0,0,0,0,0,0,0,0,0,0,0,0,0,0,0,0,0,0,0,0,0,0,0,0,0,0,0,0,0,0,0,0,0,0,0,0,0,6603,0,0,0,0,0,0,0,0,0,0,0,0,0,0,0,0,0,0,0,
0,0,0,0,0,0,0,0,0,0,0,0,0,0,0,0,0,0,0,0,0,0,0,0,0,0,0,0,0,0,0,0,0,0,0,0,0,0,0,6635,6635,0,0,0,0,0,0,0,0,0,0,0,0,0,0,0,0,0,0,0,6619,0,0,0,0,0,0,0,0,0,0,0,0,0,0,0,0,0,0,0,
0,0,0,0,0,0,0,0,0,0,0,0,0,0,0,0,0,0,0,0,0,0,0,0,0,0,0,0,0,0,0,0,0,0,0,0,0,0,0,6651,6651,0,0,0,0,0,0,0,0,0,0,0,0,0,0,0,0,0,0,0,0,0,0,0,0,0,0,0,0,0,0,0,0,0,0,0,0,0,0,0,
0,0,0,0,0,0,0,0,0,0,0,0,0,0,0,0,0,0,0,0,0,0,0,0,0,0,0,0,0,0,0,0,0,0,0,0,0,0,0,0,0,0,0,0,0,0,0,0,0,0,0,0,0,0,0,0,0,0,0,0,0,0,0,0,0,0,0,0,0,0,0,0,0,0,0,0,0,0,0,0
</data>
 </layer>
 <layer id="14" name="objetos2" width="80" height="44">
  <data encoding="csv">
0,0,0,0,0,0,0,0,0,0,0,0,0,0,0,0,0,0,0,0,0,0,0,0,0,0,0,0,0,0,0,0,0,0,75,0,0,0,0,8204,8205,0,0,0,0,0,0,0,0,0,0,0,0,0,0,0,0,0,0,0,0,0,0,0,0,0,0,0,0,0,0,0,0,0,0,0,0,0,0,0,
0,0,0,0,0,0,0,0,0,0,0,0,0,0,0,0,0,0,0,0,0,0,0,0,8144,8192,0,0,0,0,0,0,0,0,0,0,0,0,0,0,0,0,0,0,0,0,0,0,0,0,0,0,0,0,0,0,0,0,0,0,0,0,0,0,0,0,0,0,0,0,0,0,0,0,0,0,0,0,0,0,
0,0,0,0,0,0,0,0,0,0,0,0,0,0,0,0,0,0,0,0,0,0,0,0,0,0,0,0,0,0,0,0,0,0,0,0,0,0,0,0,0,0,0,0,0,0,0,0,0,0,0,0,0,0,0,0,0,0,0,0,0,0,0,0,0,0,0,0,0,0,0,0,0,0,0,0,0,0,0,0,
0,0,0,0,0,0,0,0,0,0,0,0,0,0,0,0,0,0,0,0,0,0,0,0,0,8170,8166,0,0,0,0,0,0,0,0,0,0,0,0,0,0,0,0,0,0,0,0,0,0,0,0,0,0,0,0,0,0,0,0,0,0,0,0,0,0,0,0,0,0,0,0,0,0,0,0,0,0,0,0,0,
0,0,0,0,0,0,0,0,0,0,0,0,0,0,0,0,0,0,0,0,0,0,0,0,0,0,8166,0,0,0,0,0,0,0,0,0,0,0,0,8122,8124,0,0,0,0,0,0,0,0,0,0,0,0,0,0,0,0,0,0,0,0,0,0,0,0,0,0,0,0,0,0,0,0,0,0,0,0,0,0,0,
0,0,0,0,0,0,0,0,0,0,0,0,0,0,0,0,0,0,0,0,0,0,0,0,0,0,8166,0,0,0,0,0,0,0,0,0,0,0,0,8138,8140,0,0,0,0,0,0,0,0,0,0,0,0,0,0,0,0,0,0,0,0,0,0,0,0,0,0,0,0,0,0,0,0,0,0,0,0,0,0,0,
0,0,0,0,0,0,0,0,0,0,0,0,0,0,0,0,0,0,0,0,0,0,0,0,0,0,8166,0,0,0,0,0,0,0,0,0,0,0,0,8154,8156,0,0,0,0,0,0,0,0,0,0,0,0,0,0,0,0,0,0,0,0,0,0,0,0,0,0,0,0,0,0,0,0,0,0,5935,0,0,0,0,
0,0,0,0,0,0,0,0,0,0,0,0,0,0,0,0,0,0,0,0,0,0,0,0,0,0,0,0,0,0,0,0,0,0,0,0,0,0,0,8267,8268,0,0,0,0,0,0,0,0,0,0,0,0,0,0,0,0,0,0,0,0,0,0,0,0,0,0,0,0,0,0,0,0,0,0,0,0,0,0,0,
0,0,0,0,0,0,0,0,0,0,0,0,0,0,0,0,0,0,0,0,0,0,0,0,0,0,0,0,0,0,0,0,0,0,0,0,0,0,0,8283,8284,0,0,0,0,0,0,0,0,0,0,0,0,0,0,0,0,0,0,0,0,0,0,0,0,0,0,0,0,0,0,0,0,0,0,0,0,0,0,0,
0,0,0,0,0,0,0,0,0,0,0,0,0,0,0,0,0,0,0,0,0,0,0,0,0,0,0,0,0,0,0,0,0,0,0,0,0,0,0,0,0,0,0,0,0,0,0,0,0,0,0,0,0,0,0,0,0,0,0,0,0,0,0,0,0,0,0,0,0,0,0,0,0,0,0,0,0,0,0,0,
0,0,8215,0,0,8199,0,8193,0,0,0,0,8215,0,0,0,0,8193,0,0,0,0,8215,0,0,0,0,8193,0,0,0,0,0,0,0,0,0,0,0,0,0,0,0,0,0,0,0,0,0,0,0,0,0,0,0,0,0,0,0,0,0,0,0,0,0,0,0,0,0,0,0,0,0,0,0,0,0,0,0,0,
0,0,0,0,0,0,0,8209,0,8226,0,0,0,0,0,0,0,8209,0,8225,0,0,0,0,0,0,0,8209,0,8226,0,0,0,0,0,0,0,0,0,0,0,0,0,0,0,0,0,0,0,0,0,0,0,0,0,0,0,0,0,0,0,0,0,0,0,0,0,0,0,0,0,0,0,0,0,0,0,0,0,0,
0,0,0,0,0,0,0,0,0,8242,0,0,0,0,0,0,0,0,0,8241,0,0,0,0,0,0,0,0,0,8242,0,0,0,0,0,0,0,0,0,0,0,0,0,0,0,0,0,0,0,0,0,0,0,0,0,0,0,0,0,0,0,0,0,0,0,0,5866,0,0,0,0,0,0,0,5866,0,0,0,0,0,
0,0,0,0,0,0,0,8223,8172,0,0,0,0,0,0,0,0,8224,8172,0,0,0,0,0,0,0,0,8224,8172,0,0,0,0,0,0,0,0,0,0,0,0,0,0,0,0,0,0,0,0,0,0,0,0,0,0,0,0,0,0,0,0,0,0,2684360440,0,0,0,0,0,0,0,0,0,0,0,0,0,536876792,0,0,
0,0,0,0,0,0,0,0,0,0,0,0,0,0,0,0,0,0,0,0,0,0,0,0,0,0,0,0,0,0,0,0,0,0,0,0,0,0,0,0,0,0,0,0,0,0,0,0,0,0,0,0,0,0,0,0,0,0,0,0,0,0,0,0,0,0,2147489523,2147489522,0,0,0,0,0,5874,5875,0,0,0,0,0,
0,8165,0,0,0,0,0,0,0,0,0,8165,0,0,0,0,0,0,0,0,0,8165,0,0,0,0,0,0,0,0,0,0,0,0,0,0,0,0,0,0,0,0,0,0,0,0,0,0,0,0,0,0,0,0,0,0,0,0,0,0,0,0,0,0,0,0,2147489536,2147489535,0,0,0,0,0,5887,5888,0,0,0,0,0,
0,8181,0,0,0,0,0,0,0,0,0,8181,0,0,0,0,0,0,0,0,0,8181,0,0,0,0,0,0,0,0,0,0,0,0,0,0,0,0,0,0,0,0,0,0,0,0,0,0,0,0,0,0,0,0,0,0,0,0,0,0,0,0,0,0,0,0,5915,5916,0,0,0,0,0,5915,5916,0,0,0,0,0,
0,0,0,8201,0,0,0,0,0,0,0,0,0,0,0,0,0,0,0,0,0,0,0,8200,0,0,0,0,0,0,0,0,0,0,0,0,0,0,0,0,0,0,0,0,0,0,0,0,0,0,0,0,0,0,0,0,0,0,0,0,0,0,0,0,0,0,5866,0,0,0,0,0,0,0,5866,0,0,0,0,0,
0,0,0,0,0,0,0,0,0,0,0,0,0,0,0,0,0,0,0,0,0,0,0,0,0,0,0,0,0,0,0,0,0,0,0,0,0,0,0,0,0,0,0,0,0,0,0,0,0,0,0,0,0,0,0,0,0,0,0,0,0,0,0,2684360440,0,0,0,0,0,0,0,0,0,0,0,0,0,0,0,0,
0,0,0,0,0,0,0,0,0,0,0,0,0,0,0,0,0,0,0,0,0,0,0,0,0,0,0,0,0,0,0,0,0,0,0,0,0,0,0,0,0,0,0,0,0,0,0,0,0,0,0,0,0,0,0,0,0,0,0,0,0,0,0,0,0,0,2147489523,2147489522,0,0,0,0,0,5874,5875,0,0,0,0,0,
0,0,0,0,0,0,0,0,0,0,0,0,0,0,0,0,0,0,0,0,0,0,0,0,0,0,0,0,0,0,0,0,0,0,0,0,0,0,0,0,0,0,0,0,0,0,0,0,0,0,0,0,0,0,0,0,0,0,0,0,0,0,0,0,0,0,2147489536,2147489535,0,0,0,0,0,5887,5888,0,0,0,0,0,
0,0,0,0,0,0,0,0,0,0,0,0,0,0,0,0,0,0,0,0,0,0,0,0,0,0,0,0,0,0,0,0,0,0,0,0,0,0,0,0,0,0,0,0,0,0,0,0,0,0,0,0,0,0,0,0,0,0,0,0,0,0,0,0,0,0,5915,5916,0,0,0,0,0,5915,5916,0,0,0,0,0,
0,0,0,0,0,0,0,0,0,0,0,0,0,0,0,0,0,0,0,0,0,0,0,0,0,0,0,0,0,0,0,0,0,0,0,0,0,0,0,0,0,0,0,0,0,0,0,0,0,0,0,0,0,0,0,0,0,0,0,0,0,0,0,0,0,0,5866,0,0,0,0,0,0,0,5866,0,0,0,0,0,
0,0,8215,0,0,0,0,0,0,0,0,0,8215,0,0,0,0,0,0,0,0,0,8215,0,0,0,0,0,0,0,0,0,0,0,0,0,0,0,0,0,0,0,0,0,0,0,0,0,0,0,0,0,0,0,0,0,0,0,0,0,0,0,0,2684360440,0,0,0,0,0,0,0,0,0,0,0,0,0,536876792,0,0,
0,0,0,0,0,0,0,0,0,0,0,0,0,0,0,0,0,0,0,0,0,0,0,0,0,0,0,0,0,0,0,0,0,0,0,0,0,0,0,0,0,0,0,0,0,0,0,0,0,0,0,0,0,0,0,0,0,0,0,0,0,0,0,0,0,0,2147489523,2147489522,0,0,0,0,0,5874,5875,0,0,0,0,0,
0,0,0,0,0,0,0,0,0,0,0,0,0,0,0,0,0,0,0,0,0,0,0,0,0,0,0,0,0,0,0,0,0,0,0,0,0,0,0,0,0,0,0,0,0,0,0,0,0,0,0,0,0,0,0,0,0,0,0,0,0,0,0,0,0,0,2147489536,2147489535,0,0,0,0,0,5887,5888,0,0,0,0,0,
0,0,0,0,0,0,0,0,0,0,0,0,0,0,0,0,0,0,0,0,0,0,0,0,0,0,0,0,0,0,0,0,0,0,0,0,0,0,0,0,0,0,0,0,0,0,0,0,0,0,0,0,0,0,0,0,0,0,0,0,0,0,0,0,0,0,5915,5916,0,0,0,0,0,5915,5916,0,0,0,0,0,
0,0,0,0,0,0,0,0,0,0,0,0,0,0,0,0,0,0,0,0,0,0,0,0,0,0,0,0,0,0,0,0,0,0,0,0,0,0,0,0,0,0,0,0,0,0,0,0,0,0,0,0,0,0,0,0,0,0,0,0,0,0,0,0,0,0,0,0,0,0,0,0,0,0,0,0,0,0,0,0,
0,8165,0,0,0,0,0,8193,0,0,0,8165,0,0,0,0,0,8193,0,0,0,8165,0,0,0,0,0,8193,0,0,0,0,0,0,0,0,0,0,0,0,0,0,0,0,0,0,0,0,0,0,0,0,0,0,0,0,0,0,0,0,0,0,0,0,0,0,0,0,0,0,0,0,0,0,0,0,0,0,0,0,
0,8181,0,0,0,0,0,8209,8172,8225,0,8181,0,0,0,0,0,8209,8172,8225,0,8181,0,0,0,0,0,8209,8172,8226,0,0,0,0,0,0,0,0,0,6537,0,0,0,0,0,0,0,0,0,0,0,0,0,6535,0,0,0,6535,0,0,0,0,0,0,0,0,0,0,0,0,0,0,0,0,0,0,0,0,0,0,
0,0,0,0,0,0,0,0,0,8241,0,0,0,8200,0,0,0,0,0,8241,0,0,0,8201,0,0,0,0,0,8242,0,0,0,0,0,0,0,0,0,0,0,0,6537,6407,0,0,6537,0,0,6537,0,0,0,6409,0,0,0,6407,0,0,6535,0,0,0,0,0,0,0,0,0,0,0,0,0,0,0,0,0,0,0,
0,0,0,0,0,0,0,8224,0,0,0,0,0,0,0,0,0,8224,0,0,0,0,0,0,0,0,0,8223,0,0,0,0,0,0,0,0,0,0,0,0,0,0,0,0,0,0,6407,0,0,0,0,0,0,0,0,0,0,0,0,0,0,0,0,0,0,0,0,0,0,0,0,0,0,0,0,0,0,0,0,0,
0,0,0,0,0,0,0,0,0,0,0,0,0,0,0,0,0,0,0,0,0,0,0,0,0,0,0,0,0,0,0,0,0,0,0,0,0,0,0,6815,0,0,0,0,0,0,0,0,6502,0,6537,0,0,0,0,0,0,0,0,0,0,0,0,0,0,0,0,0,0,0,0,0,0,0,0,0,0,0,0,0,
0,0,0,0,0,0,0,0,0,0,0,0,0,0,0,0,0,0,0,0,0,0,0,0,0,0,0,0,0,0,0,0,0,0,0,0,0,0,0,0,6537,0,6502,0,0,0,0,6628,0,0,0,0,6628,0,0,0,0,0,0,0,0,0,0,0,0,0,0,0,0,0,0,0,0,0,0,0,0,0,0,0,
0,0,0,0,0,0,0,0,0,0,0,0,0,0,0,0,0,0,0,0,0,0,0,0,0,0,0,0,0,0,0,0,0,0,0,0,0,0,0,0,6537,6409,0,0,6535,6536,0,6644,0,6815,0,6535,6644,6502,0,0,0,0,0,0,0,0,0,0,0,0,0,0,0,0,0,0,0,0,0,0,0,0,0,0,
0,0,0,0,0,0,0,0,0,0,0,0,0,0,0,0,0,0,0,0,0,0,0,0,0,0,0,0,0,0,0,0,0,0,0,0,0,0,0,0,0,0,6409,0,0,0,0,0,0,0,0,0,0,0,6535,0,0,0,0,0,0,0,0,0,0,0,0,0,0,0,0,0,0,0,0,0,0,0,0,0,
0,0,0,0,0,0,0,0,0,0,0,0,0,0,0,0,0,0,0,0,0,0,0,0,0,0,0,0,0,0,0,0,0,0,0,0,0,0,0,6535,6536,6536,0,0,0,0,0,6628,0,0,0,0,6628,0,0,0,0,0,0,0,0,0,0,0,0,0,0,0,0,0,0,0,0,0,0,0,0,0,0,0,
0,0,0,0,0,0,0,0,0,0,0,0,0,0,0,0,0,0,0,0,0,0,0,0,0,0,0,0,0,0,0,0,0,0,0,0,0,0,0,0,0,0,0,6537,6537,0,0,6644,0,6575,6576,0,6644,6535,6536,0,0,0,0,0,6815,0,0,0,0,0,0,0,0,0,0,0,0,0,0,0,0,0,0,0,
0,0,0,0,0,0,0,0,0,0,0,0,0,0,0,0,0,0,0,0,0,0,0,0,0,0,0,0,0,0,0,0,0,0,0,0,0,0,0,6626,0,0,0,0,0,0,0,0,0,6591,6592,0,0,0,0,0,6407,0,0,6537,6578,0,0,0,0,0,0,0,0,0,0,0,0,0,0,0,0,0,0,0,
0,0,0,0,0,0,0,0,0,0,0,0,0,0,0,0,0,0,0,0,0,0,0,0,0,0,0,0,0,0,0,0,0,0,0,0,0,0,0,6642,0,0,0,0,0,6502,0,0,6502,0,0,0,0,0,6409,0,0,0,6502,0,6594,0,0,0,0,0,0,0,0,0,0,0,0,0,0,0,0,0,0,0,
0,0,0,0,0,0,0,0,0,0,0,0,0,0,0,0,0,0,0,0,0,0,0,0,0,0,0,0,0,0,0,0,0,0,0,0,0,0,0,0,6502,0,0,0,0,0,0,0,0,0,0,0,0,0,6409,0,0,0,0,0,0,0,0,0,0,0,0,0,0,0,0,0,0,0,0,0,0,0,0,0,
0,0,0,0,0,0,0,0,0,0,0,0,0,0,0,0,0,0,0,0,0,0,0,0,0,0,0,0,0,0,0,0,0,0,0,0,0,0,0,0,0,6407,0,6502,0,6535,6536,0,0,6537,0,0,0,0,0,0,0,0,6603,6571,6571,0,0,0,0,0,0,0,0,0,0,0,0,0,0,0,0,0,0,0,
0,0,0,0,0,0,0,0,0,0,0,0,0,0,0,0,0,0,0,0,0,0,0,0,0,0,0,0,0,0,0,0,0,0,0,0,0,0,0,0,0,0,0,0,0,0,0,0,0,0,0,0,0,0,6535,0,0,0,6619,6587,6587,0,0,0,0,0,0,0,0,0,0,0,0,0,0,0,0,0,0,0,
0,0,0,0,0,0,0,0,0,0,0,0,0,0,0,0,0,0,0,0,0,0,0,0,0,0,0,0,0,0,0,0,0,0,0,0,0,0,0,0,0,0,0,0,0,0,0,0,0,0,0,0,0,0,0,0,0,0,0,0,0,0,0,0,0,0,0,0,0,0,0,0,0,0,0,0,0,0,0,0
</data>
 </layer>
 <layer id="15" name="objetos3" width="80" height="44">
  <data encoding="csv">
0,0,0,0,0,0,0,0,0,0,0,0,0,0,0,0,0,0,0,0,0,0,0,0,0,0,0,0,0,0,0,0,0,0,0,0,0,0,0,0,0,0,0,0,0,0,0,0,0,0,0,0,0,0,0,0,0,0,0,0,0,0,0,0,0,0,0,0,0,0,0,0,0,0,0,0,0,0,0,0,
0,0,0,0,0,0,0,0,0,0,0,0,0,0,0,0,0,0,0,0,0,0,0,0,0,0,0,0,0,0,0,0,0,0,0,0,0,0,0,0,0,0,0,0,0,0,0,0,0,0,0,0,0,0,0,0,0,0,0,0,0,0,0,0,0,0,0,0,0,0,0,0,0,0,0,0,0,0,0,0,
0,0,0,0,0,0,0,0,0,0,0,0,0,0,0,0,0,0,0,0,0,0,0,0,0,0,0,0,0,0,0,0,0,0,0,0,0,0,0,0,0,0,0,0,0,0,0,0,0,0,0,0,0,0,0,0,0,0,0,0,0,0,0,0,0,0,0,0,0,0,0,0,0,0,0,0,0,0,0,0,
0,0,0,0,0,0,0,0,0,0,0,0,0,0,0,0,0,0,0,0,0,0,0,0,0,0,0,0,0,0,0,0,0,0,0,0,0,0,0,0,0,0,0,0,0,0,0,0,0,0,0,0,0,0,0,0,0,0,0,0,0,0,0,0,0,0,0,0,0,0,0,0,0,0,0,0,0,0,0,0,
0,0,0,0,0,0,0,0,0,0,0,0,0,0,0,0,0,0,0,0,0,0,0,0,0,0,0,0,0,0,0,0,0,0,0,0,0,0,0,0,0,0,0,0,0,0,0,0,0,0,0,0,0,0,0,0,0,0,0,0,0,0,0,0,0,0,0,0,0,0,0,0,0,0,0,0,0,0,0,0,
0,0,0,0,0,0,0,0,0,0,0,0,0,0,0,0,0,0,0,0,0,0,0,0,0,0,0,0,0,0,0,0,0,0,0,0,0,0,0,0,0,0,0,0,0,0,0,0,0,0,0,0,0,0,0,0,0,0,0,0,0,0,0,0,0,0,0,0,0,0,0,0,0,0,0,0,0,0,0,0,
0,0,0,0,0,0,0,0,0,0,0,0,0,0,0,0,0,0,0,0,0,0,0,0,0,0,155,0,0,0,0,0,0,0,0,0,0,0,0,0,0,0,0,0,0,0,0,0,0,0,0,0,0,0,0,0,0,0,0,0,0,0,0,0,0,0,0,0,0,0,0,0,0,0,0,0,0,0,0,0,
0,0,0,0,0,0,0,0,0,0,0,0,0,0,0,0,0,0,0,0,0,0,0,0,0,0,0,0,0,0,0,0,0,0,0,0,0,0,0,0,0,0,0,0,0,0,0,0,0,0,0,0,0,0,0,0,0,0,0,0,0,0,0,0,0,0,0,0,0,0,0,0,0,5880,5966,0,0,0,0,0,
0,0,0,0,0,0,0,0,0,0,0,0,0,0,0,0,0,0,0,0,0,0,0,0,0,0,0,0,0,0,0,0,0,0,0,0,0,0,0,0,0,0,0,0,0,0,0,0,0,0,0,0,0,0,0,0,0,0,0,0,0,0,0,0,0,0,0,0,0,0,0,0,0,0,5979,0,0,0,0,0,
0,0,0,0,0,0,0,0,0,0,0,0,0,0,0,0,0,0,0,0,0,0,0,0,0,0,0,0,0,0,0,0,0,0,0,0,0,0,0,0,0,0,0,0,0,0,0,0,0,0,0,0,0,0,0,0,0,0,0,0,0,0,0,0,0,0,0,0,0,0,0,0,0,0,0,0,0,0,0,0,
0,0,0,0,0,0,0,0,0,0,0,0,0,0,0,0,0,0,0,0,0,0,0,0,0,0,0,0,0,0,0,0,0,0,0,0,0,0,0,0,0,0,0,0,0,0,0,0,0,0,0,0,0,0,0,0,0,0,0,0,0,0,0,0,0,0,0,0,0,0,0,0,0,0,0,0,0,0,0,0,
0,0,0,0,0,0,0,0,0,0,0,0,0,0,0,0,0,0,0,0,0,0,0,0,0,0,0,0,0,0,0,0,0,0,0,0,0,0,0,0,0,0,0,0,0,0,0,0,0,0,0,0,0,0,0,0,0,0,0,0,0,0,0,0,0,0,0,0,0,0,0,0,0,0,0,0,0,0,0,0,
0,0,0,0,0,0,0,0,0,0,0,0,0,0,0,0,0,0,0,0,0,0,0,0,0,0,0,0,0,0,0,0,0,0,0,0,0,0,0,0,0,0,0,0,0,0,0,0,0,0,0,0,0,0,0,0,0,0,0,0,0,0,0,0,0,0,0,0,0,0,0,0,0,0,0,5965,0,0,0,0,
0,0,0,0,0,0,0,0,0,0,0,0,0,0,0,0,0,0,0,0,0,0,0,0,0,0,0,0,0,0,0,0,0,0,0,0,0,0,0,0,0,0,0,0,0,0,0,0,0,0,0,0,0,0,0,0,0,0,0,0,0,0,0,0,0,0,0,0,0,0,0,0,0,0,0,5978,0,0,0,0,
0,0,0,0,0,0,0,0,0,0,0,0,0,0,0,0,0,0,0,0,0,0,0,0,0,0,0,0,0,0,0,0,0,0,0,0,0,0,0,0,0,0,0,0,0,0,0,0,0,0,0,0,0,0,0,0,0,0,0,0,0,0,0,0,0,0,0,5969,0,0,0,0,0,0,0,0,0,5967,0,0,
0,0,0,0,0,0,0,0,0,0,0,0,0,0,0,0,0,0,0,0,0,0,0,0,0,0,0,0,0,0,0,0,0,0,0,0,0,0,0,0,0,0,0,0,0,0,0,0,0,0,0,0,0,0,0,0,0,0,0,0,0,0,0,0,0,0,0,0,0,0,0,0,0,0,0,0,0,5980,0,0,
0,0,0,0,0,0,0,0,0,0,0,0,0,0,0,0,0,0,0,0,0,0,0,0,0,0,0,0,0,0,0,0,0,0,0,0,0,0,0,0,0,0,0,0,0,0,0,0,0,0,0,0,0,0,0,0,0,0,0,0,0,0,0,0,0,0,0,0,0,0,0,0,0,0,0,0,0,0,0,0,
0,0,0,0,0,0,0,0,0,0,0,0,0,0,0,0,0,0,0,0,0,0,0,0,0,0,0,0,0,0,0,0,0,0,0,0,0,0,0,0,0,0,0,0,0,0,0,0,0,0,0,0,0,0,0,0,0,0,0,0,0,0,0,0,0,5965,0,0,0,0,0,0,0,0,0,0,0,0,0,0,
0,0,0,0,0,0,0,0,0,0,0,0,0,0,0,0,0,0,0,0,0,0,0,0,0,0,0,0,0,0,0,0,0,0,0,0,0,0,0,0,0,0,0,0,0,0,0,0,0,0,0,0,0,0,0,0,0,0,0,0,0,0,0,0,0,5978,0,0,0,0,0,0,0,0,0,0,0,0,0,0,
0,0,0,0,0,0,0,0,0,0,0,0,0,0,0,0,0,0,0,0,0,0,0,0,0,0,0,0,0,0,0,0,0,0,0,0,0,0,0,0,0,0,0,0,0,0,0,0,0,0,0,0,0,0,0,0,0,0,0,0,0,0,0,5967,0,0,0,0,0,0,0,0,0,2147489617,0,0,0,0,0,0,
0,0,0,0,0,0,0,0,0,0,0,0,0,0,0,0,0,0,0,0,0,0,0,0,0,0,0,0,0,0,0,0,0,0,0,0,0,0,0,0,0,0,0,0,0,0,0,0,0,0,0,0,0,0,0,0,0,0,0,0,0,0,0,5980,0,0,0,0,0,0,0,0,0,0,0,0,0,0,0,0,
0,0,0,0,0,0,0,0,0,0,0,0,0,0,0,0,0,0,0,0,0,0,0,0,0,0,0,0,0,0,0,0,0,0,0,0,0,0,0,0,0,0,0,0,0,0,0,0,0,0,0,0,0,0,0,0,0,0,0,0,0,0,0,0,0,0,0,0,0,0,0,0,0,0,0,0,0,0,0,0,
0,0,0,0,0,0,0,0,0,0,0,0,0,0,0,0,0,0,0,0,0,0,0,0,0,0,0,0,0,0,0,0,0,0,0,0,0,0,0,0,0,0,0,0,0,0,0,0,0,0,0,0,0,0,0,0,0,0,0,0,0,0,0,0,0,0,0,0,0,0,0,0,0,0,0,5965,0,0,0,0,
0,0,0,0,0,0,0,0,0,0,0,0,0,0,0,0,0,0,0,0,0,0,0,0,0,0,0,0,0,0,0,0,0,0,0,0,0,0,0,0,0,0,0,0,0,0,0,0,0,0,0,0,0,0,0,0,0,0,0,0,0,0,0,0,0,0,0,0,0,0,0,0,0,0,0,5978,0,0,0,0,
0,0,0,0,0,0,0,0,0,0,0,0,0,0,0,0,0,0,0,0,0,0,0,0,0,0,0,0,0,0,0,0,0,0,0,0,0,0,0,0,0,0,0,0,0,0,0,0,0,0,0,0,0,0,0,0,0,0,0,0,0,0,0,0,0,0,0,0,0,0,0,0,0,5969,0,0,0,0,0,0,
0,0,0,0,0,0,0,0,0,0,0,0,0,0,0,0,0,0,0,0,0,0,0,0,0,0,0,0,0,0,0,0,0,0,0,0,0,0,0,0,0,0,0,0,0,0,0,0,0,0,0,0,0,0,0,0,0,0,0,0,0,0,0,0,0,0,0,0,0,0,0,0,0,0,0,0,0,0,0,0,
0,0,0,0,0,0,0,0,0,0,0,0,0,0,0,0,0,0,0,0,0,0,0,0,0,0,0,0,0,0,0,0,0,0,0,0,0,0,0,0,0,0,0,0,0,0,0,0,0,0,0,0,0,0,0,0,0,0,0,0,0,0,0,0,0,0,0,0,0,0,0,0,0,0,0,0,0,0,0,0,
0,0,0,0,0,0,0,0,0,0,0,0,0,0,0,0,0,0,0,0,0,0,0,0,0,0,0,0,0,0,0,0,0,0,0,0,0,0,0,0,0,0,0,0,0,0,0,0,0,0,0,0,0,0,0,0,0,0,0,0,0,0,0,0,0,0,0,0,0,0,0,0,0,0,0,0,0,0,0,0,
0,0,0,0,0,0,0,0,0,0,0,0,0,0,0,0,0,0,0,0,0,0,0,0,0,0,0,0,0,0,0,0,0,0,0,0,0,0,0,0,0,0,0,0,0,0,0,0,0,0,0,0,0,6315,6316,6317,0,0,0,0,0,0,0,0,0,0,0,0,0,0,0,0,0,0,0,0,0,0,0,0,
0,0,0,0,0,0,0,0,0,0,0,0,0,0,0,0,0,0,0,0,0,0,0,0,0,0,0,0,0,0,0,0,0,0,0,0,0,0,0,0,0,0,0,0,0,0,0,0,0,0,0,0,0,6331,6332,6333,0,0,0,0,0,0,0,0,0,0,0,0,0,0,0,0,0,0,0,0,0,0,0,0,
0,0,0,0,0,0,0,0,0,0,0,0,0,0,0,0,0,0,0,0,0,0,0,0,0,0,0,0,0,0,0,0,0,0,0,0,0,0,0,0,0,0,0,0,0,0,0,0,0,0,0,0,0,6347,6348,6349,0,0,0,0,0,0,0,0,0,0,0,0,0,0,0,0,0,0,0,0,0,0,0,0,
0,0,0,0,0,0,0,0,0,0,0,0,0,0,0,0,0,0,0,0,0,0,0,0,0,0,0,0,0,0,0,0,0,0,0,0,0,0,0,0,0,0,0,0,0,0,0,0,0,0,0,0,0,6363,6364,6365,0,0,0,0,0,0,0,0,0,0,0,0,0,0,0,0,0,0,0,0,0,0,0,0,
0,0,0,0,0,0,0,0,0,0,0,0,0,0,0,0,0,0,0,0,0,0,0,0,0,0,0,0,0,0,0,0,0,0,0,0,0,0,0,0,0,0,0,0,0,0,0,0,0,0,0,0,0,6379,6380,6381,0,0,0,0,0,0,0,0,0,0,0,0,0,0,0,0,0,0,0,0,0,0,0,0,
0,0,0,0,0,0,0,0,0,0,0,0,0,0,0,0,0,0,0,0,0,0,0,0,0,0,0,0,0,0,0,0,0,0,0,0,0,0,0,0,0,0,0,0,0,0,0,0,0,0,0,0,0,0,0,0,0,0,0,0,0,0,0,0,0,0,0,0,0,0,0,0,0,0,0,0,0,0,0,0,
0,0,0,0,0,0,0,0,0,0,0,0,0,0,0,0,0,0,0,0,0,0,0,0,0,0,0,0,0,0,0,0,0,0,0,0,0,0,0,6310,6311,6312,6313,6314,0,0,0,0,0,0,0,0,0,0,0,0,0,0,0,0,0,0,0,0,0,0,0,0,0,0,0,0,0,0,0,0,0,0,0,0,
0,0,0,0,0,0,0,0,0,0,0,0,0,0,0,0,0,0,0,0,0,0,0,0,0,0,0,0,0,0,0,0,0,0,0,0,0,0,0,6326,6327,6328,6329,6330,0,0,0,0,0,0,0,0,0,0,0,0,0,0,0,0,0,0,0,0,0,0,0,0,0,0,0,0,0,0,0,0,0,0,0,0,
0,0,0,0,0,0,0,0,0,0,0,0,0,0,0,0,0,0,0,0,0,0,0,0,0,0,0,0,0,0,0,0,0,0,0,0,0,0,0,6342,6343,6344,6345,6346,0,0,0,0,0,0,0,0,0,0,0,0,0,0,0,0,0,0,0,0,0,0,0,0,0,0,0,0,0,0,0,0,0,0,0,0,
0,0,0,0,0,0,0,0,0,0,0,0,0,0,0,0,0,0,0,0,0,0,0,0,0,0,0,0,0,0,0,0,0,0,0,0,0,0,0,6358,6359,6360,6361,6362,0,0,0,0,0,0,0,0,6315,6316,6317,0,0,0,6409,0,0,0,0,0,0,0,0,0,0,0,0,0,0,0,0,0,0,0,0,0,
0,0,0,0,0,0,0,0,0,0,0,0,0,0,0,0,0,0,0,0,0,0,0,0,0,0,0,0,0,0,0,0,0,0,0,0,0,0,0,6374,6375,6376,6377,6378,6319,6320,6321,0,0,0,0,0,6331,6332,6333,0,0,0,0,0,0,0,0,0,0,0,0,0,0,0,0,0,0,0,0,0,0,0,0,0,
0,0,0,0,0,0,0,0,0,0,0,0,0,0,0,0,0,0,0,0,0,0,0,0,0,0,0,0,0,0,0,0,0,0,0,0,0,0,0,0,0,0,0,0,6335,6336,6337,0,0,0,0,0,6347,6348,6349,0,0,0,0,0,0,0,0,0,0,0,0,0,0,0,0,0,0,0,0,0,0,0,0,0,
0,0,0,0,0,0,0,0,0,0,0,0,0,0,0,0,0,0,0,0,0,0,0,0,0,0,0,0,0,0,0,0,0,0,0,0,0,0,0,0,0,0,0,0,6351,6352,6353,0,0,0,0,0,6363,6364,6365,0,0,0,0,0,0,0,0,0,0,0,0,0,0,0,0,0,0,0,0,0,0,0,0,0,
0,0,0,0,0,0,0,0,0,0,0,0,0,0,0,0,0,0,0,0,0,0,0,0,0,0,0,0,0,0,0,0,0,0,0,0,0,0,0,0,0,0,0,0,6367,6368,6369,0,0,6409,0,0,6379,6380,6381,0,0,0,0,0,0,0,0,0,0,0,0,0,0,0,0,0,0,0,0,0,0,0,0,0,
0,0,0,0,0,0,0,0,0,0,0,0,0,0,0,0,0,0,0,0,0,0,0,0,0,0,0,0,0,0,0,0,0,0,0,0,0,0,0,0,0,0,0,0,6383,6384,6385,0,0,0,0,0,0,0,0,0,0,0,0,0,0,0,0,0,0,0,0,0,0,0,0,0,0,0,0,0,0,0,0,0,
0,0,0,0,0,0,0,0,0,0,0,0,0,0,0,0,0,0,0,0,0,0,0,0,0,0,0,0,0,0,0,0,0,0,0,0,0,0,0,0,0,0,0,0,0,0,0,0,0,0,0,0,0,0,0,0,0,0,0,0,0,0,0,0,0,0,0,0,0,0,0,0,0,0,0,0,0,0,0,0
</data>
 </layer>
 <layer id="6" name="portas" width="80" height="44">
  <data encoding="csv">
0,0,0,0,0,0,0,0,0,0,0,0,0,0,0,0,0,0,0,0,0,0,0,0,0,0,0,0,0,0,0,0,7325,0,0,0,0,0,0,0,0,0,0,0,0,0,0,0,0,0,0,0,0,0,0,0,0,0,0,0,0,0,0,0,0,0,0,0,0,0,0,0,0,0,0,0,0,0,0,0,
0,0,0,0,0,0,0,0,0,0,0,0,0,0,0,0,0,0,0,0,0,0,0,0,0,0,0,0,0,0,0,0,0,0,0,0,0,0,0,0,0,0,0,0,0,0,0,0,0,0,0,0,0,0,0,0,0,0,0,0,0,0,0,0,0,0,0,0,0,0,0,0,0,0,0,0,0,0,0,0,
0,0,0,0,0,0,0,0,0,0,0,0,0,0,0,0,0,0,0,0,0,0,0,0,0,0,0,0,0,0,0,0,0,0,0,0,0,0,0,0,0,0,0,0,0,0,0,0,0,0,0,0,0,0,0,0,0,0,0,0,0,0,0,0,0,0,0,0,0,0,0,0,0,0,0,0,0,0,0,0,
0,0,0,0,0,0,0,0,0,0,0,0,0,0,0,0,0,0,0,0,0,0,0,0,0,0,0,0,0,0,0,0,0,0,0,0,0,0,0,0,0,0,0,0,0,0,0,0,0,0,0,0,0,0,0,0,0,0,0,0,0,0,0,0,0,0,0,0,0,0,0,0,0,0,0,0,0,0,0,0,
0,0,0,0,0,0,0,0,0,0,0,0,0,0,0,0,0,0,0,0,0,0,0,0,0,0,0,0,0,0,0,0,0,0,0,0,0,0,0,0,0,0,0,0,0,0,0,0,0,0,0,0,0,0,0,0,0,0,0,0,0,0,0,0,0,0,0,0,0,0,0,0,0,0,0,0,0,0,0,0,
0,0,0,0,0,0,0,0,0,0,0,0,0,0,0,0,0,0,0,0,0,0,0,0,0,0,0,0,0,0,0,0,0,0,0,0,0,0,0,0,0,0,0,0,0,0,0,0,0,0,0,0,0,0,0,0,0,0,0,0,0,0,0,0,0,0,0,0,0,0,0,0,0,0,0,0,0,0,0,0,
0,0,0,0,0,0,0,0,0,0,0,0,0,0,0,0,0,0,0,0,0,0,0,0,0,0,0,0,0,0,0,0,0,0,0,0,0,0,0,0,0,0,0,0,0,0,0,0,0,0,0,0,0,0,0,0,0,0,0,0,0,0,0,0,0,0,0,0,0,0,0,0,0,0,0,0,0,0,0,0,
0,0,0,0,0,0,0,0,0,0,0,0,0,0,0,0,0,0,0,0,0,0,0,0,0,0,0,0,0,0,0,0,0,0,0,0,0,0,0,0,0,0,0,0,0,0,0,0,0,0,0,0,0,0,0,0,0,0,0,0,0,0,0,0,0,0,0,0,0,0,0,0,0,0,0,0,0,0,0,0,
0,0,0,0,0,0,0,0,0,0,0,0,0,0,0,0,0,0,0,0,0,0,0,0,0,0,0,0,0,0,0,0,0,0,0,0,0,0,0,0,0,0,0,0,0,0,0,0,0,0,0,0,0,0,0,0,0,0,0,0,0,0,0,0,0,0,0,0,0,0,0,0,0,0,0,0,0,0,0,0,
0,0,0,0,0,0,0,0,0,0,0,0,0,0,0,0,0,0,0,0,0,0,0,0,0,0,0,0,0,0,0,0,7325,0,0,0,0,0,0,0,0,0,0,0,0,0,0,0,0,0,0,0,0,0,0,0,0,0,0,0,0,0,0,0,0,0,0,0,0,0,0,0,0,0,0,0,0,0,0,0,
0,0,0,0,0,0,0,0,0,0,0,0,0,0,0,0,0,0,0,0,0,0,0,0,0,0,0,0,0,0,0,0,0,0,0,0,0,0,0,0,0,0,0,0,0,0,0,0,0,0,0,0,0,0,0,0,0,0,0,0,0,0,0,0,0,0,0,0,0,0,0,0,0,0,0,0,0,0,0,0,
0,0,0,0,0,0,0,0,0,0,0,0,0,0,0,0,0,0,0,0,0,0,0,0,0,0,0,0,0,0,0,0,0,0,0,0,0,0,0,0,0,0,0,0,0,0,0,0,0,0,0,0,0,0,0,0,0,0,0,0,0,0,0,0,0,0,0,0,0,0,0,0,0,0,0,0,0,0,0,0,
0,0,0,0,0,0,0,0,0,0,0,0,0,0,0,0,0,0,0,0,0,0,0,0,0,0,0,0,0,0,0,0,0,0,0,0,0,0,0,0,0,0,0,0,0,0,0,0,0,0,0,0,0,0,0,0,0,0,0,0,0,0,0,0,0,0,0,0,0,0,7325,0,0,0,0,0,0,0,0,0,
0,0,0,0,0,0,0,0,0,0,0,0,0,0,0,0,0,0,0,0,0,0,0,0,0,0,0,0,0,0,0,0,0,0,0,0,0,0,0,0,0,0,0,0,0,0,0,0,0,0,0,0,0,0,0,0,0,0,0,0,0,0,0,0,0,0,0,0,0,0,0,0,0,0,0,0,0,0,0,0,
0,0,0,0,0,0,0,0,0,0,0,0,0,0,0,0,0,0,7325,0,0,0,0,0,0,0,0,0,7325,0,0,0,0,0,0,0,0,0,0,0,0,0,0,0,0,0,0,0,0,0,0,0,0,0,0,0,0,0,0,0,0,0,0,0,0,0,0,0,0,0,0,0,0,0,0,0,0,0,0,0,
0,0,0,0,0,0,0,0,0,0,0,0,0,0,0,0,0,0,0,0,0,0,0,0,0,0,0,0,0,0,0,0,0,0,0,0,0,0,0,0,0,0,0,0,0,0,0,0,0,0,0,0,0,0,0,0,0,0,0,0,0,0,0,0,0,0,0,0,0,0,0,0,0,0,0,0,0,0,0,0,
0,0,0,0,0,0,0,0,0,0,0,0,0,0,0,0,0,0,0,0,0,0,0,0,0,0,0,0,0,0,0,0,0,0,0,0,0,0,0,0,0,0,0,0,0,0,0,0,0,0,0,0,0,0,0,0,0,0,0,0,0,0,0,0,0,0,0,0,0,0,0,0,0,0,0,0,0,0,0,0,
0,0,0,0,0,0,0,0,0,0,0,0,0,0,0,0,0,0,0,0,0,0,0,0,0,0,0,0,0,0,0,0,0,0,0,0,0,0,0,0,0,0,0,0,0,0,0,0,0,0,0,0,0,0,0,0,7325,0,0,0,0,0,0,0,0,0,0,0,0,0,0,0,0,0,0,0,0,0,0,0,
0,0,0,0,0,0,0,0,0,0,0,0,0,0,0,0,0,0,0,0,0,0,0,0,0,0,0,0,0,0,0,0,0,0,0,0,0,0,0,0,0,0,0,0,0,0,0,0,0,0,0,0,0,0,0,0,0,0,0,0,0,0,0,0,0,0,0,0,0,0,0,0,0,0,0,0,0,0,0,0,
0,0,0,0,0,0,0,0,7325,0,0,0,0,0,0,0,0,0,7325,0,0,0,0,0,0,0,0,0,7325,0,0,0,0,0,0,0,0,0,0,0,0,0,0,0,0,0,0,0,0,0,0,0,0,0,0,0,0,0,0,0,0,0,0,0,0,0,0,0,0,0,0,0,0,0,0,0,0,0,0,0,
0,0,0,0,0,0,0,0,0,0,0,0,0,0,0,0,0,0,0,0,0,0,0,0,0,0,0,0,0,0,0,0,0,0,0,0,0,0,0,0,0,0,0,0,0,0,0,0,0,0,0,0,0,0,0,0,0,0,0,0,0,0,0,0,0,0,0,0,0,0,0,0,0,0,0,0,0,0,0,0,
0,0,0,0,0,0,0,0,0,0,0,0,0,0,0,0,0,0,0,0,0,0,0,0,0,0,0,0,0,0,0,0,0,0,0,0,0,0,0,0,0,0,0,0,0,0,0,0,0,0,0,0,0,0,0,0,7325,0,0,0,0,0,0,0,0,0,0,0,0,0,0,0,0,0,0,0,0,0,0,0,
0,0,0,0,0,0,0,0,0,0,0,0,0,0,0,0,0,0,0,0,0,0,0,0,0,0,0,0,0,0,0,0,0,0,0,0,0,0,0,0,0,0,0,0,0,0,0,0,0,0,0,0,0,0,0,0,0,0,0,0,0,0,0,0,0,0,0,0,0,0,0,0,0,0,0,0,0,0,0,0,
0,0,0,0,0,0,0,0,7325,0,0,0,0,0,0,0,0,0,7325,0,0,0,0,0,0,0,0,0,7325,0,0,0,0,0,0,0,0,0,0,0,0,0,0,0,0,0,0,0,0,0,0,0,0,0,0,0,0,0,0,0,0,0,0,0,0,0,0,0,0,0,0,0,0,0,0,0,0,0,0,0,
0,0,0,0,0,0,0,0,0,0,0,0,0,0,0,0,0,0,0,0,0,0,0,0,0,0,0,0,0,0,0,0,0,0,0,0,0,0,0,0,0,0,0,0,0,0,0,0,0,0,0,0,0,0,0,0,0,0,0,0,0,0,0,0,0,0,0,0,0,0,0,0,0,0,0,0,0,0,0,0,
0,0,0,0,0,0,0,0,0,0,0,0,0,0,0,0,0,0,0,0,0,0,0,0,0,0,0,0,0,0,0,0,0,0,0,0,0,0,0,0,0,0,0,0,0,0,0,0,0,0,0,0,0,0,0,0,0,0,0,0,0,0,0,0,0,0,0,0,0,0,0,0,0,0,0,0,0,0,0,0,
0,0,0,0,0,0,0,0,0,0,0,0,0,0,0,0,0,0,0,0,0,0,0,0,0,0,0,0,0,0,0,0,0,0,0,0,0,0,0,0,0,0,0,0,0,0,0,0,0,0,0,0,0,0,0,0,0,0,0,0,0,0,0,0,0,0,0,0,0,0,0,0,0,0,0,0,0,0,0,0,
0,0,0,0,0,0,0,0,0,0,0,0,0,0,0,0,0,0,0,0,0,0,0,0,0,0,0,0,0,0,0,0,0,0,0,0,0,0,0,0,0,0,0,0,0,0,0,0,0,0,0,0,0,0,0,0,0,0,0,0,0,0,0,0,0,0,0,0,0,0,0,0,0,0,0,0,0,0,0,0,
0,0,0,0,0,0,0,0,7325,0,0,0,0,0,0,0,0,0,7325,0,0,0,0,0,0,0,0,0,7325,0,0,0,0,0,0,0,0,0,0,0,0,0,0,0,0,0,0,0,0,0,0,0,0,0,0,0,0,0,0,0,0,0,0,0,0,0,0,0,0,0,0,0,0,0,0,0,0,0,0,0,
0,0,0,0,0,0,0,0,0,0,0,0,0,0,0,0,0,0,0,0,0,0,0,0,0,0,0,0,0,0,0,0,0,0,0,0,0,0,0,0,0,0,0,0,0,0,0,0,0,0,0,0,0,0,0,0,0,0,0,0,0,0,0,0,0,0,0,0,0,0,0,0,0,0,0,0,0,0,0,0,
0,0,0,0,0,0,0,0,0,0,0,0,0,0,0,0,0,0,0,0,0,0,0,0,0,0,0,0,0,0,0,0,0,0,0,0,0,0,0,0,0,0,0,0,0,0,0,0,0,0,0,0,0,0,0,0,0,0,0,0,0,0,0,0,0,0,0,0,0,0,0,0,0,0,0,0,0,0,0,0,
0,0,0,0,0,0,0,0,0,0,0,0,0,0,0,0,0,0,0,0,0,0,0,0,0,0,0,0,0,0,0,0,0,0,0,0,0,0,0,0,0,0,0,0,0,0,0,0,0,0,0,0,0,0,0,0,0,0,0,0,0,0,0,0,0,0,0,0,0,0,0,0,0,0,0,0,0,0,0,0,
0,0,0,0,0,0,0,0,0,0,0,0,0,0,0,0,0,0,0,0,0,0,0,0,0,0,0,0,0,0,0,0,0,0,0,0,0,0,0,0,0,0,0,0,0,0,0,0,0,0,0,0,0,0,0,0,0,0,0,0,0,0,0,0,0,0,0,0,0,0,0,0,0,0,0,0,0,0,0,0,
0,0,0,0,0,0,0,0,0,0,0,0,0,0,0,0,0,0,0,0,0,0,0,0,0,0,0,0,0,0,0,0,7325,0,0,0,0,0,0,0,0,0,0,0,0,0,0,0,0,0,0,0,0,0,0,0,0,0,0,0,0,0,0,0,0,0,0,0,0,0,0,0,0,0,0,0,0,0,0,0,
0,0,0,0,0,0,0,0,0,0,0,0,0,0,0,0,0,0,0,0,0,0,0,0,0,0,0,0,0,0,0,0,0,0,0,0,0,0,0,0,0,0,0,0,0,0,0,0,0,0,0,0,0,0,0,0,0,0,0,0,0,0,0,0,0,0,0,0,0,0,0,0,0,0,0,0,0,0,0,0,
0,0,0,0,0,0,0,0,0,0,0,0,0,0,0,0,0,0,0,0,0,0,0,0,0,0,0,0,0,0,0,0,0,0,0,0,0,0,0,0,0,0,0,0,0,0,0,0,0,0,0,0,0,0,0,0,0,0,0,0,0,0,0,0,0,0,0,0,0,0,0,0,0,0,0,0,0,0,0,0,
0,0,0,0,0,0,0,0,0,0,0,0,0,0,0,0,0,0,0,0,0,0,0,0,0,0,0,0,0,0,0,0,0,0,0,0,0,0,0,0,0,0,0,0,0,0,0,0,0,0,0,0,0,0,0,0,0,0,0,0,0,0,0,0,0,0,0,0,0,0,0,0,0,0,0,0,0,0,0,0,
0,0,0,0,0,0,0,0,0,0,0,0,0,0,0,0,0,0,0,0,0,0,0,0,0,0,0,0,0,0,0,0,0,0,0,0,0,0,0,0,0,0,0,0,0,0,0,0,0,0,0,0,0,0,0,0,0,0,0,0,0,0,0,0,0,0,0,0,0,0,0,0,0,0,0,0,0,0,0,0,
0,0,0,0,0,0,0,0,0,0,0,0,0,0,0,0,0,0,0,0,0,0,0,0,0,0,0,0,0,0,0,0,0,0,0,0,0,0,0,0,0,0,0,0,0,0,0,0,0,0,0,0,0,0,0,0,0,0,0,0,0,0,0,0,0,0,0,0,0,0,0,0,0,0,0,0,0,0,0,0,
0,0,0,0,0,0,0,0,0,0,0,0,0,0,0,0,0,0,0,0,0,0,0,0,0,0,0,0,0,0,0,0,0,0,0,0,0,0,0,0,0,0,0,0,0,0,0,0,0,0,0,0,0,0,0,0,0,0,0,0,0,0,0,0,0,0,0,0,0,0,0,0,0,0,0,0,0,0,0,0,
0,0,0,0,0,0,0,0,0,0,0,0,0,0,0,0,0,0,0,0,0,0,0,0,0,0,0,0,0,0,0,0,0,0,0,0,0,0,0,0,0,0,0,0,0,0,0,0,0,0,0,0,0,0,0,0,0,0,0,0,0,0,0,0,0,0,0,0,0,0,0,0,0,0,0,0,0,0,0,0,
0,0,0,0,0,0,0,0,0,0,0,0,0,0,0,0,0,0,0,0,0,0,0,0,0,0,0,0,0,0,0,0,0,0,0,0,0,0,0,0,0,0,0,0,0,0,0,0,0,0,0,0,0,0,0,0,0,0,0,0,0,0,0,0,0,0,0,0,0,0,0,0,0,0,0,0,0,0,0,0,
0,0,0,0,0,0,0,0,0,0,0,0,0,0,0,0,0,0,0,0,0,0,0,0,0,0,0,0,0,0,0,0,0,0,0,0,0,0,0,0,0,0,0,0,0,0,0,0,0,0,0,0,0,0,0,0,0,0,0,0,0,0,0,0,0,0,0,0,0,0,0,0,0,0,0,0,0,0,0,0,
0,0,0,0,0,0,0,0,0,0,0,0,0,0,0,0,0,0,0,0,0,0,0,0,0,0,0,0,0,0,0,0,0,0,0,0,0,0,0,0,0,0,0,0,0,0,0,0,0,0,0,0,0,0,0,0,0,0,0,0,0,0,0,0,0,0,0,0,0,0,0,0,0,0,0,0,0,0,0,0
</data>
 </layer>
 <layer id="5" name="batente-da-porta" width="80" height="44">
  <data encoding="csv">
0,0,0,0,0,0,0,0,0,0,0,0,0,0,0,0,0,0,0,0,0,0,0,0,0,0,0,0,0,0,0,0,6157,0,0,0,0,0,0,0,0,0,0,0,0,0,0,0,0,0,0,0,0,0,0,0,0,0,0,0,0,0,0,0,0,0,0,0,0,0,0,0,0,0,0,0,0,0,0,0,
0,0,0,0,0,0,0,0,0,0,0,0,0,0,0,0,0,0,0,0,0,0,0,0,0,0,0,0,0,0,0,0,0,0,0,0,0,0,0,0,0,0,0,0,0,0,0,0,0,0,0,0,0,0,0,0,0,0,0,0,0,0,0,0,0,0,0,0,0,0,0,0,0,0,0,0,0,0,0,0,
0,0,0,0,0,0,0,0,0,0,0,0,0,0,0,0,0,0,0,0,0,0,0,0,0,0,0,0,0,0,0,0,0,0,0,0,0,0,0,0,0,0,0,0,0,0,0,0,0,0,0,0,0,0,0,0,0,0,0,0,0,0,0,0,0,0,0,0,0,0,0,0,0,0,0,0,0,0,0,0,
0,0,0,0,0,0,0,0,0,0,0,0,0,0,0,0,0,0,0,0,0,0,0,0,0,0,0,0,0,0,0,0,0,0,0,0,0,0,0,0,0,0,0,0,0,0,0,0,0,0,0,0,0,0,0,0,0,0,0,0,0,0,0,0,0,0,0,0,0,0,0,0,0,0,0,0,0,0,0,0,
0,0,0,0,0,0,0,0,0,0,0,0,0,0,0,0,0,0,0,0,0,0,0,0,0,0,0,0,0,0,0,0,0,0,0,0,0,0,0,0,0,0,0,0,0,0,0,0,0,0,0,0,0,0,0,0,0,0,0,0,0,0,0,0,0,0,0,0,0,0,0,0,0,0,0,0,0,0,0,0,
0,0,0,0,0,0,0,0,0,0,0,0,0,0,0,0,0,0,0,0,0,0,0,0,0,0,0,0,0,0,0,0,0,0,0,0,0,0,0,0,0,0,0,0,0,0,0,0,0,0,0,0,0,0,0,0,0,0,0,0,0,0,0,0,0,0,6998,0,0,0,6998,0,0,0,6998,0,0,0,0,0,
0,0,0,0,0,0,0,0,0,0,0,0,0,0,0,0,0,0,0,0,0,0,0,0,0,0,0,0,0,0,0,0,0,0,0,0,0,0,0,0,0,0,0,0,0,0,0,0,0,0,0,0,0,0,0,0,0,0,0,0,0,0,0,0,0,0,0,0,0,0,0,0,0,0,0,0,0,0,0,0,
0,0,0,0,0,0,0,0,0,0,0,0,0,0,0,0,0,0,0,0,0,0,0,0,0,0,0,0,0,0,0,0,0,0,0,0,0,0,0,0,0,0,0,0,0,0,0,0,0,0,0,0,0,0,0,0,0,0,0,0,0,0,0,0,0,0,0,0,0,0,0,0,0,0,0,0,0,0,0,0,
0,0,0,0,0,0,0,0,0,0,0,0,0,0,0,0,0,0,0,0,0,0,0,0,0,0,0,0,0,0,0,0,0,0,0,0,0,0,0,0,0,0,0,0,0,0,0,0,0,0,0,0,0,0,0,0,0,0,0,0,0,0,0,0,0,0,0,0,0,0,0,0,0,0,0,0,0,0,0,0,
0,0,0,0,0,0,0,0,0,0,0,0,0,0,0,0,0,0,0,0,0,0,0,0,0,0,0,0,0,0,0,0,6157,0,0,0,0,0,0,0,0,0,0,0,0,0,0,0,0,0,0,0,0,0,0,0,0,0,0,0,0,0,0,0,0,0,0,0,0,0,0,0,0,0,0,0,0,0,0,0,
0,0,0,0,0,0,0,0,0,0,0,0,0,0,0,0,0,0,0,0,0,0,0,0,0,0,0,0,0,0,0,0,0,0,0,0,0,0,0,0,0,0,0,0,0,0,0,0,0,0,0,0,0,0,0,0,0,0,0,0,0,0,0,0,0,0,0,0,0,0,0,0,0,0,0,0,0,0,0,0,
0,0,0,0,0,0,0,0,0,0,0,0,0,0,0,0,0,0,0,0,0,0,0,0,0,0,0,0,0,0,0,0,0,0,0,0,0,0,0,0,0,0,0,0,0,0,0,0,0,0,0,0,0,0,0,0,0,0,0,0,0,0,0,0,0,0,0,0,0,0,0,0,0,0,0,0,0,0,0,0,
0,0,0,0,0,0,0,0,0,0,0,0,0,0,0,0,0,0,0,0,0,0,0,0,0,0,0,0,0,0,0,0,0,0,0,0,0,0,0,0,0,0,0,0,0,0,0,0,0,0,0,0,0,0,0,0,0,0,0,0,0,0,0,0,0,0,0,0,0,0,7938,0,0,0,0,0,0,0,0,0,
0,0,0,0,0,0,0,0,0,0,0,0,0,0,0,0,0,0,0,0,0,0,0,0,0,0,0,0,0,0,0,0,0,0,0,0,0,0,0,0,0,0,0,0,0,0,0,0,0,0,0,0,0,0,0,0,0,0,0,0,0,0,0,0,0,0,0,0,0,0,0,0,0,0,0,0,0,0,0,0,
0,0,0,0,0,0,0,0,6157,0,0,0,0,0,0,0,0,0,6121,0,0,0,0,0,0,0,0,0,6121,0,0,0,0,0,0,0,0,0,0,0,0,0,0,0,0,0,0,0,0,0,0,0,0,0,0,0,0,0,0,0,0,0,0,0,0,0,0,0,6066,0,0,0,6105,0,0,0,0,0,0,0,
0,0,0,0,0,0,0,0,0,0,0,0,0,0,0,0,0,0,0,0,0,0,0,0,0,0,0,0,0,0,0,0,0,0,0,0,0,0,0,0,0,0,0,0,0,0,0,0,0,0,0,0,0,0,0,0,0,0,0,0,0,0,0,0,0,0,0,0,0,0,0,0,0,0,0,0,0,0,0,0,
0,0,0,0,0,0,0,0,0,0,0,0,0,0,0,0,0,0,0,0,0,0,0,0,0,0,0,0,0,0,0,0,0,0,0,0,0,0,0,0,0,0,0,0,0,0,0,0,0,0,0,0,0,0,0,0,0,0,0,0,0,0,0,0,0,0,0,0,0,0,0,0,0,0,0,0,0,0,0,0,
0,0,0,0,0,0,0,0,0,0,0,0,0,0,0,0,0,0,0,0,0,0,0,0,0,0,0,0,0,0,0,0,0,0,0,0,0,0,0,0,0,0,0,0,0,0,0,0,0,0,0,0,0,0,0,0,7973,0,0,0,0,0,0,0,0,0,0,0,0,0,0,0,0,0,0,0,0,0,0,0,
0,0,0,0,0,0,0,0,0,0,0,0,0,0,0,0,0,0,0,0,0,0,0,0,0,0,0,0,0,0,0,0,0,0,0,0,0,0,0,0,0,0,0,0,0,0,0,0,0,0,0,0,0,0,0,0,0,0,0,0,0,0,0,0,0,0,0,0,0,0,0,0,0,0,0,0,0,0,0,0,
0,0,0,0,0,0,0,0,7973,0,0,0,0,0,0,0,0,0,7973,0,0,0,0,0,0,0,0,0,7973,0,0,0,0,0,0,0,0,0,0,0,0,0,0,0,0,0,0,0,0,0,0,0,0,0,0,0,0,0,0,0,0,0,0,0,0,0,0,0,6066,0,0,0,6105,0,0,0,0,0,0,0,
0,0,0,0,0,0,0,0,0,0,0,0,0,0,0,0,0,0,0,0,0,0,0,0,0,0,0,0,0,0,0,0,0,0,0,0,0,0,0,0,0,0,0,0,0,0,0,0,0,0,0,0,0,0,0,0,0,0,0,0,0,0,0,0,0,0,0,0,0,0,0,0,0,0,0,0,0,0,0,0,
0,0,0,0,0,0,0,0,0,0,0,0,0,0,0,0,0,0,0,0,0,0,0,0,0,0,0,0,0,0,0,0,0,0,0,0,0,0,0,0,0,0,0,0,0,0,0,0,0,0,0,0,0,0,0,0,7973,0,0,0,0,0,0,0,0,0,0,0,0,0,0,0,0,0,0,0,0,0,0,0,
0,0,0,0,0,0,0,0,0,0,0,0,0,0,0,0,0,0,0,0,0,0,0,0,0,0,0,0,0,0,0,0,0,0,0,0,0,0,0,0,0,0,0,0,0,0,0,0,0,0,0,0,0,0,0,0,0,0,0,0,0,0,0,0,0,0,0,0,0,0,0,0,0,0,0,0,0,0,0,0,
0,0,0,0,0,0,0,0,7973,0,0,0,0,0,0,0,0,0,7973,0,0,0,0,0,0,0,0,0,7973,0,0,0,0,0,0,0,0,0,0,0,0,0,0,0,0,0,0,0,0,0,0,0,0,0,0,0,0,0,0,0,0,0,0,0,0,0,0,0,0,0,0,0,0,0,0,0,0,0,0,0,
0,0,0,0,0,0,0,0,0,0,0,0,0,0,0,0,0,0,0,0,0,0,0,0,0,0,0,0,0,0,0,0,0,0,0,0,0,0,0,0,0,0,0,0,0,0,0,0,0,0,0,0,0,0,0,0,0,0,0,0,0,0,0,0,0,0,0,0,6066,0,0,0,6105,0,0,0,0,0,0,0,
0,0,0,0,0,0,0,0,0,0,0,0,0,0,0,0,0,0,0,0,0,0,0,0,0,0,0,0,0,0,0,0,0,0,0,0,0,0,0,0,0,0,0,0,0,0,0,0,0,0,0,0,0,0,0,0,0,0,0,0,0,0,0,0,0,0,0,0,0,0,0,0,0,0,0,0,0,0,0,0,
0,0,0,0,0,0,0,0,0,0,0,0,0,0,0,0,0,0,0,0,0,0,0,0,0,0,0,0,0,0,0,0,0,0,0,0,0,0,0,0,0,0,0,0,0,0,0,0,0,0,0,0,0,0,0,0,0,0,0,0,0,0,0,0,0,0,0,0,0,0,0,0,0,0,0,0,0,0,0,0,
0,0,0,0,0,0,0,0,0,0,0,0,0,0,0,0,0,0,0,0,0,0,0,0,0,0,0,0,0,0,0,0,0,0,0,0,0,0,0,0,0,0,0,0,0,0,0,0,0,0,0,0,0,0,0,0,0,0,0,0,0,0,0,0,0,0,0,0,0,0,0,0,0,0,0,0,0,0,0,0,
0,0,0,0,0,0,0,0,6121,0,0,0,0,0,0,0,0,0,6121,0,0,0,0,0,0,0,0,0,6121,0,0,0,0,0,0,0,0,0,0,0,0,0,0,0,0,0,0,0,0,0,0,0,0,0,0,0,0,0,0,0,0,0,0,0,0,0,0,0,0,0,0,0,0,0,0,0,0,0,0,0,
0,0,0,0,0,0,0,0,0,0,0,0,0,0,0,0,0,0,0,0,0,0,0,0,0,0,0,0,0,0,0,0,0,0,0,0,0,0,0,0,0,0,0,0,0,0,0,0,0,0,0,0,0,0,0,0,0,0,0,0,0,0,0,0,0,0,0,0,0,0,0,0,0,0,0,0,0,0,0,0,
0,0,0,0,0,0,0,0,0,0,0,0,0,0,0,0,0,0,0,0,0,0,0,0,0,0,0,0,0,0,0,0,0,0,0,0,0,0,0,0,0,0,0,0,0,0,0,0,0,0,0,0,0,0,0,0,0,0,0,0,0,0,0,0,0,0,0,0,0,0,0,0,0,0,0,0,0,0,0,0,
0,0,0,0,0,0,0,0,0,0,0,0,0,0,0,0,0,0,0,0,0,0,0,0,0,0,0,0,0,0,0,0,0,0,0,0,0,0,6102,0,0,0,0,0,0,0,0,0,0,0,0,0,0,0,0,0,0,0,0,0,0,7887,0,0,0,0,0,0,0,0,0,0,0,0,0,0,0,0,0,0,
0,0,0,0,0,0,0,0,0,0,0,0,0,0,0,0,0,0,0,0,0,0,0,0,0,0,0,0,0,0,0,0,0,0,0,0,0,0,0,0,0,0,0,0,0,0,0,0,0,0,0,0,0,0,0,0,0,0,0,0,0,0,0,0,0,0,0,0,0,0,0,0,0,0,0,0,0,0,0,0,
0,0,0,0,0,0,0,0,0,0,0,0,0,0,0,0,0,0,0,0,0,0,0,0,0,0,0,0,0,0,0,0,6122,0,0,0,0,0,0,0,0,0,0,0,0,0,0,0,0,0,0,0,0,0,0,0,0,0,0,0,0,0,0,0,0,0,0,0,0,0,0,0,0,0,0,0,0,0,0,0,
0,0,0,0,0,0,0,0,0,0,0,0,0,0,0,0,0,0,0,0,0,0,0,0,0,0,0,0,0,7918,0,0,0,0,0,7921,0,0,0,0,0,0,0,0,0,0,0,0,0,0,0,0,0,0,0,0,0,0,0,0,0,0,0,0,0,0,0,0,0,0,0,0,0,0,0,0,0,0,0,0,
0,0,0,0,0,0,0,0,0,0,0,0,0,0,0,0,0,0,0,0,0,0,0,0,0,0,0,0,0,0,0,0,0,0,0,0,0,0,0,0,0,0,0,0,0,0,0,0,0,0,0,0,0,0,0,0,0,0,0,0,0,0,0,0,0,0,0,0,0,0,0,0,0,0,0,0,0,0,0,0,
0,0,0,0,0,0,0,0,0,0,0,0,0,0,0,0,0,0,0,0,0,0,0,0,0,0,0,0,0,7918,0,0,0,0,0,7921,0,0,0,0,0,0,0,0,0,0,0,0,0,0,0,0,0,0,0,0,0,0,0,0,0,0,0,0,0,0,0,0,0,0,0,0,0,0,0,0,0,0,0,0,
0,0,0,0,0,0,0,0,0,0,0,0,0,0,0,0,0,0,0,0,0,0,0,0,0,0,0,0,0,0,0,0,0,0,0,0,0,0,0,0,0,0,0,0,0,0,0,0,0,0,0,0,0,0,0,0,0,0,0,0,0,0,0,0,0,0,0,0,0,0,0,0,0,0,0,0,0,0,0,0,
0,0,0,0,0,0,0,0,0,0,0,0,0,0,0,0,0,0,0,0,0,0,0,0,0,0,0,0,0,7918,0,0,0,0,0,7921,0,0,0,0,0,0,0,0,0,0,0,0,0,0,0,0,0,0,0,0,0,0,0,0,0,0,0,0,0,0,0,0,0,0,0,0,0,0,0,0,0,0,0,0,
0,0,0,0,0,0,0,0,0,0,0,0,0,0,0,0,0,0,0,0,0,0,0,0,0,0,0,0,0,0,0,0,0,0,0,0,0,0,0,0,0,0,0,0,0,0,0,0,0,0,0,0,0,0,0,0,0,0,0,0,0,0,0,0,0,0,0,0,0,0,0,0,0,0,0,0,0,0,0,0,
0,0,0,0,0,0,0,0,0,0,0,0,0,0,0,0,0,0,0,0,0,0,0,0,0,0,0,0,0,7918,0,0,0,0,0,7921,0,0,0,0,0,0,0,0,0,0,0,0,0,0,0,0,0,0,0,0,0,0,0,0,0,0,0,0,0,0,0,0,0,0,0,0,0,0,0,0,0,0,0,0,
0,0,0,0,0,0,0,0,0,0,0,0,0,0,0,0,0,0,0,0,0,0,0,0,0,0,0,0,0,0,0,0,0,0,0,0,0,0,0,0,0,0,0,0,0,0,0,0,0,0,0,0,0,0,0,0,0,0,0,0,0,0,0,0,0,0,0,0,0,0,0,0,0,0,0,0,0,0,0,0,
0,0,0,0,0,0,0,0,0,0,0,0,0,0,0,0,0,0,0,0,0,0,0,0,0,0,0,0,0,0,0,0,0,0,0,0,0,0,0,0,0,0,0,0,0,0,0,0,0,0,0,0,0,0,0,0,0,0,0,0,0,0,0,0,0,0,0,0,0,0,0,0,0,0,0,0,0,0,0,0,
0,0,0,0,0,0,0,0,0,0,0,0,0,0,0,0,0,0,0,0,0,0,0,0,0,0,0,0,0,0,0,0,0,0,0,0,0,0,0,0,0,0,0,0,0,0,0,0,0,0,0,0,0,0,0,0,0,0,0,0,0,0,0,0,0,0,0,0,0,0,0,0,0,0,0,0,0,0,0,0
</data>
 </layer>
 <objectgroup id="21" name="Colisoes" class="parede" visible="0" locked="1">
  <object id="4" type="parede" x="0.5" y="321.5" width="31.5" height="733.5"/>
  <object id="7" type="parede" x="4" y="322.667" width="982.667" height="28"/>
  <object id="10" type="parede" x="320.5" y="323" width="30.5" height="315.5"/>
  <object id="11" type="parede" x="959.5" y="289.5" width="32" height="351"/>
  <object id="15" type="parede" x="3" y="609" width="252.5" height="30"/>
  <object id="17" type="parede" x="289.455" y="609.636" width="62.7273" height="29.8182"/>
  <object id="23" type="parede" x="352" y="609" width="638.667" height="29.81"/>
  <object id="26" type="parede" x="212.25" y="321.75" width="11.5" height="157.75"/>
  <object id="27" type="parede" x="222.875" y="448.5" width="32.25" height="30.75"/>
  <object id="30" type="parede" x="288.875" y="449" width="62.375" height="29.875"/>
  <object id="34" type="parede" x="532.909" y="321.273" width="9.63636" height="157.636"/>
  <object id="35" type="parede" x="541.818" y="447.818" width="32.7273" height="31.8182"/>
  <object id="36" type="parede" x="609.818" y="448.727" width="30.5455" height="29.6364"/>
  <object id="37" type="parede" x="642.667" y="324" width="30" height="312.667"/>
  <object id="41" type="parede" x="0" y="735" width="992" height="33"/>
  <object id="42" type="parede" x="962" y="737" width="32" height="320"/>
  <object id="44" type="parede" x="3" y="1028" width="992" height="28"/>
  <object id="45" type="parede" x="852.667" y="897.333" width="11.3333" height="133.333"/>
  <object id="46" type="parede" x="863.455" y="896.727" width="32" height="30.3636"/>
  <object id="47" type="parede" x="929.091" y="896.364" width="63.0909" height="31.4545"/>
  <object id="48" type="parede" x="639.333" y="734" width="31.3333" height="321.333"/>
  <object id="49" type="parede" x="321.333" y="738.667" width="28.6667" height="317.333"/>
  <object id="56" type="parede" x="713.5" y="287.5" width="310" height="32.5"/>
  <object id="58" type="parede" x="1056.67" y="288" width="317.667" height="31.6667"/>
  <object id="59" type="parede" x="1344" y="1.5" width="31" height="318"/>
  <object id="60" type="parede" x="712" y="0.666667" width="662" height="31.3333"/>
  <object id="61" type="parede" x="712" y="1.33333" width="23.3333" height="316"/>
  <object id="63" type="parede" x="112.932" y="77.0008" width="0.148856" height="0.0279577" visible="0"/>
  <object id="64" type="parede" x="113.065" y="77" width="0.0170013" height="0.192304" visible="0"/>
  <object id="65" type="parede" x="112.936" y="77.181" width="0.130721" height="0.0113342" visible="0"/>
  <object id="67" type="parede" x="112.973" y="77.1821" width="0.108431" height="0.0102952" visible="0"/>
  <object id="68" type="parede" x="113.02" y="77.0487" width="0.0212517" height="0.0345694" visible="0"/>
  <object id="70" type="parede" x="113.167" y="77.0606" width="0.0147345" height="0.0140905" visible="0"/>
  <object id="72" type="parede" x="113.18" y="77.0513" width="0.00283355" height="0.0231321" visible="0"/>
  <object id="73" type="parede" x="113.216" y="77.0507" width="0.00340027" height="0.0244716" visible="0"/>
  <object id="74" type="parede" x="113.203" y="77.0621" width="0.0147345" height="0.012751" visible="0"/>
  <object id="75" type="parede" x="113.203" y="77.0989" width="0.0155846" height="0.0120812" visible="0"/>
  <object id="76" type="parede" x="113.215" y="77.0887" width="0.00453369" height="0.0116176" visible="0"/>
  <object id="77" type="parede" x="113.216" y="77.0861" width="0.00226684" height="0.00538375" visible="0"/>
  <object id="78" type="parede" x="113.179" y="77.085" width="0.00340027" height="0.0265839" visible="0"/>
  <object id="79" type="parede" x="113.167" y="77.0978" width="0.0116176" height="0.013395" visible="0"/>
  <object id="80" type="parede" x="113.166" y="77.1332" width="0.0172847" height="0.0142193" visible="0"/>
  <object id="81" type="parede" x="113.18" y="77.1227" width="0.00283355" height="0.0121843" visible="0"/>
  <object id="82" type="parede" x="113.215" y="77.1227" width="0.00396698" height="0.0238534" visible="0"/>
  <object id="83" type="parede" x="113.202" y="77.1337" width="0.0150178" height="0.0137814" visible="0"/>
  <object id="85" type="parede" x="113.52" y="77.1054" width="0.0671552" height="0.054971" visible="0"/>
  <object id="86" type="parede" x="113.519" y="77.2284" width="0.0697054" height="0.0362695" visible="0"/>
  <object id="87" type="parede" x="113.521" y="77.0479" width="0.0654551" height="0.0365529" visible="0"/>
  <object id="88" type="parede" x="113.604" y="77.0207" width="0.0076506" height="0.0393864" visible="0"/>
  <object id="89" type="parede" x="112.14" y="77.4828" width="0.0181347" height="0.0362695" visible="0"/>
  <object id="90" type="parede" x="112.216" y="77.5789" width="0.0280522" height="0.0121843" visible="0"/>
  <object id="93" type="parede" x="112.43" y="77.3383" width="0.0340027" height="0.0697054" visible="0"/>
  <object id="94" type="parede" x="112.357" y="77.4154" width="0.00821731" height="0.0170013" visible="0"/>
  <object id="95" type="parede" x="112.366" y="77.4225" width="0.0104842" height="0.0104842" visible="0"/>
  <object id="96" type="parede" x="1087.5" y="288.5" width="32" height="286"/>
  <object id="98" type="parede" x="1092" y="355" width="889" height="27"/>
  <object id="99" type="parede" x="1092" y="548" width="892" height="28"/>
  <object id="103" type="parede" x="1951" y="351" width="34" height="639"/>
  <object id="104" type="parede" x="1091" y="674" width="876" height="29"/>
  <object id="106" type="parede" x="1088" y="670.5" width="31" height="289.5"/>
  <object id="109" type="parede" x="1104" y="862" width="881" height="34"/>
  <object id="110" type="parede" x="1091.5" y="929.5" width="156" height="30"/>
  <object id="111" type="parede" x="1217" y="895" width="31" height="95.5"/>
  <object id="113" type="parede" x="1233.33" y="897.333" width="750.667" height="30.6667"/>
  <object id="115" type="parede" x="113.885" y="78.3148" width="0.0626473" height="0.00659445" visible="0"/>
  <object id="118" type="parede" x="113.886" y="78.3214" width="0.0622352" height="0.0206077" visible="0"/>
  <object id="119" type="parede" x="113.522" y="78.3315" width="0.0290439" height="0.0494455" visible="0"/>
  <object id="120" type="parede" x="113.518" y="78.4619" width="0.0354452" height="0.0356513" visible="0"/>
  <object id="121" type="parede" x="113.556" y="78.4623" width="0.032148" height="0.0358573" visible="0"/>
  <object id="125" type="parede" x="114.211" y="78.4627" width="0.0266354" height="0.0306024" visible="0"/>
  <object id="126" type="parede" x="114.244" y="78.457" width="0.0714056" height="0.0427867" visible="0"/>
  <object id="127" type="parede" x="114.283" y="78.4239" width="0.0286189" height="0.0240852" visible="0"/>
  <object id="129" type="parede" x="114.283" y="78.3332" width="0.0246519" height="0.0478871" visible="0"/>
  <object id="130" type="parede" x="114.281" y="78.2947" width="0.0331526" height="0.0124676" visible="0"/>
  <object id="131" type="parede" x="114.291" y="78.2898" width="0.0206849" height="0.00935073" visible="0"/>
  <object id="133" type="parede" x="1954" y="1024" width="30.5" height="385"/>
  <object id="134" type="parede" x="864" y="1057.5" width="354" height="30"/>
  <object id="135" type="parede" x="1183.5" y="1057.5" width="32.5" height="286"/>
  <object id="136" type="parede" x="866" y="1059" width="28.5" height="284"/>
  <object id="137" type="parede" x="864.5" y="1314" width="351.5" height="29"/>
  <object id="139" type="parede" x="1217.33" y="1024.67" width="28.6667" height="384"/>
  <object id="141" type="parede" x="1216.67" y="1376.67" width="747.333" height="32.6667"/>
  <object id="142" type="parede" x="1972.67" y="928.667" width="234.667" height="30.6667"/>
  <object id="143" type="parede" x="1954.67" y="1056" width="382" height="32"/>
  <object id="144" type="parede" x="2305" y="864.5" width="30.5" height="213.5"/>
  <object id="146" type="parede" x="2178" y="865.5" width="29.5" height="65"/>
  <object id="147" type="parede" x="1982" y="864.5" width="222" height="32"/>
  <object id="150" type="parede" x="2198.5" y="392" width="8" height="501.5"/>
  <object id="151" type="parede" x="1981" y="544" width="225.5" height="32"/>
  <object id="152" type="parede" x="1979.5" y="704" width="225" height="29.5"/>
  <object id="153" type="parede" x="1974" y="384.5" width="264" height="31"/>
  <object id="154" type="parede" x="2273" y="385" width="261.5" height="29.5"/>
  <object id="155" type="parede" x="2526.5" y="384.5" width="33.5" height="511"/>
  <object id="156" type="parede" x="2306" y="864.5" width="242" height="31"/>
  <object id="157" type="parede" x="2305" y="406" width="9.5" height="462"/>
  <object id="158" type="parede" x="2306" y="543.5" width="233" height="31"/>
  <object id="160" type="parede" x="2310.5" y="703.5" width="227" height="32"/>
  <object id="161" type="parede" x="2432.5" y="159" width="31" height="248"/>
  <object id="163" type="parede" x="2047" y="158" width="32.5" height="255.5"/>
  <object id="164" type="parede" x="2048.5" y="161.5" width="414" height="30.5"/>
  <object id="166" type="parede" x="114.497" y="77.2065" width="0.0173104" height="0.0127768" visible="0"/>
  <object id="167" type="parede" x="114.466" y="77.2553" width="0.0239049" height="0.0096856" visible="0"/>
  <object id="170" type="parede" x="114.463" y="77.2108" width="0.0340027" height="0.002679" visible="0"/>
  <object id="172" type="parede" x="114.467" y="77.2928" width="0.0199894" height="0.00226684" visible="0"/>
  <object id="174" type="parede" x="114.467" y="77.319" width="0.0201955" height="0.018753" visible="0"/>
  <object id="176" type="parede" x="114.468" y="77.3167" width="0.0220502" height="0.0061823" visible="0"/>
  <object id="180" type="parede" x="114.834" y="77.2926" width="0.0195773" height="0.00164861" visible="0"/>
  <object id="181" type="parede" x="114.832" y="77.3227" width="0.0253474" height="0.0144254" visible="0"/>
  <object id="182" type="parede" x="114.842" y="77.2273" width="0.0199894" height="0.0370938" visible="0"/>
  <object id="184" type="parede" x="114.831" y="77.1775" width="0.02196" height="0.0130344" visible="0"/>
  <object id="185" type="parede" x="114.833" y="77.1549" width="0.0170013" height="0.0277688" visible="0"/>
  <object id="186" type="parede" x="114.76" y="77.1974" width="0.0168596" height="0.0201182" visible="0"/>
  <object id="187" type="parede" x="114.721" y="77.2156" width="0.0609214" height="0.0463286" visible="0"/>
  <object id="188" type="parede" x="114.793" y="77.2261" width="0.0246519" height="0.0376863" visible="0"/>
  <object id="190" type="parede" x="114.751" y="77.271" width="0.017568" height="0.0296106" visible="0"/>
 </objectgroup>
 <objectgroup id="24" name="Portas" visible="0">
  <object id="192" name="portaQuartoMaria1" type="porta" x="256" y="609.667" width="33" height="4.33333">
   <properties>
    <property name="area" value="Corredor"/>
    <property name="destino" value="QuartoCorredor"/>
    <property name="destrancavel" type="bool" value="false"/>
    <property name="trancado" type="bool" value="false"/>
   </properties>
  </object>
  <object id="193" name="portaQuartoMaria2" type="porta" x="256" y="613.667" width="32.6667" height="25">
   <properties>
    <property name="area" value="Quarto"/>
    <property name="destino" value="QuartoMaria"/>
   </properties>
  </object>
  <object id="196" name="portaRecepcao1" type="porta" x="1023" y="289" width="34" height="5.33333">
   <properties>
    <property name="area" value="Corredor"/>
    <property name="destino" value="CorredorRecepcao"/>
   </properties>
  </object>
  <object id="198" name="portaRecepcao2" type="porta" x="1024.67" y="294.667" width="32.6667" height="24.3333">
   <properties>
    <property name="area" value="Recepcao"/>
    <property name="destino" value="Recepcao"/>
   </properties>
  </object>
  <object id="206" name="portaCorredorJardim2" type="porta" x="1242.25" y="991.25" width="5.25" height="34">
   <properties>
    <property name="area" value="Corredor"/>
    <property name="destino" value="CorredorJardim"/>
   </properties>
  </object>
  <object id="208" name="portaEscritorioJardim" type="porta" x="1952.25" y="989.5" width="5.25" height="36">
   <properties>
    <property name="area" value="Corredor"/>
    <property name="destino" value="CorredorEscritorios"/>
   </properties>
  </object>
  <object id="209" name="portaElimar1" type="porta" x="2237.75" y="384.375" width="35.125" height="5.75">
   <properties>
    <property name="area" value="Corredor"/>
    <property name="destino" value="CorredorEscritorios0"/>
   </properties>
  </object>
  <object id="211" name="portaElimar2" type="porta" x="2237.5" y="390.5" width="36.375" height="25.625">
   <properties>
    <property name="area" value="Escritorio"/>
    <property name="destino" value="EscritorioElimar"/>
    <property name="destrancavel" type="bool" value="false"/>
    <property name="trancado" type="bool" value="false"/>
   </properties>
  </object>
  <object id="243" name="portaBanheiroMaria1" type="porta" x="255.667" y="448.333" width="33.6667" height="5">
   <properties>
    <property name="area" value="Quarto"/>
    <property name="destino" value="QuartoMaria2"/>
   </properties>
  </object>
  <object id="244" name="portaBanheiroMaria2" type="porta" x="255.333" y="454.667" width="35" height="24.6667">
   <properties>
    <property name="area" value="Banheiro"/>
    <property name="destino" value="BanheiroMaria"/>
   </properties>
  </object>
  <object id="521" name="portaCorredorJardim" type="porta" x="1232.88" y="991.5" width="4" height="33.5">
   <properties>
    <property name="area" value="Jardim"/>
    <property name="destino" value="Jardim"/>
   </properties>
  </object>
  <object id="522" name="portaEscritorioJardim2" type="porta" x="1970.64" y="991.364" width="5.81818" height="32.9091">
   <properties>
    <property name="area" value="Jardim"/>
    <property name="destino" value="Jardim2"/>
   </properties>
  </object>
  <object id="562" name="portaEscritorio1" type="porta" x="2202.5" y="447" width="4.875" height="33.25">
   <properties>
    <property name="area" value="Escritorio"/>
    <property name="destino" value="Escritorio1"/>
   </properties>
  </object>
  <object id="563" name="portaEscritorio1-2" type="porta" x="2194.44" y="445.625" width="5.125" height="35.5">
   <properties>
    <property name="area" value="Corredor"/>
    <property name="destino" value="CorredorEscritorios1"/>
   </properties>
  </object>
  <object id="564" name="portaEscritorio2" type="porta" x="2303.63" y="447.75" width="6" height="32.25">
   <properties>
    <property name="area" value="Escritorio"/>
    <property name="destino" value="Escritorio2"/>
   </properties>
  </object>
  <object id="565" name="portaEscritorio2-2" type="porta" x="2312.94" y="445.625" width="5.125" height="35.5">
   <properties>
    <property name="area" value="Corredor"/>
    <property name="destino" value="CorredorEscritorios2"/>
   </properties>
  </object>
  <object id="568" name="portaEscritorio4" type="porta" x="2304" y="608" width="6.375" height="32.5">
   <properties>
    <property name="area" value="Escritorio"/>
    <property name="destino" value="Escritorio4"/>
   </properties>
  </object>
  <object id="569" name="portaEscritorio4-2" type="porta" x="2312.26" y="608.25" width="6.125" height="32">
   <properties>
    <property name="area" value="Corredor"/>
    <property name="destino" value="CorredorEscritorios4"/>
   </properties>
  </object>
  <object id="570" name="portaEscritorio6" type="porta" x="2304" y="768" width="5.875" height="32.25">
   <properties>
    <property name="area" value="Escritorio"/>
    <property name="condicao" value=""/>
    <property name="destino" value="Escritorio6"/>
   </properties>
  </object>
  <object id="571" name="portaEscritorio6-2" type="porta" x="2312.02" y="768.5" width="6.5" height="31">
   <properties>
    <property name="area" value="Corredor"/>
    <property name="destino" value="CorredorEscritorios6"/>
   </properties>
  </object>
  <object id="572" name="portaEscritorio5" type="porta" x="2202.75" y="768" width="5.25" height="31.875">
   <properties>
    <property name="area" value="Escritorio"/>
    <property name="destino" value="Escritorio5"/>
   </properties>
  </object>
  <object id="573" name="portaEscritorio5-2" type="porta" x="2193.75" y="767.938" width="6.125" height="31">
   <properties>
    <property name="area" value="Corredor"/>
    <property name="destino" value="CorredorEscritorios5"/>
   </properties>
  </object>
  <object id="574" name="portaEscritorios3" type="porta" x="2202.13" y="608" width="5.875" height="31.875">
   <properties>
    <property name="area" value="Escritorio"/>
    <property name="destino" value="Escritorioo3"/>
   </properties>
  </object>
  <object id="575" name="portaEscritorio3-2" type="porta" x="2193.63" y="608" width="6.25" height="32.25">
   <properties>
    <property name="area" value="Corredor"/>
    <property name="destino" value="CorredorEscritorios3"/>
   </properties>
  </object>
 </objectgroup>
 <objectgroup id="25" name="Objetos" visible="0">
  <object id="213" type="objeto" x="730.333" y="54.3333" width="134" height="23.6667"/>
  <object id="214" type="objeto" x="848" y="55" width="16" height="168.667"/>
  <object id="216" type="objeto" x="733" y="214" width="131" height="9.66667"/>
  <object id="217" type="objeto" x="938.5" y="108.5" width="13.75" height="12.25"/>
  <object id="218" type="objeto" x="950" y="98.3636" width="2.18182" height="10.9091"/>
  <object id="219" type="objeto" x="981.75" y="98.75" width="2.75" height="11.125"/>
  <object id="220" type="objeto" x="970.75" y="108.125" width="13.75" height="11.5"/>
  <object id="221" type="objeto" x="969.875" y="140.125" width="14.875" height="12.5"/>
  <object id="222" type="objeto" x="981.375" y="130.5" width="3.5" height="10.75"/>
  <object id="223" type="objeto" x="949.625" y="130.375" width="3.125" height="10.125"/>
  <object id="225" type="objeto" x="937.957" y="140" width="14.9565" height="12.0435"/>
  <object id="226" type="objeto" x="948.957" y="162.043" width="4.04348" height="13.9565"/>
  <object id="227" type="objeto" x="938.304" y="172.304" width="14.7826" height="10.7391"/>
  <object id="228" type="objeto" x="980.87" y="161.783" width="4.30435" height="14.3913"/>
  <object id="229" type="objeto" x="970.043" y="172.087" width="14.7826" height="12.2609"/>
  <object id="230" type="objeto" x="1250.55" y="256" width="58.9091" height="32.1818"/>
  <object id="231" type="objeto" x="1250" y="147.273" width="60.3636" height="48.1818"/>
  <object id="233" type="objeto" x="1250.18" y="96" width="59.8182" height="31.4545"/>
  <object id="234" type="objeto" x="1322.18" y="70.3636" width="10.3636" height="37.6364"/>
  <object id="235" type="objeto" x="32" y="479.25" width="17" height="33.5"/>
  <object id="237" name="planfeto1" type="objeto" x="99.25" y="564.25" width="25.25" height="11">
   <properties>
    <property name="real" type="bool" value="false"/>
   </properties>
  </object>
  <object id="239" type="objeto" x="288.909" y="351.273" width="29.2727" height="62.5455"/>
  <object id="240" type="objeto" x="224.545" y="420.364" width="7.27273" height="16.1818"/>
  <object id="242" type="objeto" x="231.438" y="427" width="11.6875" height="10"/>
  <object id="245" type="objeto" x="1249.82" y="1035.27" width="29.8182" height="11.8182"/>
  <object id="246" type="objeto" x="1256.73" y="1031.64" width="19.2727" height="4.90909"/>
  <object id="247" type="objeto" x="1323" y="1219.88" width="8.875" height="20.625"/>
  <object id="248" type="objeto" x="1321.25" y="1232.63" width="11.625" height="5.625"/>
  <object id="249" type="objeto" x="1331" y="1231" width="1.625" height="2.5"/>
  <object id="250" type="objeto" x="1251.25" y="1230.38" width="26.25" height="42.125"/>
  <object id="251" type="objeto" x="1250.75" y="1217.38" width="11.125" height="13.875"/>
  <object id="253" type="objeto" x="1251.18" y="1345.45" width="25.6364" height="28.3636"/>
  <object id="254" type="objeto" x="1257.27" y="1338.27" width="14.0909" height="9.09091"/>
  <object id="255" type="objeto" x="1271" y="1339.18" width="4.72727" height="7.72727"/>
  <object id="256" type="objeto" x="1253.91" y="1339.82" width="5.90909" height="5.72727"/>
  <object id="257" type="objeto" x="1251.91" y="1340.82" width="5.09091" height="6.45455"/>
  <object id="258" type="objeto" x="1283.13" y="1345.25" width="27.375" height="28.1875"/>
  <object id="259" type="objeto" x="1291.94" y="1337.19" width="8.75" height="10.0625"/>
  <object id="260" type="objeto" x="1300.13" y="1338.13" width="8" height="11"/>
  <object id="261" type="objeto" x="1284.31" y="1338.19" width="8.4375" height="10"/>
  <object id="262" type="objeto" x="1571.75" y="1315.63" width="24.25" height="23.75"/>
  <object id="263" type="objeto" x="1480" y="998.75" width="19.875" height="16.875"/>
  <object id="264" type="objeto" x="1738.55" y="1031" width="9.72727" height="18.1818"/>
  <object id="265" type="objeto" x="1747.18" y="1041.45" width="2.54545" height="4.27273"/>
  <object id="266" type="objeto" x="1738.27" y="1039.18" width="0.363636" height="6.27273"/>
  <object id="267" type="objeto" x="1572.63" y="1221.75" width="54.25" height="16.25"/>
  <object id="268" type="objeto" x="1573" y="1208" width="54.375" height="11.75"/>
  <object id="269" type="objeto" x="1581.5" y="1203.63" width="36.625" height="6.375"/>
  <object id="270" type="objeto" x="1452.06" y="1349.94" width="9.1875" height="17.3125"/>
  <object id="273" type="objeto" x="1451.06" y="1360.13" width="2.3125" height="4.75"/>
  <object id="274" type="objeto" x="1706.96" y="1318.65" width="8.82609" height="18.3043"/>
  <object id="275" type="objeto" x="1714.91" y="1328.52" width="1.91304" height="5.69565"/>
  <object id="276" type="objeto" x="1705.96" y="1327.09" width="1.69565" height="6.65217"/>
  <object id="277" type="objeto" x="1859.27" y="1334.18" width="25.8182" height="38.9091"/>
  <object id="278" type="objeto" x="1888.55" y="1330.36" width="63.2727" height="47.2727"/>
  <object id="279" type="objeto" x="1923.64" y="1301.82" width="24.7273" height="29.8182"/>
  <object id="280" type="objeto" x="1923.82" y="1229.45" width="19.6364" height="43.0909"/>
  <object id="281" type="objeto" x="1943.27" y="1218.91" width="5.45455" height="47.0909"/>
  <object id="282" type="objeto" x="1939.27" y="1219.82" width="5.63636" height="10.5455"/>
  <object id="283" type="objeto" x="1921.82" y="1195.27" width="28.9091" height="12.1818"/>
  <object id="284" type="objeto" x="1933.64" y="1191.27" width="12.5455" height="4.18182"/>
  <object id="285" type="objeto" x="1928.18" y="1192.55" width="7.81818" height="4.18182"/>
  <object id="286" type="objeto" x="1860.09" y="1187.55" width="24.5455" height="25.1818"/>
  <object id="287" type="objeto" x="1800.18" y="1221.73" width="17.3636" height="18.9091"/>
  <object id="289" type="objeto" x="1386.63" y="970.25" width="14.0625" height="15.0625"/>
  <object id="290" type="objeto" x="1381.94" y="973.125" width="6.25" height="8.5625"/>
  <object id="291" type="objeto" x="1399.75" y="973.938" width="4.0625" height="8.3125"/>
  <object id="292" type="objeto" x="1389.44" y="965.813" width="7.6875" height="7.125"/>
  <object id="293" type="objeto" x="1833.91" y="971.091" width="12.1818" height="12.7273"/>
  <object id="294" type="objeto" x="1845.91" y="971" width="5.63636" height="12.1818"/>
  <object id="295" type="objeto" x="1830.91" y="973.091" width="4.63636" height="7.81818"/>
  <object id="296" type="objeto" x="1836.91" y="966.727" width="8" height="5.90909"/>
  <object id="297" type="objeto" x="2186.36" y="955.636" width="11.4545" height="11.4545"/>
  <object id="298" type="objeto" x="2112.63" y="220.5" width="15" height="25.625"/>
  <object id="300" type="objeto" x="2081.38" y="234.625" width="27.25" height="9"/>
  <object id="301" type="objeto" x="2080.63" y="242.125" width="3.75" height="39.75"/>
  <object id="302" type="objeto" x="2082" y="296.375" width="3.75" height="46.5"/>
  <object id="303" type="objeto" x="2085.63" y="305.75" width="19.5" height="7.75"/>
  <object id="304" type="objeto" x="2083.88" y="332.75" width="20.875" height="9.5"/>
  <object id="305" type="objeto" x="2089.25" y="375.5" width="13.25" height="9.75"/>
  <object id="306" type="objeto" x="2086.25" y="351" width="20.75" height="29.5"/>
  <object id="307" type="objeto" x="2411.27" y="375.818" width="9.63636" height="10"/>
  <object id="308" type="objeto" x="2407.45" y="352.909" width="20.1818" height="32.7273"/>
  <object id="309" type="objeto" x="2407" y="305.125" width="21" height="8.625"/>
  <object id="310" type="objeto" x="2425.38" y="296.625" width="5.375" height="40.875"/>
  <object id="311" type="objeto" x="2408.25" y="333.25" width="22.875" height="9"/>
  <object id="312" type="objeto" x="2406.13" y="334.5" width="4.75" height="6.375"/>
  <object id="313" type="objeto" x="2416.38" y="220.125" width="15.5" height="68.25"/>
  <object id="314" type="objeto" x="2408.63" y="192.5" width="16.625" height="29"/>
  <object id="315" type="objeto" x="2405.13" y="209.375" width="20.25" height="13.625"/>
  <object id="316" type="objeto" x="2371.18" y="250.636" width="25.0909" height="36.7273"/>
  <object id="317" type="objeto" x="2308.45" y="244.182" width="54.9091" height="41.5455"/>
  <object id="318" type="objeto" x="2343.64" y="211.818" width="16.2727" height="32.2727"/>
  <object id="320" type="objeto" x="1094.75" y="1023.5" width="19" height="33"/>
  <object id="324" type="objeto" x="1098.5" y="960.75" width="11" height="6.25"/>
  <object id="325" type="objeto" x="807.818" y="98.1818" width="19.6364" height="29.4545"/>
  <object id="335" name="planfeto2" type="objeto" x="457.182" y="614" width="14.4545" height="21.4545">
   <properties>
    <property name="umbra" type="bool" value="false"/>
   </properties>
  </object>
  <object id="336" name="planfeto3" type="objeto" x="1865.09" y="550.364" width="15.2727" height="21.4545">
   <properties>
    <property name="real" type="bool" value="false"/>
   </properties>
  </object>
  <object id="337" name="planfeto4" type="objeto" x="937.364" y="6.09091" width="14.5455" height="21.9091">
   <properties>
    <property name="umbra" type="bool" value="false"/>
   </properties>
  </object>
  <object id="338" name="planfeto5" type="objeto" x="1737" y="902.5" width="14.5" height="21.5">
   <properties>
    <property name="umbra" type="bool" value="false"/>
   </properties>
  </object>
  <object id="576" type="objeto" x="2018" y="420.364" width="28.4545" height="38"/>
  <object id="577" type="objeto" x="1993.91" y="409.818" width="2.54545" height="24.4545"/>
  <object id="578" type="objeto" x="1994.18" y="419.545" width="15.2727" height="14.6364"/>
  <object id="579" type="objeto" x="2127.5" y="473.25" width="46.625" height="24.625"/>
  <object id="580" type="objeto" x="2113.75" y="514" width="60.875" height="30.375"/>
  <object id="583" type="objeto" x="2017" y="579.625" width="29.875" height="72"/>
  <object id="584" x="1993.5" y="570.625" width="4.125" height="20.75"/>
  <object id="585" type="objeto" x="1994.25" y="579.375" width="15.375" height="14.625"/>
  <object id="586" type="objeto" x="2089.09" y="552.727" width="15.2727" height="52.5455"/>
  <object id="587" type="objeto" x="2129.27" y="633.273" width="45.4545" height="24"/>
  <object id="588" type="objeto" x="2112.91" y="674" width="61.4545" height="30"/>
  <object id="589" x="1994" y="730.727" width="2" height="17.6364"/>
  <object id="590" type="objeto" x="1994.36" y="740.909" width="14" height="12.9091"/>
  <object id="591" type="objeto" x="2017.82" y="739.636" width="27.8182" height="37.8182"/>
  <object id="592" type="objeto" x="2128.73" y="793.273" width="46.1818" height="25.4545"/>
  <object id="593" type="objeto" x="2113.64" y="834.909" width="60.7273" height="29.0909"/>
  <object id="594" type="objeto" x="2406.55" y="711.091" width="19.0909" height="55.4545"/>
  <object id="595" type="objeto" x="2336.18" y="791.818" width="46" height="25.4545"/>
  <object id="596" type="objeto" x="2338" y="835.636" width="60.3636" height="28"/>
  <object id="599" type="objeto" x="2514.91" y="730" width="1.81818" height="19.6364"/>
  <object id="600" type="objeto" x="2503.27" y="740.909" width="14.1818" height="13.0909"/>
  <object id="601" type="objeto" x="2466.73" y="740.182" width="26.9091" height="38.7273"/>
  <object id="602" type="objeto" x="2336.18" y="632.727" width="47.6364" height="25.6364"/>
  <object id="604" type="objeto" x="2337.45" y="674.727" width="62" height="28.5455"/>
  <object id="605" type="objeto" x="2466.73" y="579.273" width="26.5455" height="38.7273"/>
  <object id="606" x="2515.64" y="569.818" width="2.18182" height="23.2727"/>
  <object id="607" type="objeto" x="2502.73" y="579.818" width="14.9091" height="14.7273"/>
  <object id="608" type="objeto" x="2407.27" y="389.273" width="18.3636" height="57.4545"/>
  <object id="609" type="objeto" x="2337.45" y="473.273" width="46" height="24.9091"/>
  <object id="610" type="objeto" x="2337.45" y="514.727" width="61.2727" height="26.7273"/>
  <object id="611" type="objeto" x="2466" y="420.182" width="27.0909" height="70.7273"/>
  <object id="612" x="2515.64" y="410.182" width="1.63636" height="20.1818"/>
  <object id="613" type="objeto" x="2502.91" y="420.545" width="15.2727" height="13.4545"/>
 </objectgroup>
 <objectgroup id="27" name="NPC">
  <object id="329" name="enfermeira" type="npc" x="832" y="145.637" width="64" height="7.27271"/>
  <object id="673" gid="8394" x="827.333" y="159.667" width="32" height="32"/>
 </objectgroup>
 <objectgroup id="32" name="Comodos" visible="0">
  <object id="342" name="QuartoMaria" type="comodo" x="0.666667" y="320" width="223.333" height="318.667">
   <properties>
    <property name="cameraEstatica" type="bool" value="true"/>
   </properties>
  </object>
  <object id="344" name="QuartoMaria" type="comodo" x="2" y="448" width="350" height="193.333">
   <properties>
    <property name="cameraEstatica" type="bool" value="true"/>
   </properties>
  </object>
  <object id="346" name="Banheiro" type="comodo" x="211.75" y="319.75" width="139.5" height="159">
   <properties>
    <property name="cameraEstatica" type="bool" value="true"/>
   </properties>
  </object>
  <object id="353" name="CorredorOeste" type="comodo" x="-0.666667" y="608" width="1120.67" height="160.667"/>
  <object id="360" name="CorredorOeste" type="comodo" x="960.25" y="288" width="160" height="800"/>
  <object id="362" name="CorredorOeste" type="comodo" x="1120.31" y="928.25" width="127.688" height="159.75"/>
  <object id="364" name="CorredorOeste" type="comodo" x="1088.09" y="544.087" width="894.413" height="158.413"/>
  <object id="367" name="Recepcao" type="comodo" x="712.063" y="0.125" width="664.063" height="319.938"/>
  <object id="376" name="CorredorLeste" type="comodo" x="1983.73" y="928.318" width="352.939" height="160.182"/>
  <object id="408" name="EscritorioElimar" type="comodo" x="2048" y="160" width="416" height="256">
   <properties>
    <property name="cameraEstatica" type="bool" value="true"/>
   </properties>
  </object>
  <object id="656" name="CorredorLeste" type="comodo" x="2176" y="384" width="160" height="576"/>
  <object id="661" name="Escritorio1" type="comodo" x="1952" y="384" width="256" height="192"/>
  <object id="662" name="Escritorio3" type="comodo" x="1952" y="544" width="255" height="190"/>
  <object id="663" name="Escritorio5" type="comodo" x="1952" y="704" width="256" height="192"/>
  <object id="666" name="Escritorio6" type="comodo" x="2304" y="704" width="256" height="192"/>
  <object id="669" name="Escritorio4" type="comodo" x="2304" y="544" width="256" height="192"/>
  <object id="670" name="Escritorio2" type="comodo" x="2304" y="384" width="256" height="192"/>
  <object id="671" name="JardimExterno" type="comodo" x="1216" y="896" width="768" height="512"/>
  <object id="672" x="2060" y="1209.33"/>
 </objectgroup>
 <objectgroup id="28" name="Luzes" visible="0" locked="1">
  <object id="411" name="abajur" type="luz" x="75.9688" y="331.063" width="9.0625" height="7.875">
   <properties>
    <property name="cor" type="color" value="#ffffff00"/>
    <property name="distancia" type="float" value="50"/>
   </properties>
  </object>
  <object id="412" name="abajur" type="luz" x="85.0313" y="334" width="0.875" height="3.96875">
   <properties>
    <property name="cor" type="color" value="#ffffff00"/>
    <property name="distancia" type="float" value="50"/>
   </properties>
  </object>
  <object id="413" name="abajur" type="luz" x="75.0938" y="334.094" width="0.84375" height="3.90625">
   <properties>
    <property name="cor" type="color" value="#ffffff00"/>
    <property name="distancia" type="float" value="50"/>
   </properties>
  </object>
  <object id="415" name="abajur" type="luz" x="76.875" y="329" width="7" height="3.6875">
   <properties>
    <property name="cor" type="color" value="#ffffff00"/>
    <property name="distancia" type="float" value="50"/>
   </properties>
  </object>
  <object id="416" name="abajur" type="luz" x="77.9688" y="328.063" width="5" height="2.59375">
   <properties>
    <property name="cor" type="color" value="#ffffff00"/>
    <property name="distancia" type="float" value="50"/>
   </properties>
  </object>
  <object id="427" type="luz" x="64" y="384" width="128" height="32">
   <properties>
    <property name="ativo" type="bool" value="true"/>
    <property name="atravessa" type="bool" value="false"/>
    <property name="distancia" type="float" value="400"/>
    <property name="estatica" type="bool" value="true"/>
   </properties>
  </object>
  <object id="428" type="luz" x="64" y="480" width="128" height="32">
   <properties>
    <property name="ativo" type="bool" value="true"/>
    <property name="atravessa" type="bool" value="false"/>
    <property name="distancia" type="float" value="400"/>
    <property name="estatica" type="bool" value="true"/>
   </properties>
  </object>
  <object id="430" type="luz" x="64" y="576" width="128" height="32">
   <properties>
    <property name="ativo" type="bool" value="true"/>
    <property name="atravessa" type="bool" value="false"/>
    <property name="distancia" type="float" value="400"/>
    <property name="estatica" type="bool" value="true"/>
   </properties>
  </object>
  <object id="432" type="luz" x="256" y="480" width="28.5" height="113">
   <properties>
    <property name="ativo" type="bool" value="true"/>
    <property name="atravessa" type="bool" value="false"/>
    <property name="distancia" type="float" value="400"/>
    <property name="estatica" type="bool" value="true"/>
   </properties>
  </object>
  <object id="433" type="luz" x="224" y="384" width="96" height="32">
   <properties>
    <property name="distancia" type="float" value="600"/>
   </properties>
  </object>
  <object id="435" type="luz" x="64" y="640" width="32" height="96"/>
  <object id="436" type="luz" x="160" y="640" width="32" height="96"/>
  <object id="437" type="luz" x="256" y="640" width="32" height="96"/>
  <object id="438" type="luz" x="352" y="640" width="32" height="96"/>
  <object id="439" type="luz" x="448" y="640" width="32" height="96"/>
  <object id="441" type="luz" x="544" y="640" width="32" height="96"/>
  <object id="442" type="luz" x="640" y="640" width="32" height="96"/>
  <object id="443" type="luz" x="736" y="640" width="32" height="96"/>
  <object id="445" type="luz" x="832" y="640" width="32" height="96"/>
  <object id="446" type="luz" x="928" y="640" width="32" height="96"/>
  <object id="447" type="luz" x="984" y="672" width="96" height="32"/>
  <object id="448" type="luz" x="984" y="576" width="96" height="32"/>
  <object id="449" type="luz" x="984" y="768" width="96" height="32"/>
  <object id="452" type="luz" x="984" y="864" width="96" height="32"/>
  <object id="453" type="luz" x="984" y="960" width="96" height="32"/>
  <object id="454" type="luz" x="1144" y="960" width="32" height="96"/>
  <object id="455" type="luz" x="984" y="480" width="96" height="32"/>
  <object id="456" type="luz" x="984" y="384" width="96" height="32"/>
  <object id="457" type="luz" x="1144" y="576" width="32" height="96"/>
  <object id="458" type="luz" x="1240" y="576" width="32" height="96"/>
  <object id="459" type="luz" x="1336" y="576" width="32" height="96"/>
  <object id="460" type="luz" x="1432" y="576" width="32" height="96"/>
  <object id="461" type="luz" x="1528" y="576" width="32" height="96"/>
  <object id="462" type="luz" x="1624" y="576" width="32" height="96"/>
  <object id="463" type="luz" x="1720" y="576" width="32" height="96"/>
  <object id="464" type="luz" x="1816" y="576" width="32" height="96"/>
  <object id="466" type="luz" x="1912" y="576" width="32" height="96"/>
  <object id="470" type="luz" x="992" y="224" width="96" height="32">
   <properties>
    <property name="distancia" type="float" value="400"/>
   </properties>
  </object>
  <object id="471" type="luz" x="992" y="128" width="96" height="32">
   <properties>
    <property name="distancia" type="float" value="400"/>
   </properties>
  </object>
  <object id="472" type="luz" x="992" y="32" width="96" height="32">
   <properties>
    <property name="distancia" type="float" value="400"/>
   </properties>
  </object>
  <object id="473" type="luz" x="1152" y="32" width="96" height="32">
   <properties>
    <property name="distancia" type="float" value="400"/>
   </properties>
  </object>
  <object id="474" type="luz" x="1152" y="128" width="96" height="32">
   <properties>
    <property name="distancia" type="float" value="400"/>
   </properties>
  </object>
  <object id="475" type="luz" x="1152" y="224" width="96" height="32">
   <properties>
    <property name="distancia" type="float" value="400"/>
   </properties>
  </object>
  <object id="476" type="luz" x="1312" y="64" width="32" height="32"/>
  <object id="479" type="luz" x="832" y="32" width="96" height="32">
   <properties>
    <property name="distancia" type="float" value="400"/>
   </properties>
  </object>
  <object id="481" type="luz" x="832" y="128" width="96" height="32">
   <properties>
    <property name="distancia" type="float" value="400"/>
   </properties>
  </object>
  <object id="482" type="luz" x="832" y="224" width="96" height="32">
   <properties>
    <property name="distancia" type="float" value="400"/>
   </properties>
  </object>
  <object id="484" type="luz" x="816" y="57.3333">
   <properties>
    <property name="distancia" type="float" value="20"/>
   </properties>
  </object>
  <object id="489" type="luz" x="2016" y="960" width="32" height="96"/>
  <object id="490" type="luz" x="2112" y="960" width="32" height="96"/>
  <object id="491" type="luz" x="2208" y="960" width="32" height="96"/>
  <object id="492" type="luz" x="2208" y="864" width="96" height="32"/>
  <object id="493" type="luz" x="2208" y="768" width="96" height="32"/>
  <object id="494" type="luz" x="2208" y="672" width="96" height="32"/>
  <object id="495" type="luz" x="2208" y="576" width="96" height="32"/>
  <object id="496" type="luz" x="2208" y="480" width="96" height="32"/>
  <object id="497" type="luz" x="2208" y="352" width="96" height="32">
   <properties>
    <property name="distancia" type="float" value="400"/>
   </properties>
  </object>
  <object id="498" type="luz" x="2208" y="256" width="96" height="32">
   <properties>
    <property name="distancia" type="float" value="400"/>
   </properties>
  </object>
  <object id="500" type="luz" x="2208" y="160" width="96" height="32">
   <properties>
    <property name="distancia" type="float" value="400"/>
   </properties>
  </object>
  <object id="501" type="luz" x="2368" y="192" width="32" height="64">
   <properties>
    <property name="distancia" type="float" value="400"/>
   </properties>
  </object>
  <object id="502" type="luz" x="2368" y="288" width="32" height="64">
   <properties>
    <property name="distancia" type="float" value="400"/>
   </properties>
  </object>
  <object id="505" type="luz" x="2112" y="288" width="32" height="64">
   <properties>
    <property name="distancia" type="float" value="400"/>
   </properties>
  </object>
  <object id="506" type="luz" x="2112" y="192" width="32" height="64">
   <properties>
    <property name="distancia" type="float" value="400"/>
   </properties>
  </object>
  <object id="617" type="luz" x="2144" y="448" width="32" height="64">
   <properties>
    <property name="distancia" type="float" value="400"/>
   </properties>
  </object>
  <object id="618" type="luz" x="2048" y="448" width="32" height="64">
   <properties>
    <property name="distancia" type="float" value="400"/>
   </properties>
  </object>
  <object id="619" type="luz" x="2336" y="448" width="32" height="64">
   <properties>
    <property name="distancia" type="float" value="400"/>
   </properties>
  </object>
  <object id="620" type="luz" x="2432" y="448" width="32" height="64">
   <properties>
    <property name="distancia" type="float" value="400"/>
   </properties>
  </object>
  <object id="621" type="luz" x="2336" y="608" width="32" height="64">
   <properties>
    <property name="distancia" type="float" value="400"/>
   </properties>
  </object>
  <object id="622" type="luz" x="2432" y="608" width="32" height="64">
   <properties>
    <property name="distancia" type="float" value="400"/>
   </properties>
  </object>
  <object id="623" type="luz" x="2144" y="608" width="32" height="64">
   <properties>
    <property name="distancia" type="float" value="400"/>
   </properties>
  </object>
  <object id="624" type="luz" x="2048" y="608" width="32" height="64">
   <properties>
    <property name="distancia" type="float" value="400"/>
   </properties>
  </object>
  <object id="627" type="luz" x="2048" y="768" width="32" height="64">
   <properties>
    <property name="distancia" type="float" value="400"/>
   </properties>
  </object>
  <object id="628" type="luz" x="2144" y="768" width="32" height="64">
   <properties>
    <property name="distancia" type="float" value="400"/>
   </properties>
  </object>
  <object id="629" type="luz" x="2336" y="768" width="32" height="64">
   <properties>
    <property name="distancia" type="float" value="400"/>
   </properties>
  </object>
  <object id="630" type="luz" x="2432" y="768" width="32" height="64">
   <properties>
    <property name="distancia" type="float" value="400"/>
   </properties>
  </object>
  <object id="632" type="luz" x="1280" y="960" width="96" height="96">
   <properties>
    <property name="distancia" type="float" value="400"/>
   </properties>
  </object>
  <object id="633" type="luz" x="1280" y="1088" width="96" height="96">
   <properties>
    <property name="distancia" type="float" value="400"/>
   </properties>
  </object>
  <object id="634" type="luz" x="1280" y="1216" width="96" height="96">
   <properties>
    <property name="distancia" type="float" value="400"/>
   </properties>
  </object>
  <object id="636" type="luz" x="1408" y="1216" width="96" height="96">
   <properties>
    <property name="distancia" type="float" value="400"/>
   </properties>
  </object>
  <object id="637" type="luz" x="1408" y="1088" width="96" height="96">
   <properties>
    <property name="distancia" type="float" value="400"/>
   </properties>
  </object>
  <object id="638" type="luz" x="1408" y="960" width="96" height="96">
   <properties>
    <property name="distancia" type="float" value="400"/>
   </properties>
  </object>
  <object id="640" type="luz" x="1536" y="960" width="96" height="96">
   <properties>
    <property name="distancia" type="float" value="400"/>
   </properties>
  </object>
  <object id="641" type="luz" x="1536" y="1088" width="96" height="96">
   <properties>
    <property name="distancia" type="float" value="400"/>
   </properties>
  </object>
  <object id="642" type="luz" x="1536" y="1216" width="96" height="96">
   <properties>
    <property name="distancia" type="float" value="400"/>
   </properties>
  </object>
  <object id="643" type="luz" x="1664" y="1216" width="96" height="96">
   <properties>
    <property name="distancia" type="float" value="400"/>
   </properties>
  </object>
  <object id="645" type="luz" x="1664" y="1088" width="96" height="96">
   <properties>
    <property name="distancia" type="float" value="400"/>
   </properties>
  </object>
  <object id="646" type="luz" x="1664" y="960" width="96" height="96">
   <properties>
    <property name="distancia" type="float" value="400"/>
   </properties>
  </object>
  <object id="647" type="luz" x="1792" y="1216" width="96" height="96">
   <properties>
    <property name="distancia" type="float" value="400"/>
   </properties>
  </object>
  <object id="648" type="luz" x="1792" y="1088" width="96" height="96">
   <properties>
    <property name="distancia" type="float" value="400"/>
   </properties>
  </object>
  <object id="649" type="luz" x="1792" y="960" width="96" height="96">
   <properties>
    <property name="distancia" type="float" value="400"/>
   </properties>
  </object>
  <object id="653" type="luz" x="1920" y="960" width="32" height="96">
   <properties>
    <property name="distancia" type="float" value="400"/>
   </properties>
  </object>
  <object id="654" type="luz" x="1920" y="1088" width="32" height="96">
   <properties>
    <property name="distancia" type="float" value="400"/>
   </properties>
  </object>
  <object id="655" type="luz" x="1920" y="1216" width="32" height="96">
   <properties>
    <property name="distancia" type="float" value="400"/>
   </properties>
  </object>
 </objectgroup>
 <objectgroup id="34" name="Destinos" visible="0">
  <object id="510" name="QuartoCorredor" x="265.438" y="640.528" width="12.75" height="11.75"/>
  <object id="511" name="spawnpoint" x="41" y="366" width="13.5" height="14"/>
  <object id="513" name="QuartoMaria" x="265.79" y="593.869" width="12.75" height="11.75"/>
  <object id="514" name="QuartoMaria2" x="264" y="484.25" width="16.5" height="16"/>
  <object id="515" name="BanheiroMaria" x="262.5" y="429.75" width="20.75" height="15.5"/>
  <object id="516" name="Recepcao" x="1032.18" y="271.818" width="15.6364" height="14.9091"/>
  <object id="517" name="CorredorRecepcao" x="1033.09" y="322.364" width="16.5455" height="16.5455"/>
  <object id="518" name="CorredorJardim" x="1207.25" y="999" width="17.5" height="18"/>
  <object id="519" name="Jardim" x="1250.5" y="999.75" width="19" height="17"/>
  <object id="523" name="CorredorEscritorios" x="1986" y="1000.73" width="16.7273" height="14.9091"/>
  <object id="524" name="Jardim2" x="1935.64" y="1001.64" width="13.8182" height="13.4545"/>
  <object id="525" name="EscritorioElimar" x="2249.09" y="366.909" width="14.1818" height="14.3636"/>
  <object id="528" name="CorredorEscritorios0" x="2248" y="419.818" width="17.8182" height="18.7273"/>
  <object id="545" name="Escritorio2" x="2324.44" y="457.438" width="17.5" height="13.625"/>
  <object id="547" name="CorredorEscritorios2" x="2289.25" y="458.5" width="10.375" height="13.125"/>
  <object id="548" name="CorredorEscritorios1" x="2210" y="458" width="15.375" height="13.625"/>
  <object id="549" name="Escritorio1" x="2177.75" y="458.813" width="12.25" height="13"/>
  <object id="552" name="Escritorio3" x="2178.13" y="617.5" width="12.125" height="11.875"/>
  <object id="553" name="CorredorEscritorios3" x="2212.75" y="620.125" width="11.625" height="9.75"/>
  <object id="554" name="CorredorEscritorios5" x="2211.25" y="778.875" width="13.75" height="12.375"/>
  <object id="556" name="Escritorio5" x="2173.44" y="777.75" width="12.875" height="13.375"/>
  <object id="557" name="Escritorio6" x="2323.57" y="779.375" width="12" height="10.125"/>
  <object id="558" name="CorredorEscritorios6" x="2286.63" y="780.25" width="12.5" height="10"/>
  <object id="559" name="CorredorEscritorios4" x="2289.75" y="619.75" width="11.5" height="10.5"/>
  <object id="561" name="Escritorio4" x="2324.44" y="619.5" width="12.625" height="10.375"/>
 </objectgroup>
</map>
